;======================================================
;===   cPost Standard PP for SINUMERIK 840 D        ===
;======================================================
N01 G54
N02 TRANS X-15.8 Y-100 Z12.3
N10 G0 G90 G40 
N20 G17
N30 ;=============== TOOL CHANGE =================
N40 ; DESC : T2 End Mill D 10
N50 ;=============================================
N60 T2 M06
N70 D1
N80 G0 G90 G40 G17
N90 G94 F1000 S70 M3
N100 G64 SOFT
N110 G1 X79.587 Y54.983 Z-6 F1000 G94
N120 G3 X75 Y50 I0.413 J-4.983
N130 G3 X80 Y45 I5 J0
N140 G3 X85 Y50 I0 J5
N150 G3 X80 Y55 I-5 J0
N160 G3 X79.587 Y54.983 I0 J-5
N170 G1 X79.381 Y57.474
N180 X79.174 Y59.966
N190 G3 X70 Y50 I0.826 J-9.966
N200 G3 X80 Y40 I10 J0
N210 G3 X90 Y50 I0 J10
N220 G3 X80 Y60 I-10 J0
N230 G3 X79.174 Y59.966 I0 J-10
N240 G1 X78.968 Y62.457
N250 X78.761 Y64.949
N260 G3 X65 Y50 I1.239 J-14.949
N270 G3 X80 Y35 I15 J0
N280 G3 X95 Y50 I0 J15
N290 G3 X80 Y65 I-15 J0
N300 G3 X78.761 Y64.949 I0 J-15
N310 G1 X78.555 Y67.44
N320 X78.348 Y69.932
N330 G3 X60 Y50 I1.652 J-19.932
N340 G3 X80 Y30 I20 J0
N350 G3 X100 Y50 I0 J20
N360 G3 X80 Y70 I-20 J0
N370 G3 X78.348 Y69.932 I0 J-20
N380 G1 X78.142 Y72.423
N390 X77.936 Y74.915
N400 G3 X55 Y50 I2.064 J-24.915
N410 G3 X80 Y25 I25 J0
N420 G3 X105 Y50 I0 J25
N430 G3 X80 Y75 I-25 J0
N440 G3 X77.936 Y74.915 I0 J-25
N450 G1 X77.729 Y77.406
N460 X77.523 Y79.898
N470 G3 X50 Y50 I2.477 J-29.898
N480 G3 X80 Y20 I30 J0
N490 G3 X110 Y50 I0 J30
N500 G3 X80 Y80 I-30 J0
N510 G3 X77.523 Y79.898 I0 J-30
G1 Z5
G0 X0 Y0 Z50
N520 M5 M9
N530 M30
