;======================================================
;===   cPost Standard PP for SINUMERIK 840 D        ===
;======================================================
G54
TRANS X-18.2 Y-160 Z28.1
N10 G0 G90 G40 
N20 G17
N30 ;=============== TOOL CHANGE =================
N40 ; DESC : T1 Face Mill D 40
N50 ;=============================================
N60 T1 M06
N70 D1
N80 G0 G90 G40 G17
N90 G94 F150 S1200 M3
N100 G64 SOFT
N110 G0 X-25 Y152 Z20.5
N120 G0 Z10.5
N130 G1 Z0.5 F100 G94
N140 X225 F150
N150 Y131.429
N160 X-25
N170 Y110.857
N180 X225
N190 Y90.286
N200 X-25
N210 Y69.714
N220 X225
N230 Y49.143
N240 X-25
N250 Y28.571
N260 X225
N270 Y8
N280 X-25
N290 G0 Z10
N300 G0 Y152
N310 G0 Z0
N320 G1 X225 F50
N330 Y131.429
N340 X-25
N350 Y110.857
N360 X225
N370 Y90.286
N380 X-25
N390 Y69.714
N400 X225
N410 Y49.143
N420 X-25
N430 Y28.571
N440 X225
N450 Y8
N460 X-25
N470 Z5 F2000
N480 G0 Z15
N490 ;=============== TOOL CHANGE =================
N500 ; DESC : T2 End Mill D 12
N510 ;=============================================
N520 T2 M06
N530 D1
N540 G0 G90 G40 G17
N550 G94 F150 S1200 M3
N560 G64 SOFT
N570 G1 X76.975 Y114 Z1.667 F100
N580 Z-3.333
N590 X152 F150
N600 G2 X154 Y112 I0 J-2
N610 G1 Y48
N620 G2 X152 Y46 I-2 J0
N630 G1 X48
N640 G2 X46 Y48 I0 J2
N650 G1 Y112
N660 G2 X48 Y114 I2 J0
N670 G1 X76.975
N680 X77.682 Y113.707
N690 X80.389 Y111
N700 X83.097 Y108.293
N710 X83.804 Y108
N720 X147
N730 G2 X148 Y107 I0 J-1
N740 G1 Y53
N750 G2 X147 Y52 I-1 J0
N760 G1 X53
N770 G2 X52 Y53 I0 J1
N780 G1 Y107
N790 G2 X53 Y108 I1 J0
N800 G1 X76.975
N810 X77.682 Y107.707
N820 X80.389 Y105
N830 X83.097 Y102.293
N840 X83.804 Y102
N850 X141
N860 G2 X142 Y101 I0 J-1
N870 G1 Y59
N880 G2 X141 Y58 I-1 J0
N890 G1 X59
N900 G2 X58 Y59 I0 J1
N910 G1 Y101
N920 G2 X59 Y102 I1 J0
N930 G1 X76.975
N940 X77.682 Y101.707
N950 X80.389 Y99
N960 X83.097 Y96.293
N970 X83.804 Y96
N980 X135
N990 G2 X136 Y95 I0 J-1
N1000 G1 Y65
N1010 G2 X135 Y64 I-1 J0
N1020 G1 X65
N1030 G2 X64 Y65 I0 J1
N1040 G1 Y95
N1050 G2 X65 Y96 I1 J0
N1060 G1 X76.975
N1070 X77.682 Y95.707
N1080 X80.389 Y93
N1090 X83.097 Y90.293
N1100 X83.804 Y90
N1110 X129
N1120 G2 X130 Y89 I0 J-1
N1130 G1 Y71
N1140 G2 X129 Y70 I-1 J0
N1150 G1 X71
N1160 G2 X70 Y71 I0 J1
N1170 G1 Y89
N1180 G2 X71 Y90 I1 J0
N1190 G1 X76.975
N1200 X77.682 Y89.707
N1210 X80.389 Y87
N1220 X83.097 Y84.293
N1230 X83.804 Y84
N1240 X123
N1250 G2 X124 Y83 I0 J-1
N1260 G1 Y77
N1270 G2 X123 Y76 I-1 J0
N1280 G1 X77
N1290 G2 X76 Y77 I0 J1
N1300 G1 Y83
N1310 G2 X77 Y84 I1 J0
N1320 G1 X83.804
N1330 G0 Z1.667
N1340 G0 X76.975 Y114
N1350 G1 Z-6.667 F100
N1360 X152 F150
N1370 G2 X154 Y112 I0 J-2
N1380 G1 Y48
N1390 G2 X152 Y46 I-2 J0
N1400 G1 X48
N1410 G2 X46 Y48 I0 J2
N1420 G1 Y112
N1430 G2 X48 Y114 I2 J0
N1440 G1 X76.975
N1450 X77.682 Y113.707
N1460 X80.389 Y111
N1470 X83.097 Y108.293
N1480 X83.804 Y108
N1490 X147
N1500 G2 X148 Y107 I0 J-1
N1510 G1 Y53
N1520 G2 X147 Y52 I-1 J0
N1530 G1 X53
N1540 G2 X52 Y53 I0 J1
N1550 G1 Y107
N1560 G2 X53 Y108 I1 J0
N1570 G1 X76.975
N1580 X77.682 Y107.707
N1590 X80.389 Y105
N1600 X83.097 Y102.293
N1610 X83.804 Y102
N1620 X141
N1630 G2 X142 Y101 I0 J-1
N1640 G1 Y59
N1650 G2 X141 Y58 I-1 J0
N1660 G1 X59
N1670 G2 X58 Y59 I0 J1
N1680 G1 Y101
N1690 G2 X59 Y102 I1 J0
N1700 G1 X76.975
N1710 X77.682 Y101.707
N1720 X80.389 Y99
N1730 X83.097 Y96.293
N1740 X83.804 Y96
N1750 X135
N1760 G2 X136 Y95 I0 J-1
N1770 G1 Y65
N1780 G2 X135 Y64 I-1 J0
N1790 G1 X65
N1800 G2 X64 Y65 I0 J1
N1810 G1 Y95
N1820 G2 X65 Y96 I1 J0
N1830 G1 X76.975
N1840 X77.682 Y95.707
N1850 X80.389 Y93
N1860 X83.097 Y90.293
N1870 X83.804 Y90
N1880 X129
N1890 G2 X130 Y89 I0 J-1
N1900 G1 Y71
N1910 G2 X129 Y70 I-1 J0
N1920 G1 X71
N1930 G2 X70 Y71 I0 J1
N1940 G1 Y89
N1950 G2 X71 Y90 I1 J0
N1960 G1 X76.975
N1970 X77.682 Y89.707
N1980 X80.389 Y87
N1990 X83.097 Y84.293
N2000 X83.804 Y84
N2010 X123
N2020 G2 X124 Y83 I0 J-1
N2030 G1 Y77
N2040 G2 X123 Y76 I-1 J0
N2050 G1 X77
N2060 G2 X76 Y77 I0 J1
N2070 G1 Y83
N2080 G2 X77 Y84 I1 J0
N2090 G1 X83.804
N2100 G0 Z-1.667
N2110 G0 X76.975 Y114
N2120 G1 Z-10 F100
N2130 X152 F150
N2140 G2 X154 Y112 I0 J-2
N2150 G1 Y48
N2160 G2 X152 Y46 I-2 J0
N2170 G1 X48
N2180 G2 X46 Y48 I0 J2
N2190 G1 Y112
N2200 G2 X48 Y114 I2 J0
N2210 G1 X76.975
N2220 X77.682 Y113.707
N2230 X80.389 Y111
N2240 X83.097 Y108.293
N2250 X83.804 Y108
N2260 X147
N2270 G2 X148 Y107 I0 J-1
N2280 G1 Y53
N2290 G2 X147 Y52 I-1 J0
N2300 G1 X53
N2310 G2 X52 Y53 I0 J1
N2320 G1 Y107
N2330 G2 X53 Y108 I1 J0
N2340 G1 X76.975
N2350 X77.682 Y107.707
N2360 X80.389 Y105
N2370 X83.097 Y102.293
N2380 X83.804 Y102
N2390 X141
N2400 G2 X142 Y101 I0 J-1
N2410 G1 Y59
N2420 G2 X141 Y58 I-1 J0
N2430 G1 X59
N2440 G2 X58 Y59 I0 J1
N2450 G1 Y101
N2460 G2 X59 Y102 I1 J0
N2470 G1 X76.975
N2480 X77.682 Y101.707
N2490 X80.389 Y99
N2500 X83.097 Y96.293
N2510 X83.804 Y96
N2520 X135
N2530 G2 X136 Y95 I0 J-1
N2540 G1 Y65
N2550 G2 X135 Y64 I-1 J0
N2560 G1 X65
N2570 G2 X64 Y65 I0 J1
N2580 G1 Y95
N2590 G2 X65 Y96 I1 J0
N2600 G1 X76.975
N2610 X77.682 Y95.707
N2620 X80.389 Y93
N2630 X83.097 Y90.293
N2640 X83.804 Y90
N2650 X129
N2660 G2 X130 Y89 I0 J-1
N2670 G1 Y71
N2680 G2 X129 Y70 I-1 J0
N2690 G1 X71
N2700 G2 X70 Y71 I0 J1
N2710 G1 Y89
N2720 G2 X71 Y90 I1 J0
N2730 G1 X76.975
N2740 X77.682 Y89.707
N2750 X80.389 Y87
N2760 X83.097 Y84.293
N2770 X83.804 Y84
N2780 X123
N2790 G2 X124 Y83 I0 J-1
N2800 G1 Y77
N2810 G2 X123 Y76 I-1 J0
N2820 G1 X77
N2830 G2 X76 Y77 I0 J1
N2840 G1 Y83
N2850 G2 X77 Y84 I1 J0
N2860 G1 X83.804
N2870 Z5 F2000
N2880 M5 M9
N2890 M30
