;======================================================
;===   cPost Standard PP for SINUMERIK 840 D        ===
;======================================================
G54
TRANS X-17.3 Y-120 Z24.1
N10 G0 G90 G40 
N20 G17
N30 ;=============== TOOL CHANGE =================
N40 ; DESC : T1 Face Mill D 40
N50 ;=============================================
N60 T1 M06
N70 D1
N80 G0 G90 G40 G17
N90 G94 F110 S267 M3
N100 G64 SOFT
N110 G1 X-20 Y120 Z6 F110 G94
N120 Z-4
N130 X200
N140 X-20 Y90
N150 X200
N160 X-20 Y60
N170 X200
N180 X-20 Y30
N190 X200
N200 X-20 Y0
N210 X200
N220 Z6
G0 X0 Y0 Z50
M0
N230 ;=============== TOOL CHANGE =================
N240 ; DESC : T2 End Mill D 12
N250 ;=============================================
N260 T2 M06
N270 D1
N280 G0 G90 G40 G17
N290 G94 F110 S890 M3
N300 G64 SOFT
N310 G1 X89.914 Y62.999 Z4
N320 Z-6
N330 G3 X87 Y60 I0.086 J-2.999
N340 G3 X90 Y57 I3 J0
N350 G3 X93 Y60 I0 J3
N360 G3 X90 Y63 I-3 J0
N370 G3 X89.914 Y62.999 I0 J-3
N380 G1 X89.786 Y67.497
N390 X89.657 Y71.995
N400 G3 X78 Y60 I0.343 J-11.995
N410 G3 X90 Y48 I12 J0
N420 G3 X102 Y60 I0 J12
N430 G3 X90 Y72 I-12 J0
N440 G3 X89.657 Y71.995 I0 J-12
N450 G1 X89.529 Y76.493
N460 X89.4 Y80.991
N470 G3 X69 Y60 I0.6 J-20.991
N480 G3 X90 Y39 I21 J0
N490 G3 X111 Y60 I0 J21
N500 G3 X90 Y81 I-21 J0
N510 G3 X89.4 Y80.991 I0 J-21
N520 G1 X89.272 Y85.49
N530 X89.143 Y89.988
N540 G3 X60 Y60 I0.857 J-29.988
N550 G3 X90 Y30 I30 J0
N560 G3 X120 Y60 I0 J30
N570 G3 X90 Y90 I-30 J0
N580 G3 X89.143 Y89.988 I0 J-30
N590 G1 X89.015 Y94.486
N600 X88.886 Y98.984
N610 G3 X51 Y60 I1.114 J-38.984
N620 G3 X90 Y21 I39 J0
N630 G3 X129 Y60 I0 J39
N640 G3 X90 Y99 I-39 J0
N650 G3 X88.886 Y98.984 I0 J-39
N660 G0 Z-3
N670 G0 X89.914 Y62.999
N680 G1 Z-8
N690 G3 X87 Y60 I0.086 J-2.999
N700 G3 X90 Y57 I3 J0
N710 G3 X93 Y60 I0 J3
N720 G3 X90 Y63 I-3 J0
N730 G3 X89.914 Y62.999 I0 J-3
N740 G1 X89.786 Y67.497
N750 X89.657 Y71.995
N760 G3 X78 Y60 I0.343 J-11.995
N770 G3 X90 Y48 I12 J0
N780 G3 X102 Y60 I0 J12
N790 G3 X90 Y72 I-12 J0
N800 G3 X89.657 Y71.995 I0 J-12
N810 G1 X89.529 Y76.493
N820 X89.4 Y80.991
N830 G3 X69 Y60 I0.6 J-20.991
N840 G3 X90 Y39 I21 J0
N850 G3 X111 Y60 I0 J21
N860 G3 X90 Y81 I-21 J0
N870 G3 X89.4 Y80.991 I0 J-21
N880 G1 X89.272 Y85.49
N890 X89.143 Y89.988
N900 G3 X60 Y60 I0.857 J-29.988
N910 G3 X90 Y30 I30 J0
N920 G3 X120 Y60 I0 J30
N930 G3 X90 Y90 I-30 J0
N940 G3 X89.143 Y89.988 I0 J-30
N950 G1 X89.015 Y94.486
N960 X88.886 Y98.984
N970 G3 X51 Y60 I1.114 J-38.984
N980 G3 X90 Y21 I39 J0
N990 G3 X129 Y60 I0 J39
N1000 G3 X90 Y99 I-39 J0
N1010 G3 X88.886 Y98.984 I0 J-39
N1020 G0 Z-5
N1030 G0 X89.914 Y62.999
N1040 G1 Z-10
N1050 G3 X87 Y60 I0.086 J-2.999
N1060 G3 X90 Y57 I3 J0
N1070 G3 X93 Y60 I0 J3
N1080 G3 X90 Y63 I-3 J0
N1090 G3 X89.914 Y62.999 I0 J-3
N1100 G1 X89.786 Y67.497
N1110 X89.657 Y71.995
N1120 G3 X78 Y60 I0.343 J-11.995
N1130 G3 X90 Y48 I12 J0
N1140 G3 X102 Y60 I0 J12
N1150 G3 X90 Y72 I-12 J0
N1160 G3 X89.657 Y71.995 I0 J-12
N1170 G1 X89.529 Y76.493
N1180 X89.4 Y80.991
N1190 G3 X69 Y60 I0.6 J-20.991
N1200 G3 X90 Y39 I21 J0
N1210 G3 X111 Y60 I0 J21
N1220 G3 X90 Y81 I-21 J0
N1230 G3 X89.4 Y80.991 I0 J-21
N1240 G1 X89.272 Y85.49
N1250 X89.143 Y89.988
N1260 G3 X60 Y60 I0.857 J-29.988
N1270 G3 X90 Y30 I30 J0
N1280 G3 X120 Y60 I0 J30
N1290 G3 X90 Y90 I-30 J0
N1300 G3 X89.143 Y89.988 I0 J-30
N1310 G1 X89.015 Y94.486
N1320 X88.886 Y98.984
N1330 G3 X51 Y60 I1.114 J-38.984
N1340 G3 X90 Y21 I39 J0
N1350 G3 X129 Y60 I0 J39
N1360 G3 X90 Y99 I-39 J0
N1370 G3 X88.886 Y98.984 I0 J-39
N1380 G1 Z0
G0 X0 Y0 Z50
N1390 M5 M9
N1400 M30
