G54
TRANS X0 Y-140 Z48.1
;======================================================
;===   cPost Standard PP for SINUMERIK 840 D        ===
;======================================================
N10 G0 G90 G40 
N20 G17
N30 ;=============== TOOL CHANGE =================
N40 ; DESC : T1 Face Mill D 40
N50 ;=============================================
N60 T1 M06
N70 D1
N80 G0 G90 G40 G17
N90 G94 F1000 S70 M3
N100 G64 SOFT
N110 G1 X100 Y140 Z30 F300 G94
N120 Z20
N130 X200 F1000
N140 Y0
N150 X0
N160 Y140
N170 X100
N180 Y126.6
N190 Y113.2
N200 X173.2
N210 Y26.8
N220 X26.8
N230 Y113.2
N240 X100
N250 Y99.8
N260 Y86.4
N270 X146.4
N280 Y53.6
N290 X53.6
N300 Y86.4
N310 X100
N320 Z30 F1
N330 ;=============== TOOL CHANGE =================
N340 ; DESC : T2 Face Mill D 50
N350 ;=============================================
N360 T2 M06
N370 D1
N380 G0 G90 G40 G17
N390 G94 F1000 S70 M3
N400 G64 SOFT
N410 G1 X201.837 Y154.031 Z20 F300
N420 Z10
N430 X186.22 Y166.525 F1000
N440 X161.22 Y186.525
N450 G3 X100 Y208 I-61.22 J-76.525
N460 G3 X38.78 Y186.525 I0 J-98
N470 G1 X-7.47 Y149.525
N480 X-11.22 Y146.525
N490 G3 X-48 Y70 I61.22 J-76.525
N500 G3 X-11.22 Y-6.525 I98 J0
N510 G1 X-7.47 Y-9.525
N520 X38.78 Y-46.525
N530 G3 X100 Y-68 I61.22 J76.525
N540 G3 X161.22 Y-46.525 I0 J98
N550 G1 X211.22 Y-6.525
N560 G3 X248 Y70 I-61.22 J76.525
N570 G3 X211.22 Y146.525 I-98 J0
N580 G1 X186.22 Y166.525
N590 X170.603 Y179.019
N600 X154.361 Y158.716
N610 X169.978 Y146.223
N620 X194.978 Y126.223
N630 G2 X222 Y70 I-44.978 J-56.223
N640 G2 X194.978 Y13.777 I-72 J0
N650 G1 X144.978 Y-26.223
N660 G2 X100 Y-42 I-44.978 J56.223
N670 G2 X55.022 Y-26.223 I0 J72
N680 G1 X8.772 Y10.777
N690 X5.022 Y13.777
N700 G2 X-22 Y70 I44.978 J56.223
N710 G2 X5.022 Y126.223 I72 J0
N720 G1 X8.772 Y129.223
N730 X55.022 Y166.223
N740 G2 X100 Y182 I44.978 J-56.223
N750 G2 X144.978 Y166.223 I0 J-72
N760 G1 X169.978 Y146.223
N770 X185.595 Y133.729
N780 X169.353 Y113.426
N790 X153.736 Y125.92
N800 X128.736 Y145.92
N810 G3 X100 Y156 I-28.736 J-35.92
N820 G3 X71.264 Y145.92 I0 J-46
N830 G1 X25.014 Y108.92
N840 X21.264 Y105.92
N850 G3 X4 Y70 I28.736 J-35.92
N860 G3 X21.264 Y34.08 I46 J0
N870 G1 X25.014 Y31.08
N880 X71.264 Y-5.92
N890 G3 X100 Y-16 I28.736 J35.92
N900 G3 X128.736 Y-5.92 I0 J46
N910 G1 X178.736 Y34.08
N920 G3 X196 Y70 I-28.736 J35.92
N930 G3 X178.736 Y105.92 I-46 J0
N940 G1 X153.736 Y125.92
N950 X138.119 Y138.414
N960 X121.877 Y118.111
N970 X137.494 Y105.617
N980 X162.494 Y85.617
N990 G2 X170 Y70 I-12.494 J-15.617
N1000 G2 X162.494 Y54.383 I-20 J0
N1010 G1 X112.494 Y14.383
N1020 G2 X100 Y10 I-12.494 J15.617
N1030 G2 X87.506 Y14.383 I0 J20
N1040 G1 X41.256 Y51.383
N1050 X37.506 Y54.383
N1060 G2 X30 Y70 I12.494 J15.617
N1070 G2 X37.506 Y85.617 I20 J0
N1080 G1 X41.256 Y88.617
N1090 X87.506 Y125.617
N1100 G2 X100 Y130 I12.494 J-15.617
N1110 G2 X112.494 Y125.617 I0 J-20
N1120 G1 X137.494 Y105.617
N1130 X153.111 Y93.123
N1140 G0 Z25
N1150 G0 X201.837 Y154.031
N1160 G1 Z0 F300
N1170 X186.22 Y166.525 F1000
N1180 X161.22 Y186.525
N1190 G3 X100 Y208 I-61.22 J-76.525
N1200 G3 X38.78 Y186.525 I0 J-98
N1210 G1 X-7.47 Y149.525
N1220 X-11.22 Y146.525
N1230 G3 X-48 Y70 I61.22 J-76.525
N1240 G3 X-11.22 Y-6.525 I98 J0
N1250 G1 X-7.47 Y-9.525
N1260 X38.78 Y-46.525
N1270 G3 X100 Y-68 I61.22 J76.525
N1280 G3 X161.22 Y-46.525 I0 J98
N1290 G1 X211.22 Y-6.525
N1300 G3 X248 Y70 I-61.22 J76.525
N1310 G3 X211.22 Y146.525 I-98 J0
N1320 G1 X186.22 Y166.525
N1330 X170.603 Y179.019
N1340 X154.361 Y158.716
N1350 X169.978 Y146.223
N1360 X194.978 Y126.223
N1370 G2 X222 Y70 I-44.978 J-56.223
N1380 G2 X194.978 Y13.777 I-72 J0
N1390 G1 X144.978 Y-26.223
N1400 G2 X100 Y-42 I-44.978 J56.223
N1410 G2 X55.022 Y-26.223 I0 J72
N1420 G1 X8.772 Y10.777
N1430 X5.022 Y13.777
N1440 G2 X-22 Y70 I44.978 J56.223
N1450 G2 X5.022 Y126.223 I72 J0
N1460 G1 X8.772 Y129.223
N1470 X55.022 Y166.223
N1480 G2 X100 Y182 I44.978 J-56.223
N1490 G2 X144.978 Y166.223 I0 J-72
N1500 G1 X169.978 Y146.223
N1510 X185.595 Y133.729
N1520 X169.353 Y113.426
N1530 X153.736 Y125.92
N1540 X128.736 Y145.92
N1550 G3 X100 Y156 I-28.736 J-35.92
N1560 G3 X71.264 Y145.92 I0 J-46
N1570 G1 X25.014 Y108.92
N1580 X21.264 Y105.92
N1590 G3 X4 Y70 I28.736 J-35.92
N1600 G3 X21.264 Y34.08 I46 J0
N1610 G1 X25.014 Y31.08
N1620 X71.264 Y-5.92
N1630 G3 X100 Y-16 I28.736 J35.92
N1640 G3 X128.736 Y-5.92 I0 J46
N1650 G1 X178.736 Y34.08
N1660 G3 X196 Y70 I-28.736 J35.92
N1670 G3 X178.736 Y105.92 I-46 J0
N1680 G1 X153.736 Y125.92
N1690 X138.119 Y138.414
N1700 X121.877 Y118.111
N1710 X137.494 Y105.617
N1720 X162.494 Y85.617
N1730 G2 X170 Y70 I-12.494 J-15.617
N1740 G2 X162.494 Y54.383 I-20 J0
N1750 G1 X112.494 Y14.383
N1760 G2 X100 Y10 I-12.494 J15.617
N1770 G2 X87.506 Y14.383 I0 J20
N1780 G1 X41.256 Y51.383
N1790 X37.506 Y54.383
N1800 G2 X30 Y70 I12.494 J15.617
N1810 G2 X37.506 Y85.617 I20 J0
N1820 G1 X41.256 Y88.617
N1830 X87.506 Y125.617
N1840 G2 X100 Y130 I12.494 J-15.617
N1850 G2 X112.494 Y125.617 I0 J-20
N1860 G1 X137.494 Y105.617
N1870 X153.111 Y93.123
N1880 Z10 F1
N1890 ;=============== TOOL CHANGE =================
N1900 ; DESC : T3 End Mill D 12
N1910 ;=============================================
N1920 T3 M06
N1930 D1
N1940 G0 G90 G40 G17
N1950 G94 F1000 S70 M3
N1960 G64 SOFT
N1970 G1 X100 Y72.92 Z26 F300
N1980 Z16
N1990 G3 X97.08 Y70 I0 J-2.92 F1000
N2000 G3 X100 Y67.08 I2.92 J0
N2010 G3 X102.92 Y70 I0 J2.92
N2020 G3 X100 Y72.92 I-2.92 J0
N2030 G1 Y76.94
N2040 Y80.96
N2050 G3 X89.04 Y70 I0 J-10.96
N2060 G3 X100 Y59.04 I10.96 J0
N2070 G3 X110.96 Y70 I0 J10.96
N2080 G3 X100 Y80.96 I-10.96 J0
N2090 G1 Y84.98
N2100 Y89
N2110 G3 X81 Y70 I0 J-19
N2120 G3 X100 Y51 I19 J0
N2130 G3 X119 Y70 I0 J19
N2140 G3 X100 Y89 I-19 J0
N2150 G0 Z22
N2160 G0 Y72.92
N2170 G1 Z12 F300
N2180 G3 X97.08 Y70 I0 J-2.92 F1000
N2190 G3 X100 Y67.08 I2.92 J0
N2200 G3 X102.92 Y70 I0 J2.92
N2210 G3 X100 Y72.92 I-2.92 J0
N2220 G1 Y76.94
N2230 Y80.96
N2240 G3 X89.04 Y70 I0 J-10.96
N2250 G3 X100 Y59.04 I10.96 J0
N2260 G3 X110.96 Y70 I0 J10.96
N2270 G3 X100 Y80.96 I-10.96 J0
N2280 G1 Y84.98
N2290 Y89
N2300 G3 X81 Y70 I0 J-19
N2310 G3 X100 Y51 I19 J0
N2320 G3 X119 Y70 I0 J19
N2330 G3 X100 Y89 I-19 J0
N2340 G1 Z22 F1
N2350 ;=============== TOOL CHANGE =================
N2360 ; DESC : T4 End Mill D 10
N2370 ;=============================================
N2380 T4 M06
N2390 D1
N2400 G0 G90 G40 G17
N2410 G94 F1000 S70 M3
N2420 G64 SOFT
N2430 G1 X75 Y70 Z26 F300
N2440 Z16
N2450 X50 F1000
N2460 Z26 F1
N2470 ;=============== TOOL CHANGE =================
N2480 ; DESC : T5 Drill D 10
N2490 ;=============================================
N2500 T6 M06
N2510 D1
N2520 G0 G90 G40 G17
N2530 G94 F1000 S70 M3
N2540 G64 SOFT
N2550 G0 X160 Y90 Z21
N2560 G0 Z11
N2570 G1 Z1 F300
N2580 MCALL CYCLE81(1,0,0,,27.887)
N2590 X160 Y90
N2600 MCALL
N2610 G1 X160 Y90 Z11 F1000
N2620 G0 Z21
N2630 G0 Y50
N2640 G0 Z11
N2650 G1 Z1 F300
N2660 MCALL CYCLE81(1,0,0,,27.887)
N2670 X160 Y50
N2680 MCALL
N2690 G1 X160 Y50 Z11 F1000
N2700 G0 Z21
N2710 G0 X40
N2720 G0 Z11
N2730 G1 Z1 F300
N2740 MCALL CYCLE81(1,0,0,,27.887)
N2750 X40 Y50
N2760 MCALL
N2770 G1 X40 Y50 Z11 F1000
N2780 G0 Z21
N2790 G0 Y90
N2800 G0 Z11
N2810 G1 Z1 F300
N2820 MCALL CYCLE81(1,0,0,,27.887)
N2830 X40 Y90
N2840 MCALL
N2850 G1 X40 Y90 Z11 F1000
N2860 G0 Z21
N2870 M5 M9
N2880 M30
