;======================================================
;===   cPost Standard PP for SINUMERIK 840 D        ===
;======================================================
G54
TRANS Y-130 Z38.2
N10 G0 G90 G40 
N20 G17
N30 ;=============== TOOL CHANGE =================
N40 ; DESC : T1 Face Mill D 40
N50 ;=============================================
N60 T1 M06
N70 D1
N80 G0 G90 G40 G17
N90 G94 F1000 S70 M3
N100 G64 SOFT
N110 G1 X8 Y8 Z6 F300 G94
N120 Z-4
N130 X182 F1000
N140 Y12.957
N150 X8
N160 Y17.913
N170 X182
N180 Y22.87
N190 X8
N200 Y27.826
N210 X182
N220 Y32.783
N230 X8
N240 Y37.739
N250 X182
N260 Y42.696
N270 X8
N280 Y47.652
N290 X182
N300 Y52.609
N310 X8
N320 Y57.565
N330 X182
N340 Y62.522
N350 X8
N360 Y67.478
N370 X182
N380 Y72.435
N390 X8
N400 Y77.391
N410 X182
N420 Y82.348
N430 X8
N440 Y87.304
N450 X182
N460 Y92.261
N470 X8
N480 Y97.217
N490 X182
N500 Y102.174
N510 X8
N520 Y107.13
N530 X182
N540 Y112.087
N550 X8
N560 Y117.043
N570 X182
N580 Y122
N590 X8
N600 Z6 F1
N610 ;=============== TOOL CHANGE =================
N620 ; DESC : T2 End Mill D 10
N630 ;=============================================
N640 T2 M06
N650 D1
N660 G0 G90 G40 G17
N670 G94 F1000 S70 M3
N680 G64 SOFT
N690 G1 X93.761 Y75.204 Z5.5 F300
N700 Z-4.5
N710 G2 X95 Y75.279 I1.239 J-10.204 F1000
N720 G2 X105.279 Y65 I0 J-10.279
N730 G2 X95 Y54.721 I-10.279 J0
N740 G2 X84.721 Y65 I0 J10.279
N750 G2 X93.761 Y75.204 I10.279 J0
N760 G1 X94.062 Y72.722
N770 X94.364 Y70.24
N780 G2 X95 Y70.279 I0.636 J-5.24
N790 G2 X100.279 Y65 I0 J-5.279
N800 G2 X95 Y59.721 I-5.279 J0
N810 G2 X89.721 Y65 I0 J5.279
N820 G2 X94.364 Y70.24 I5.279 J0
N830 G1 X94.665 Y67.759
N840 X94.966 Y65.277
N850 G2 X95 Y65.279 I0.034 J-0.277
N860 G2 X95.279 Y65 I0 J-0.279
N870 G2 X95 Y64.721 I-0.279 J0
N880 G2 X94.721 Y65 I0 J0.279
N890 G2 X94.966 Y65.277 I0.279 J0
N900 G0 Z-3.75
N910 G0 X93.761 Y75.204
N920 G1 Z-5 F300
N930 G2 X95 Y75.279 I1.239 J-10.204 F1000
N940 G2 X105.279 Y65 I0 J-10.279
N950 G2 X95 Y54.721 I-10.279 J0
N960 G2 X84.721 Y65 I0 J10.279
N970 G2 X93.761 Y75.204 I10.279 J0
N980 G1 X94.062 Y72.722
N990 X94.364 Y70.24
N1000 G2 X95 Y70.279 I0.636 J-5.24
N1010 G2 X100.279 Y65 I0 J-5.279
N1020 G2 X95 Y59.721 I-5.279 J0
N1030 G2 X89.721 Y65 I0 J5.279
N1040 G2 X94.364 Y70.24 I5.279 J0
N1050 G1 X94.665 Y67.759
N1060 X94.966 Y65.277
N1070 G2 X95 Y65.279 I0.034 J-0.277
N1080 G2 X95.279 Y65 I0 J-0.279
N1090 G2 X95 Y64.721 I-0.279 J0
N1100 G2 X94.721 Y65 I0 J0.279
N1110 G2 X94.966 Y65.277 I0.279 J0
N1120 G0 Z-4.25
N1130 G0 X93.761 Y75.204
N1140 G1 Z-5.5 F300
N1150 G2 X95 Y75.279 I1.239 J-10.204 F1000
N1160 G2 X105.279 Y65 I0 J-10.279
N1170 G2 X95 Y54.721 I-10.279 J0
N1180 G2 X84.721 Y65 I0 J10.279
N1190 G2 X93.761 Y75.204 I10.279 J0
N1200 G1 X94.062 Y72.722
N1210 X94.364 Y70.24
N1220 G2 X95 Y70.279 I0.636 J-5.24
N1230 G2 X100.279 Y65 I0 J-5.279
N1240 G2 X95 Y59.721 I-5.279 J0
N1250 G2 X89.721 Y65 I0 J5.279
N1260 G2 X94.364 Y70.24 I5.279 J0
N1270 G1 X94.665 Y67.759
N1280 X94.966 Y65.277
N1290 G2 X95 Y65.279 I0.034 J-0.277
N1300 G2 X95.279 Y65 I0 J-0.279
N1310 G2 X95 Y64.721 I-0.279 J0
N1320 G2 X94.721 Y65 I0 J0.279
N1330 G2 X94.966 Y65.277 I0.279 J0
N1340 G0 Z-4.75
N1350 G0 X93.761 Y75.204
N1360 G1 Z-6 F300
N1370 G2 X95 Y75.279 I1.239 J-10.204 F1000
N1380 G2 X105.279 Y65 I0 J-10.279
N1390 G2 X95 Y54.721 I-10.279 J0
N1400 G2 X84.721 Y65 I0 J10.279
N1410 G2 X93.761 Y75.204 I10.279 J0
N1420 G1 X94.062 Y72.722
N1430 X94.364 Y70.24
N1440 G2 X95 Y70.279 I0.636 J-5.24
N1450 G2 X100.279 Y65 I0 J-5.279
N1460 G2 X95 Y59.721 I-5.279 J0
N1470 G2 X89.721 Y65 I0 J5.279
N1480 G2 X94.364 Y70.24 I5.279 J0
N1490 G1 X94.665 Y67.759
N1500 X94.966 Y65.277
N1510 G2 X95 Y65.279 I0.034 J-0.277
N1520 G2 X95.279 Y65 I0 J-0.279
N1530 G2 X95 Y64.721 I-0.279 J0
N1540 G2 X94.721 Y65 I0 J0.279
N1550 G2 X94.966 Y65.277 I0.279 J0
N1560 G0 Z-5.25
N1570 G0 X93.761 Y75.204
N1580 G1 Z-6.5 F300
N1590 G2 X95 Y75.279 I1.239 J-10.204 F1000
N1600 G2 X105.279 Y65 I0 J-10.279
N1610 G2 X95 Y54.721 I-10.279 J0
N1620 G2 X84.721 Y65 I0 J10.279
N1630 G2 X93.761 Y75.204 I10.279 J0
N1640 G1 X94.062 Y72.722
N1650 X94.364 Y70.24
N1660 G2 X95 Y70.279 I0.636 J-5.24
N1670 G2 X100.279 Y65 I0 J-5.279
N1680 G2 X95 Y59.721 I-5.279 J0
N1690 G2 X89.721 Y65 I0 J5.279
N1700 G2 X94.364 Y70.24 I5.279 J0
N1710 G1 X94.665 Y67.759
N1720 X94.966 Y65.277
N1730 G2 X95 Y65.279 I0.034 J-0.277
N1740 G2 X95.279 Y65 I0 J-0.279
N1750 G2 X95 Y64.721 I-0.279 J0
N1760 G2 X94.721 Y65 I0 J0.279
N1770 G2 X94.966 Y65.277 I0.279 J0
N1780 G0 Z-5.75
N1790 G0 X93.761 Y75.204
N1800 G1 Z-7 F300
N1810 G2 X95 Y75.279 I1.239 J-10.204 F1000
N1820 G2 X105.279 Y65 I0 J-10.279
N1830 G2 X95 Y54.721 I-10.279 J0
N1840 G2 X84.721 Y65 I0 J10.279
N1850 G2 X93.761 Y75.204 I10.279 J0
N1860 G1 X94.062 Y72.722
N1870 X94.364 Y70.24
N1880 G2 X95 Y70.279 I0.636 J-5.24
N1890 G2 X100.279 Y65 I0 J-5.279
N1900 G2 X95 Y59.721 I-5.279 J0
N1910 G2 X89.721 Y65 I0 J5.279
N1920 G2 X94.364 Y70.24 I5.279 J0
N1930 G1 X94.665 Y67.759
N1940 X94.966 Y65.277
N1950 G2 X95 Y65.279 I0.034 J-0.277
N1960 G2 X95.279 Y65 I0 J-0.279
N1970 G2 X95 Y64.721 I-0.279 J0
N1980 G2 X94.721 Y65 I0 J0.279
N1990 G2 X94.966 Y65.277 I0.279 J0
N2000 G0 Z-6.25
N2010 G0 X93.761 Y75.204
N2020 G1 Z-7.5 F300
N2030 G2 X95 Y75.279 I1.239 J-10.204 F1000
N2040 G2 X105.279 Y65 I0 J-10.279
N2050 G2 X95 Y54.721 I-10.279 J0
N2060 G2 X84.721 Y65 I0 J10.279
N2070 G2 X93.761 Y75.204 I10.279 J0
N2080 G1 X94.062 Y72.722
N2090 X94.364 Y70.24
N2100 G2 X95 Y70.279 I0.636 J-5.24
N2110 G2 X100.279 Y65 I0 J-5.279
N2120 G2 X95 Y59.721 I-5.279 J0
N2130 G2 X89.721 Y65 I0 J5.279
N2140 G2 X94.364 Y70.24 I5.279 J0
N2150 G1 X94.665 Y67.759
N2160 X94.966 Y65.277
N2170 G2 X95 Y65.279 I0.034 J-0.277
N2180 G2 X95.279 Y65 I0 J-0.279
N2190 G2 X95 Y64.721 I-0.279 J0
N2200 G2 X94.721 Y65 I0 J0.279
N2210 G2 X94.966 Y65.277 I0.279 J0
N2220 G0 Z-6.75
N2230 G0 X93.761 Y75.204
N2240 G1 Z-8 F300
N2250 G2 X95 Y75.279 I1.239 J-10.204 F1000
N2260 G2 X105.279 Y65 I0 J-10.279
N2270 G2 X95 Y54.721 I-10.279 J0
N2280 G2 X84.721 Y65 I0 J10.279
N2290 G2 X93.761 Y75.204 I10.279 J0
N2300 G1 X94.062 Y72.722
N2310 X94.364 Y70.24
N2320 G2 X95 Y70.279 I0.636 J-5.24
N2330 G2 X100.279 Y65 I0 J-5.279
N2340 G2 X95 Y59.721 I-5.279 J0
N2350 G2 X89.721 Y65 I0 J5.279
N2360 G2 X94.364 Y70.24 I5.279 J0
N2370 G1 X94.665 Y67.759
N2380 X94.966 Y65.277
N2390 G2 X95 Y65.279 I0.034 J-0.277
N2400 G2 X95.279 Y65 I0 J-0.279
N2410 G2 X95 Y64.721 I-0.279 J0
N2420 G2 X94.721 Y65 I0 J0.279
N2430 G2 X94.966 Y65.277 I0.279 J0
N2440 G0 Z-7.25
N2450 G0 X93.761 Y75.204
N2460 G1 Z-8.5 F300
N2470 G2 X95 Y75.279 I1.239 J-10.204 F1000
N2480 G2 X105.279 Y65 I0 J-10.279
N2490 G2 X95 Y54.721 I-10.279 J0
N2500 G2 X84.721 Y65 I0 J10.279
N2510 G2 X93.761 Y75.204 I10.279 J0
N2520 G1 X94.062 Y72.722
N2530 X94.364 Y70.24
N2540 G2 X95 Y70.279 I0.636 J-5.24
N2550 G2 X100.279 Y65 I0 J-5.279
N2560 G2 X95 Y59.721 I-5.279 J0
N2570 G2 X89.721 Y65 I0 J5.279
N2580 G2 X94.364 Y70.24 I5.279 J0
N2590 G1 X94.665 Y67.759
N2600 X94.966 Y65.277
N2610 G2 X95 Y65.279 I0.034 J-0.277
N2620 G2 X95.279 Y65 I0 J-0.279
N2630 G2 X95 Y64.721 I-0.279 J0
N2640 G2 X94.721 Y65 I0 J0.279
N2650 G2 X94.966 Y65.277 I0.279 J0
N2660 G0 Z-7.75
N2670 G0 X93.761 Y75.204
N2680 G1 Z-9 F300
N2690 G2 X95 Y75.279 I1.239 J-10.204 F1000
N2700 G2 X105.279 Y65 I0 J-10.279
N2710 G2 X95 Y54.721 I-10.279 J0
N2720 G2 X84.721 Y65 I0 J10.279
N2730 G2 X93.761 Y75.204 I10.279 J0
N2740 G1 X94.062 Y72.722
N2750 X94.364 Y70.24
N2760 G2 X95 Y70.279 I0.636 J-5.24
N2770 G2 X100.279 Y65 I0 J-5.279
N2780 G2 X95 Y59.721 I-5.279 J0
N2790 G2 X89.721 Y65 I0 J5.279
N2800 G2 X94.364 Y70.24 I5.279 J0
N2810 G1 X94.665 Y67.759
N2820 X94.966 Y65.277
N2830 G2 X95 Y65.279 I0.034 J-0.277
N2840 G2 X95.279 Y65 I0 J-0.279
N2850 G2 X95 Y64.721 I-0.279 J0
N2860 G2 X94.721 Y65 I0 J0.279
N2870 G2 X94.966 Y65.277 I0.279 J0
N2880 G1 Z1 F1
N2890 ;=============== TOOL CHANGE =================
N2900 ; DESC : T4 End Mill D 3
N2910 ;=============================================
N2920 T3 M06
N2930 D1
N2940 G0 G90 G40 G17
N2950 G94 F1000 S70 M3
N2960 G64 SOFT
N2970 G1 X93.503 Y94.963 Z5 F300
N2980 Z-5
N2990 G3 X65 Y65 I1.497 J-29.963 F1000
N3000 G3 X95 Y35 I30 J0
N3010 G3 X125 Y65 I0 J30
N3020 G3 X95 Y95 I-30 J0
N3030 G3 X93.503 Y94.963 I0 J-30
N3040 G1 Z5 F1
N3050 ;=============== TOOL CHANGE =================
N3060 ; DESC : T2 End Mill D 12
N3070 ;=============================================
N3080 T4 M06
N3090 D1
N3100 G0 G90 G40 G17
N3110 G94 F1000 S70 M3
N3120 G64 SOFT
N3130 G1 X89 Y-21 Z1 F300
N3140 Z-9
N3150 X95 F1000
N3160 X155
N3170 G3 X196 Y20 I0 J41
N3180 G1 Y110
N3190 G3 X155 Y151 I-41 J0
N3200 G1 X35
N3210 G3 X-6 Y110 I0 J-41
N3220 G1 Y20
N3230 G3 X35 Y-21 I41 J0
N3240 G1 X95
N3250 X101
N3260 G0 Z-1.5
N3270 G1 Z-14 F300
N3280 X95 F1000
N3290 X35
N3300 G2 X-6 Y20 I0 J41
N3310 G1 Y110
N3320 G2 X35 Y151 I41 J0
N3330 G1 X155
N3340 G2 X196 Y110 I0 J-41
N3350 G1 Y20
N3360 G2 X155 Y-21 I-41 J0
N3370 G1 X95
N3380 X89
N3390 G0 Z-6.5
N3400 G1 Z-19 F300
N3410 X95 F1000
N3420 X155
N3430 G3 X196 Y20 I0 J41
N3440 G1 Y110
N3450 G3 X155 Y151 I-41 J0
N3460 G1 X35
N3470 G3 X-6 Y110 I0 J-41
N3480 G1 Y20
N3490 G3 X35 Y-21 I41 J0
N3500 G1 X95
N3510 X101
N3520 G0 Z-11.5
N3530 G1 Z-24 F300
N3540 X95 F1000
N3550 X35
N3560 G2 X-6 Y20 I0 J41
N3570 G1 Y110
N3580 G2 X35 Y151 I41 J0
N3590 G1 X155
N3600 G2 X196 Y110 I0 J-41
N3610 G1 Y20
N3620 G2 X155 Y-21 I-41 J0
N3630 G1 X95
N3640 X89
N3650 G0 Z-16.5
N3660 G1 Z-29 F300
N3670 X95 F1000
N3680 X155
N3690 G3 X196 Y20 I0 J41
N3700 G1 Y110
N3710 G3 X155 Y151 I-41 J0
N3720 G1 X35
N3730 G3 X-6 Y110 I0 J-41
N3740 G1 Y20
N3750 G3 X35 Y-21 I41 J0
N3760 G1 X95
N3770 X101
N3780 G0 Z3.5
N3790 G0 Y-16
N3800 G1 Z-9 F300
N3810 X95 F1000
N3820 X35
N3830 G2 X-1 Y20 I0 J36
N3840 G1 Y110
N3850 G2 X35 Y146 I36 J0
N3860 G1 X155
N3870 G2 X191 Y110 I0 J-36
N3880 G1 Y20
N3890 G2 X155 Y-16 I-36 J0
N3900 G1 X95
N3910 X89
N3920 G0 Z-1.5
N3930 G1 Z-14 F300
N3940 X95 F1000
N3950 X155
N3960 G3 X191 Y20 I0 J36
N3970 G1 Y110
N3980 G3 X155 Y146 I-36 J0
N3990 G1 X35
N4000 G3 X-1 Y110 I0 J-36
N4010 G1 Y20
N4020 G3 X35 Y-16 I36 J0
N4030 G1 X95
N4040 X101
N4050 G0 Z-6.5
N4060 G1 Z-19 F300
N4070 X95 F1000
N4080 X35
N4090 G2 X-1 Y20 I0 J36
N4100 G1 Y110
N4110 G2 X35 Y146 I36 J0
N4120 G1 X155
N4130 G2 X191 Y110 I0 J-36
N4140 G1 Y20
N4150 G2 X155 Y-16 I-36 J0
N4160 G1 X95
N4170 X89
N4180 G0 Z-11.5
N4190 G1 Z-24 F300
N4200 X95 F1000
N4210 X155
N4220 G3 X191 Y20 I0 J36
N4230 G1 Y110
N4240 G3 X155 Y146 I-36 J0
N4250 G1 X35
N4260 G3 X-1 Y110 I0 J-36
N4270 G1 Y20
N4280 G3 X35 Y-16 I36 J0
N4290 G1 X95
N4300 X101
N4310 G0 Z-16.5
N4320 G1 Z-29 F300
N4330 X95 F1000
N4340 X35
N4350 G2 X-1 Y20 I0 J36
N4360 G1 Y110
N4370 G2 X35 Y146 I36 J0
N4380 G1 X155
N4390 G2 X191 Y110 I0 J-36
N4400 G1 Y20
N4410 G2 X155 Y-16 I-36 J0
N4420 G1 X95
N4430 X89
N4440 G0 Z3.5
N4450 G0 Y-11
N4460 G1 Z-9 F300
N4470 X95 F1000
N4480 X155
N4490 G3 X186 Y20 I0 J31
N4500 G1 Y110
N4510 G3 X155 Y141 I-31 J0
N4520 G1 X35
N4530 G3 X4 Y110 I0 J-31
N4540 G1 Y20
N4550 G3 X35 Y-11 I31 J0
N4560 G1 X95
N4570 X101
N4580 G0 Z-1.5
N4590 G1 Z-14 F300
N4600 X95 F1000
N4610 X35
N4620 G2 X4 Y20 I0 J31
N4630 G1 Y110
N4640 G2 X35 Y141 I31 J0
N4650 G1 X155
N4660 G2 X186 Y110 I0 J-31
N4670 G1 Y20
N4680 G2 X155 Y-11 I-31 J0
N4690 G1 X95
N4700 X89
N4710 G0 Z-6.5
N4720 G1 Z-19 F300
N4730 X95 F1000
N4740 X155
N4750 G3 X186 Y20 I0 J31
N4760 G1 Y110
N4770 G3 X155 Y141 I-31 J0
N4780 G1 X35
N4790 G3 X4 Y110 I0 J-31
N4800 G1 Y20
N4810 G3 X35 Y-11 I31 J0
N4820 G1 X95
N4830 X101
N4840 G0 Z-11.5
N4850 G1 Z-24 F300
N4860 X95 F1000
N4870 X35
N4880 G2 X4 Y20 I0 J31
N4890 G1 Y110
N4900 G2 X35 Y141 I31 J0
N4910 G1 X155
N4920 G2 X186 Y110 I0 J-31
N4930 G1 Y20
N4940 G2 X155 Y-11 I-31 J0
N4950 G1 X95
N4960 X89
N4970 G0 Z-16.5
N4980 G1 Z-29 F300
N4990 X95 F1000
N5000 X155
N5010 G3 X186 Y20 I0 J31
N5020 G1 Y110
N5030 G3 X155 Y141 I-31 J0
N5040 G1 X35
N5050 G3 X4 Y110 I0 J-31
N5060 G1 Y20
N5070 G3 X35 Y-11 I31 J0
N5080 G1 X95
N5090 X101
N5100 G0 Z3.5
N5110 G0 Y-6
N5120 G1 Z-9 F300
N5130 X95 F1000
N5140 X35
N5150 G2 X9 Y20 I0 J26
N5160 G1 Y110
N5170 G2 X35 Y136 I26 J0
N5180 G1 X155
N5190 G2 X181 Y110 I0 J-26
N5200 G1 Y20
N5210 G2 X155 Y-6 I-26 J0
N5220 G1 X95
N5230 X89
N5240 G0 Z-1.5
N5250 G1 Z-14 F300
N5260 X95 F1000
N5270 X155
N5280 G3 X181 Y20 I0 J26
N5290 G1 Y110
N5300 G3 X155 Y136 I-26 J0
N5310 G1 X35
N5320 G3 X9 Y110 I0 J-26
N5330 G1 Y20
N5340 G3 X35 Y-6 I26 J0
N5350 G1 X95
N5360 X101
N5370 G0 Z-6.5
N5380 G1 Z-19 F300
N5390 X95 F1000
N5400 X35
N5410 G2 X9 Y20 I0 J26
N5420 G1 Y110
N5430 G2 X35 Y136 I26 J0
N5440 G1 X155
N5450 G2 X181 Y110 I0 J-26
N5460 G1 Y20
N5470 G2 X155 Y-6 I-26 J0
N5480 G1 X95
N5490 X89
N5500 G0 Z-11.5
N5510 G1 Z-24 F300
N5520 X95 F1000
N5530 X155
N5540 G3 X181 Y20 I0 J26
N5550 G1 Y110
N5560 G3 X155 Y136 I-26 J0
N5570 G1 X35
N5580 G3 X9 Y110 I0 J-26
N5590 G1 Y20
N5600 G3 X35 Y-6 I26 J0
N5610 G1 X95
N5620 X101
N5630 G0 Z-16.5
N5640 G1 Z-29 F300
N5650 X95 F1000
N5660 X35
N5670 G2 X9 Y20 I0 J26
N5680 G1 Y110
N5690 G2 X35 Y136 I26 J0
N5700 G1 X155
N5710 G2 X181 Y110 I0 J-26
N5720 G1 Y20
N5730 G2 X155 Y-6 I-26 J0
N5740 G1 X95
N5750 X89
N5760 G0 Z3.5
N5770 G0 Y-1
N5780 G1 Z-9 F300
N5790 X95 F1000
N5800 X155
N5810 G3 X176 Y20 I0 J21
N5820 G1 Y110
N5830 G3 X155 Y131 I-21 J0
N5840 G1 X35
N5850 G3 X14 Y110 I0 J-21
N5860 G1 Y20
N5870 G3 X35 Y-1 I21 J0
N5880 G1 X95
N5890 X101
N5900 G0 Z-1.5
N5910 G1 Z-14 F300
N5920 X95 F1000
N5930 X35
N5940 G2 X14 Y20 I0 J21
N5950 G1 Y110
N5960 G2 X35 Y131 I21 J0
N5970 G1 X155
N5980 G2 X176 Y110 I0 J-21
N5990 G1 Y20
N6000 G2 X155 Y-1 I-21 J0
N6010 G1 X95
N6020 X89
N6030 G0 Z-6.5
N6040 G1 Z-19 F300
N6050 X95 F1000
N6060 X155
N6070 G3 X176 Y20 I0 J21
N6080 G1 Y110
N6090 G3 X155 Y131 I-21 J0
N6100 G1 X35
N6110 G3 X14 Y110 I0 J-21
N6120 G1 Y20
N6130 G3 X35 Y-1 I21 J0
N6140 G1 X95
N6150 X101
N6160 G0 Z-11.5
N6170 G1 Z-24 F300
N6180 X95 F1000
N6190 X35
N6200 G2 X14 Y20 I0 J21
N6210 G1 Y110
N6220 G2 X35 Y131 I21 J0
N6230 G1 X155
N6240 G2 X176 Y110 I0 J-21
N6250 G1 Y20
N6260 G2 X155 Y-1 I-21 J0
N6270 G1 X95
N6280 X89
N6290 G0 Z-16.5
N6300 G1 Z-29 F300
N6310 X95 F1000
N6320 X155
N6330 G3 X176 Y20 I0 J21
N6340 G1 Y110
N6350 G3 X155 Y131 I-21 J0
N6360 G1 X35
N6370 G3 X14 Y110 I0 J-21
N6380 G1 Y20
N6390 G3 X35 Y-1 I21 J0
N6400 G1 X95
N6410 X101
N6420 G0 Z3.5
N6430 G0 Y4
N6440 G1 Z-9 F300
N6450 X95 F1000
N6460 X35
N6470 G2 X19 Y20 I0 J16
N6480 G1 Y110
N6490 G2 X35 Y126 I16 J0
N6500 G1 X155
N6510 G2 X171 Y110 I0 J-16
N6520 G1 Y20
N6530 G2 X155 Y4 I-16 J0
N6540 G1 X95
N6550 X89
N6560 G0 Z-1.5
N6570 G1 Z-14 F300
N6580 X95 F1000
N6590 X155
N6600 G3 X171 Y20 I0 J16
N6610 G1 Y110
N6620 G3 X155 Y126 I-16 J0
N6630 G1 X35
N6640 G3 X19 Y110 I0 J-16
N6650 G1 Y20
N6660 G3 X35 Y4 I16 J0
N6670 G1 X95
N6680 X101
N6690 G0 Z-6.5
N6700 G1 Z-19 F300
N6710 X95 F1000
N6720 X35
N6730 G2 X19 Y20 I0 J16
N6740 G1 Y110
N6750 G2 X35 Y126 I16 J0
N6760 G1 X155
N6770 G2 X171 Y110 I0 J-16
N6780 G1 Y20
N6790 G2 X155 Y4 I-16 J0
N6800 G1 X95
N6810 X89
N6820 G0 Z-11.5
N6830 G1 Z-24 F300
N6840 X95 F1000
N6850 X155
N6860 G3 X171 Y20 I0 J16
N6870 G1 Y110
N6880 G3 X155 Y126 I-16 J0
N6890 G1 X35
N6900 G3 X19 Y110 I0 J-16
N6910 G1 Y20
N6920 G3 X35 Y4 I16 J0
N6930 G1 X95
N6940 X101
N6950 G0 Z-16.5
N6960 G1 Z-29 F300
N6970 X95 F1000
N6980 X35
N6990 G2 X19 Y20 I0 J16
N7000 G1 Y110
N7010 G2 X35 Y126 I16 J0
N7020 G1 X155
N7030 G2 X171 Y110 I0 J-16
N7040 G1 Y20
N7050 G2 X155 Y4 I-16 J0
N7060 G1 X95
N7070 X89
N7080 G0 Z3.5
N7090 G0 Y9
N7100 G1 Z-9 F300
N7110 X95 F1000
N7120 X155
N7130 G3 X166 Y20 I0 J11
N7140 G1 Y110
N7150 G3 X155 Y121 I-11 J0
N7160 G1 X35
N7170 G3 X24 Y110 I0 J-11
N7180 G1 Y20
N7190 G3 X35 Y9 I11 J0
N7200 G1 X95
N7210 X101
N7220 G0 Z-1.5
N7230 G1 Z-14 F300
N7240 X95 F1000
N7250 X35
N7260 G2 X24 Y20 I0 J11
N7270 G1 Y110
N7280 G2 X35 Y121 I11 J0
N7290 G1 X155
N7300 G2 X166 Y110 I0 J-11
N7310 G1 Y20
N7320 G2 X155 Y9 I-11 J0
N7330 G1 X95
N7340 X89
N7350 G0 Z-6.5
N7360 G1 Z-19 F300
N7370 X95 F1000
N7380 X155
N7390 G3 X166 Y20 I0 J11
N7400 G1 Y110
N7410 G3 X155 Y121 I-11 J0
N7420 G1 X35
N7430 G3 X24 Y110 I0 J-11
N7440 G1 Y20
N7450 G3 X35 Y9 I11 J0
N7460 G1 X95
N7470 X101
N7480 G0 Z-11.5
N7490 G1 Z-24 F300
N7500 X95 F1000
N7510 X35
N7520 G2 X24 Y20 I0 J11
N7530 G1 Y110
N7540 G2 X35 Y121 I11 J0
N7550 G1 X155
N7560 G2 X166 Y110 I0 J-11
N7570 G1 Y20
N7580 G2 X155 Y9 I-11 J0
N7590 G1 X95
N7600 X89
N7610 G0 Z-16.5
N7620 G1 Z-29 F300
N7630 X95 F1000
N7640 X155
N7650 G3 X166 Y20 I0 J11
N7660 G1 Y110
N7670 G3 X155 Y121 I-11 J0
N7680 G1 X35
N7690 G3 X24 Y110 I0 J-11
N7700 G1 Y20
N7710 G3 X35 Y9 I11 J0
N7720 G1 X95
N7730 X101
N7740 G0 Z3.5
N7750 G0 Y14
N7760 G1 Z-9 F300
N7770 X95 F1000
N7780 X35
N7790 G2 X29 Y20 I0 J6
N7800 G1 Y110
N7810 G2 X35 Y116 I6 J0
N7820 G1 X155
N7830 G2 X161 Y110 I0 J-6
N7840 G1 Y20
N7850 G2 X155 Y14 I-6 J0
N7860 G1 X95
N7870 X89
N7880 G0 Z-1.5
N7890 G1 Z-14 F300
N7900 X95 F1000
N7910 X155
N7920 G3 X161 Y20 I0 J6
N7930 G1 Y110
N7940 G3 X155 Y116 I-6 J0
N7950 G1 X35
N7960 G3 X29 Y110 I0 J-6
N7970 G1 Y20
N7980 G3 X35 Y14 I6 J0
N7990 G1 X95
N8000 X101
N8010 G0 Z-6.5
N8020 G1 Z-19 F300
N8030 X95 F1000
N8040 X35
N8050 G2 X29 Y20 I0 J6
N8060 G1 Y110
N8070 G2 X35 Y116 I6 J0
N8080 G1 X155
N8090 G2 X161 Y110 I0 J-6
N8100 G1 Y20
N8110 G2 X155 Y14 I-6 J0
N8120 G1 X95
N8130 X89
N8140 G0 Z-11.5
N8150 G1 Z-24 F300
N8160 X95 F1000
N8170 X155
N8180 G3 X161 Y20 I0 J6
N8190 G1 Y110
N8200 G3 X155 Y116 I-6 J0
N8210 G1 X35
N8220 G3 X29 Y110 I0 J-6
N8230 G1 Y20
N8240 G3 X35 Y14 I6 J0
N8250 G1 X95
N8260 X101
N8270 G0 Z-16.5
N8280 G1 Z-29 F300
N8290 X95 F1000
N8300 X35
N8310 G2 X29 Y20 I0 J6
N8320 G1 Y110
N8330 G2 X35 Y116 I6 J0
N8340 G1 X155
N8350 G2 X161 Y110 I0 J-6
N8360 G1 Y20
N8370 G2 X155 Y14 I-6 J0
N8380 G1 X95
N8390 X89
N8400 Z-19 F1
N8410 ;=============== TOOL CHANGE =================
N8420 ; DESC : T6 Drill D 10
N8430 ;=============================================
N8440 T6 M06
N8450 D1
N8460 G0 G90 G40 G17
N8470 G94 F1000 S70 M3
N8480 G64 SOFT
N8490 G0 X175 Y15 Z46
N8500 G1 Z36 F300
N8510 MCALL CYCLE81(36,-29,0,,10)
N8520 X175 Y15
N8530 Y115
N8540 X15
N8550 Y15
N8560 MCALL
N8570 G1 X15 Y15 Z46 F1000
N8580 M5 M9
N8590 M30
