N10 ;======================================================
N20 ;===   cPost Standard PP for SINUMERIK 840 D        ===
N30 ;======================================================
N40 G54
N50 TRANS Y-90 Z48.2
N60 G0 G90 G40 
N70 G17
N80 ;=============== TOOL CHANGE =================
N90 ; DESC : 
N100 ;=============================================
N110 T2 M06
N120 G0 G90 G40 G17
N130 F0 S0 
N140 G64 SOFT
N150 S70 M3
N160 G1 X98.765 Y90 Z72 F300 G94
N170 Z62
N180 X200 F1000
N190 Y0
N200 X0
N210 Y90
N220 X98.765
N230 Y85
N240 Y80
N250 X175
N260 G2 X190 Y65 I0 J-15
N270 G1 Y25
N280 G2 X175 Y10 I-15 J0
N290 G1 X25
N300 G2 X10 Y25 I0 J15
N310 G1 Y65
N320 G2 X25 Y80 I15 J0
N330 G1 X98.765
N340 Y75
N350 Y70
N360 X165
N370 G2 X180 Y55 I0 J-15
N380 G1 Y35
N390 G2 X165 Y20 I-15 J0
N400 G1 X35
N410 G2 X20 Y35 I0 J15
N420 G1 Y55
N430 G2 X35 Y70 I15 J0
N440 G1 X98.765
N450 Y65
N460 Y60
N470 X162.5
N480 G2 X170 Y52.5 I0 J-7.5
N490 G1 Y37.5
N500 G2 X162.5 Y30 I-7.5 J0
N510 G1 X37.5
N520 G2 X30 Y37.5 I0 J7.5
N530 G1 Y52.5
N540 G2 X37.5 Y60 I7.5 J0
N550 G1 X98.765
N560 Y55
N570 Y50
N580 X156.25
N590 G2 X160 Y46.25 I0 J-3.75
N600 G1 Y43.75
N610 G2 X156.25 Y40 I-3.75 J0
N620 G1 X43.75
N630 G2 X40 Y43.75 I0 J3.75
N640 G1 Y46.25
N650 G2 X43.75 Y50 I3.75 J0
N660 G1 X98.765
N670 G0 Z65
N680 G0 Y90
N690 G0 Z60
N700 G1 X200
N710 Y0
N720 X0
N730 Y90
N740 X98.765
N750 Y85
N760 Y80
N770 X175
N780 G2 X190 Y65 I0 J-15
N790 G1 Y25
N800 G2 X175 Y10 I-15 J0
N810 G1 X25
N820 G2 X10 Y25 I0 J15
N830 G1 Y65
N840 G2 X25 Y80 I15 J0
N850 G1 X98.765
N860 Y75
N870 Y70
N880 X165
N890 G2 X180 Y55 I0 J-15
N900 G1 Y35
N910 G2 X165 Y20 I-15 J0
N920 G1 X35
N930 G2 X20 Y35 I0 J15
N940 G1 Y55
N950 G2 X35 Y70 I15 J0
N960 G1 X98.765
N970 Y65
N980 Y60
N990 X162.5
N1000 G2 X170 Y52.5 I0 J-7.5
N1010 G1 Y37.5
N1020 G2 X162.5 Y30 I-7.5 J0
N1030 G1 X37.5
N1040 G2 X30 Y37.5 I0 J7.5
N1050 G1 Y52.5
N1060 G2 X37.5 Y60 I7.5 J0
N1070 G1 X98.765
N1080 Y55
N1090 Y50
N1100 X156.25
N1110 G2 X160 Y46.25 I0 J-3.75
N1120 G1 Y43.75
N1130 G2 X156.25 Y40 I-3.75 J0
N1140 G1 X43.75
N1150 G2 X40 Y43.75 I0 J3.75
N1160 G1 Y46.25
N1170 G2 X43.75 Y50 I3.75 J0
N1180 G1 X98.765
N1190 Z70 F1
N1200 X5 Y15 Z64 F300
N1210 Z59.2
N1220 Y45 F1000
N1230 G2 X70 Y110 I65 J0
N1240 G1 X160
N1250 G2 X195 Y75 I0 J-35
N1260 G1 Y15
N1270 G2 X160 Y-20 I-35 J0
N1280 G1 X40
N1290 Y-15
N1300 X160
N1310 G3 X190 Y15 I0 J30
N1320 G1 Y75
N1330 G3 X160 Y105 I-30 J0
N1340 G1 X70
N1350 G3 X10 Y45 I0 J-60
N1360 G1 Y15
N1370 X15
N1380 Y45
N1390 G2 X70 Y100 I55 J0
N1400 G1 X160
N1410 G2 X185 Y75 I0 J-25
N1420 G1 Y15
N1430 G2 X160 Y-10 I-25 J0
N1440 G1 X40
N1450 G0 Z66.4
N1460 G0 Y-20
N1470 G1 Z54.4 F300
N1480 X160 F1000
N1490 G3 X195 Y15 I0 J35
N1500 G1 Y75
N1510 G3 X160 Y110 I-35 J0
N1520 G1 X70
N1530 G3 X5 Y45 I0 J-65
N1540 G1 Y15
N1550 X10
N1560 Y45
N1570 G2 X70 Y105 I60 J0
N1580 G1 X160
N1590 G2 X190 Y75 I0 J-30
N1600 G1 Y15
N1610 G2 X160 Y-15 I-30 J0
N1620 G1 X40
N1630 Y-10
N1640 X160
N1650 G3 X185 Y15 I0 J25
N1660 G1 Y75
N1670 G3 X160 Y100 I-25 J0
N1680 G1 X70
N1690 G3 X15 Y45 I0 J-55
N1700 G1 Y15
N1710 G0 Z61.6
N1720 G0 X5
N1730 G1 Z49.6 F300
N1740 Y45 F1000
N1750 G2 X70 Y110 I65 J0
N1760 G1 X160
N1770 G2 X195 Y75 I0 J-35
N1780 G1 Y15
N1790 G2 X160 Y-20 I-35 J0
N1800 G1 X40
N1810 Y-15
N1820 X160
N1830 G3 X190 Y15 I0 J30
N1840 G1 Y75
N1850 G3 X160 Y105 I-30 J0
N1860 G1 X70
N1870 G3 X10 Y45 I0 J-60
N1880 G1 Y15
N1890 X15
N1900 Y45
N1910 G2 X70 Y100 I55 J0
N1920 G1 X160
N1930 G2 X185 Y75 I0 J-25
N1940 G1 Y15
N1950 G2 X160 Y-10 I-25 J0
N1960 G1 X40
N1970 G0 Z56.8
N1980 G0 Y-20
N1990 G1 Z44.8 F300
N2000 X160 F1000
N2010 G3 X195 Y15 I0 J35
N2020 G1 Y75
N2030 G3 X160 Y110 I-35 J0
N2040 G1 X70
N2050 G3 X5 Y45 I0 J-65
N2060 G1 Y15
N2070 X10
N2080 Y45
N2090 G2 X70 Y105 I60 J0
N2100 G1 X160
N2110 G2 X190 Y75 I0 J-30
N2120 G1 Y15
N2130 G2 X160 Y-15 I-30 J0
N2140 G1 X40
N2150 Y-10
N2160 X160
N2170 G3 X185 Y15 I0 J25
N2180 G1 Y75
N2190 G3 X160 Y100 I-25 J0
N2200 G1 X70
N2210 G3 X15 Y45 I0 J-55
N2220 G1 Y15
N2230 G0 Z52
N2240 G0 X5
N2250 G1 Z40 F300
N2260 Y45 F1000
N2270 G2 X70 Y110 I65 J0
N2280 G1 X160
N2290 G2 X195 Y75 I0 J-35
N2300 G1 Y15
N2310 G2 X160 Y-20 I-35 J0
N2320 G1 X40
N2330 Y-15
N2340 X160
N2350 G3 X190 Y15 I0 J30
N2360 G1 Y75
N2370 G3 X160 Y105 I-30 J0
N2380 G1 X70
N2390 G3 X10 Y45 I0 J-60
N2400 G1 Y15
N2410 X15
N2420 Y45
N2430 G2 X70 Y100 I55 J0
N2440 G1 X160
N2450 G2 X185 Y75 I0 J-25
N2460 G1 Y15
N2470 G2 X160 Y-10 I-25 J0
N2480 G1 X40
N2490 Z64 F1
N2500 ;=============== TOOL CHANGE =================
N2510 ; DESC : 
N2520 ;=============================================
N2530 T4 M06
N2540 G0 G90 G40 G17
N2550 G94 F1 S70 M3
N2560 G64 SOFT
N2570 G1 X99.555 Y46.95 Z64 F300
N2580 Z56
N2590 G3 X98 Y45 I0.445 J-1.95 F1000
N2600 G3 X100 Y43 I2 J0
N2610 G3 X102 Y45 I0 J2
N2620 G3 X100 Y47 I-2 J0
N2630 G3 X99.555 Y46.95 I0 J-2
N2640 G1 X99.332 Y47.925
N2650 X99.11 Y48.9
N2660 G3 X96 Y45 I0.89 J-3.9
N2670 G3 X100 Y41 I4 J0
N2680 G3 X104 Y45 I0 J4
N2690 G3 X100 Y49 I-4 J0
N2700 G3 X99.11 Y48.9 I0 J-4
N2710 G1 X98.887 Y49.875
N2720 X98.665 Y50.85
N2730 G3 X94 Y45 I1.335 J-5.85
N2740 G3 X100 Y39 I6 J0
N2750 G3 X106 Y45 I0 J6
N2760 G3 X100 Y51 I-6 J0
N2770 G3 X98.665 Y50.85 I0 J-6
N2780 G1 X98.442 Y51.825
N2790 X98.22 Y52.799
N2800 G3 X92 Y45 I1.78 J-7.799
N2810 G3 X100 Y37 I8 J0
N2820 G3 X108 Y45 I0 J8
N2830 G3 X100 Y53 I-8 J0
N2840 G3 X98.22 Y52.799 I0 J-8
N2850 G1 X97.997 Y53.774
N2860 X97.775 Y54.749
N2870 G3 X90 Y45 I2.225 J-9.749
N2880 G3 X100 Y35 I10 J0
N2890 G3 X110 Y45 I0 J10
N2900 G3 X100 Y55 I-10 J0
N2910 G3 X97.775 Y54.749 I0 J-10
N2920 G0 Z62
N2930 G0 X99.555 Y46.95
N2940 G1 Z52 F300
N2950 G3 X98 Y45 I0.445 J-1.95 F1000
N2960 G3 X100 Y43 I2 J0
N2970 G3 X102 Y45 I0 J2
N2980 G3 X100 Y47 I-2 J0
N2990 G3 X99.555 Y46.95 I0 J-2
N3000 G1 X99.332 Y47.925
N3010 X99.11 Y48.9
N3020 G3 X96 Y45 I0.89 J-3.9
N3030 G3 X100 Y41 I4 J0
N3040 G3 X104 Y45 I0 J4
N3050 G3 X100 Y49 I-4 J0
N3060 G3 X99.11 Y48.9 I0 J-4
N3070 G1 X98.887 Y49.875
N3080 X98.665 Y50.85
N3090 G3 X94 Y45 I1.335 J-5.85
N3100 G3 X100 Y39 I6 J0
N3110 G3 X106 Y45 I0 J6
N3120 G3 X100 Y51 I-6 J0
N3130 G3 X98.665 Y50.85 I0 J-6
N3140 G1 X98.442 Y51.825
N3150 X98.22 Y52.799
N3160 G3 X92 Y45 I1.78 J-7.799
N3170 G3 X100 Y37 I8 J0
N3180 G3 X108 Y45 I0 J8
N3190 G3 X100 Y53 I-8 J0
N3200 G3 X98.22 Y52.799 I0 J-8
N3210 G1 X97.997 Y53.774
N3220 X97.775 Y54.749
N3230 G3 X90 Y45 I2.225 J-9.749
N3240 G3 X100 Y35 I10 J0
N3250 G3 X110 Y45 I0 J10
N3260 G3 X100 Y55 I-10 J0
N3270 G3 X97.775 Y54.749 I0 J-10
N3280 G1 Z64 F1
N3290 X147.273 Y58 F300
N3300 Z56
N3310 X147 F1000
N3320 Y32
N3330 X148
N3340 Y58
N3350 X147.273
N3360 Y59
N3370 Y60
N3380 X145
N3390 Y30
N3400 X150
N3410 Y60
N3420 X147.273
N3430 G0 Z62
N3440 G0 Y58
N3450 G1 Z52 F300
N3460 X147 F1000
N3470 Y32
N3480 X148
N3490 Y58
N3500 X147.273
N3510 Y59
N3520 Y60
N3530 X145
N3540 Y30
N3550 X150
N3560 Y60
N3570 X147.273
N3580 Z64 F1
N3590 G0 X25 Y15 Z61
N3600 MCALL CYCLE81(61,60,0,,34)
N3610 X25 Y15
N3620 Y75
N3630 X175
N3640 Y15
N3650 MCALL
N3660 M5 M9
N3670 M30
