N10 G54
N20 TRANS X-14.3 Y-54.2 Z13.5
N30 ;======================================================
N40 ;===   cPost Standard PP for SINUMERIK 840 D        ===
N50 ;======================================================
N60 G0 G90 G40 
N70 G17
N80 ;=============== TOOL CHANGE =================
N90 ; DESC : 
N100 ;=============================================
N110 T1 M06
N120 D1
N130 G0 G90 G40 G17
N140 F0 S0 
N150 G64 SOFT
N160 S70 M3
N170 G1 X48.591 Y29.089 Z38.42 F300 G94
N180 Z28.42
N190 G3 X46.8 Y27.1 I0.209 J-1.989 F1000
N200 G3 X48.8 Y25.1 I2 J0
N210 G3 X50.8 Y27.1 I0 J2
N220 G3 X48.8 Y29.1 I-2 J0
N230 G3 X48.591 Y29.089 I0 J-2
N240 G1 X48.277 Y32.073
N250 X47.964 Y35.056
N260 G3 X40.8 Y27.1 I0.836 J-7.956
N270 G3 X48.8 Y19.1 I8 J0
N280 G3 X56.8 Y27.1 I0 J8
N290 G3 X48.8 Y35.1 I-8 J0
N300 G3 X47.964 Y35.056 I0 J-8
N310 G1 X47.65 Y38.04
N320 X47.337 Y41.023
N330 G3 X34.8 Y27.1 I1.463 J-13.923
N340 G3 X48.8 Y13.1 I14 J0
N350 G3 X62.8 Y27.1 I0 J14
N360 G3 X48.8 Y41.1 I-14 J0
N370 G3 X47.337 Y41.023 I0 J-14
N380 G1 Z38.42 F1
N390 M5 M9
N400 M30
