G54
TRANS Y-110 Z26
;======================================================
;===   cPost Standard PP for SINUMERIK 840 D        ===
;======================================================
N10 G0 G90 G40 
N20 G17
N30 ;=============== TOOL CHANGE =================
N40 ; DESC : T1 Face Mill D 40
N50 ;=============================================
N60 T1 M06
N70 D1
N80 G0 G90 G40 G17
N90 G94 F40 S80 M3
N100 G64 SOFT
N110 G1 X52.609 Y110 Z6 F40 G94
N120 Z-4
N130 X110
N140 Y0
N150 X0
N160 Y110
N170 X52.609
N180 Y100
N190 Y90
N200 X90
N210 Y20
N220 X20
N230 Y90
N240 X52.609
N250 Y80
N260 Y70
N270 X70
N280 Y40
N290 X40
N300 Y70
N310 X52.609
N320 Z6
N330 G0 X112.042 Y23.835 Z11.5
N340 G0 Z1.5
N350 G1 Z-8.5
N360 G3 X120 Y55 I-57.042 J31.165
N370 G3 X55 Y120 I-65 J0
N380 G3 X-9.591 Y62.278 I0 J-65
N390 G3 X-10 Y55 I64.591 J-7.278
N400 G3 X55 Y-10 I65 J0
N410 G3 X120 Y55 I0 J65
N420 G3 X112.042 Y86.165 I-65 J0
N430 G1 X107.654 Y83.768
N440 G2 X115 Y55 I-52.654 J-28.768
N450 G2 X55 Y-5 I-60 J0
N460 G2 X-5 Y55 I0 J60
N470 G2 X55 Y115 I60 J0
N480 G2 X115 Y55 I0 J-60
N490 G2 X107.654 Y26.232 I-60 J0
N500 G0 Z1.5
N510 G0 X112.042 Y23.835 Z8.25
N520 G0 Z-1.75
N530 G1 Z-13
N540 G3 X120 Y55 I-57.042 J31.165
N550 G3 X55 Y120 I-65 J0
N560 G3 X-9.591 Y62.278 I0 J-65
N570 G3 X-10 Y55 I64.591 J-7.278
N580 G3 X55 Y-10 I65 J0
N590 G3 X120 Y55 I0 J65
N600 G3 X112.042 Y86.165 I-65 J0
N610 G1 X107.654 Y83.768
N620 G2 X115 Y55 I-52.654 J-28.768
N630 G2 X55 Y-5 I-60 J0
N640 G2 X-5 Y55 I0 J60
N650 G2 X55 Y115 I60 J0
N660 G2 X115 Y55 I0 J-60
N670 G2 X107.654 Y26.232 I-60 J0
N680 G0 Z-3
N690 G0 X112.042 Y23.835 Z3.75
N700 G0 Z-6.25
N710 G1 Z-17.5
N720 G3 X120 Y55 I-57.042 J31.165
N730 G3 X55 Y120 I-65 J0
N740 G3 X-9.591 Y62.278 I0 J-65
N750 G3 X-10 Y55 I64.591 J-7.278
N760 G3 X55 Y-10 I65 J0
N770 G3 X120 Y55 I0 J65
N780 G3 X112.042 Y86.165 I-65 J0
N790 G1 X107.654 Y83.768
N800 G2 X115 Y55 I-52.654 J-28.768
N810 G2 X55 Y-5 I-60 J0
N820 G2 X-5 Y55 I0 J60
N830 G2 X55 Y115 I60 J0
N840 G2 X115 Y55 I0 J-60
N850 G2 X107.654 Y26.232 I-60 J0
N860 G0 Z-7.5
N870 G0 X112.042 Y23.835 Z-0.75
N880 G0 Z-10.75
N890 G1 Z-22
N900 G3 X120 Y55 I-57.042 J31.165
N910 G3 X55 Y120 I-65 J0
N920 G3 X-9.591 Y62.278 I0 J-65
N930 G3 X-10 Y55 I64.591 J-7.278
N940 G3 X55 Y-10 I65 J0
N950 G3 X120 Y55 I0 J65
N960 G3 X112.042 Y86.165 I-65 J0
N970 G1 X107.654 Y83.768
N980 G2 X115 Y55 I-52.654 J-28.768
N990 G2 X55 Y-5 I-60 J0
N1000 G2 X-5 Y55 I0 J60
N1010 G2 X55 Y115 I60 J0
N1020 G2 X115 Y55 I0 J-60
N1030 G2 X107.654 Y26.232 I-60 J0
N1040 G1 Z-12
N1050 G0 Z-2
N1060 ;=============== TOOL CHANGE =================
N1070 ; DESC : T2 End Mill D 3
N1080 ;=============================================
N1090 T2 M06
N1100 D1
N1110 G0 G90 G40 G17
N1120 G94 F21.2 S1061 M3
N1130 G64 SOFT
N1140 G0 X53.5 Y56.5 Z12.5
N1150 G0 Z2.5
N1160 G1 Z-7.5 F21
N1170 Y53.5
N1180 X56.5
N1190 Y56.5
N1200 X53.5
N1210 Y57.25
N1220 Y58
N1230 X52
N1240 Y52
N1250 X58
N1260 Y58
N1270 X53.5
N1280 Y58.75
N1290 Y59.5
N1300 X50.5
N1310 Y50.5
N1320 X59.5
N1330 Y59.5
N1340 X53.5
N1350 Y60.25
N1360 Y61
N1370 X49
N1380 Y49
N1390 X61
N1400 Y61
N1410 X53.5
N1420 Y61.75
N1430 X53.499 Y62.5
N1440 X47.5
N1450 Y47.5
N1460 X62.5
N1470 Y62.5
N1480 X53.499
N1490 Y63.25
N1500 Y64
N1510 X46
N1520 Y46
N1530 X64
N1540 Y64
N1550 X53.499
N1560 Y64.75
N1570 Y65.5
N1580 X44.5
N1590 Y44.5
N1600 X65.5
N1610 Y65.5
N1620 X53.499
N1630 Y66.25
N1640 Y67
N1650 X43
N1660 Y43
N1670 X67
N1680 Y67
N1690 X53.499
N1700 Y67.75
N1710 Y68.5
N1720 X41.5
N1730 Y41.5
N1740 X68.5
N1750 Y68.5
N1760 X53.499
N1770 Y69.25
N1780 Y70
N1790 X40
N1800 Y40
N1810 X70
N1820 Y70
N1830 X53.499
N1840 Y70.75
N1850 Y71.5
N1860 X38.5
N1870 Y38.5
N1880 X71.5
N1890 Y71.5
N1900 X53.499
N1910 Y72.25
N1920 Y73
N1930 X37
N1940 Y37
N1950 X73
N1960 Y73
N1970 X53.499
N1980 Y73.75
N1990 X53.498 Y74.5
N2000 X35.5
N2010 Y35.5
N2020 X74.5
N2030 Y74.5
N2040 X53.498
N2050 Y75.25
N2060 Y76
N2070 X35
N2080 G3 X34 Y75 I0 J-1
N2090 G1 Y35
N2100 G3 X35 Y34 I1 J0
N2110 G1 X75
N2120 G3 X76 Y35 I0 J1
N2130 G1 Y75
N2140 G3 X75 Y76 I-1 J0
N2150 G1 X53.498
N2160 Y76.75
N2170 Y77.5
N2180 X35
N2190 G3 X32.5 Y75 I0 J-2.5
N2200 G1 Y35
N2210 G3 X35 Y32.5 I2.5 J0
N2220 G1 X75
N2230 G3 X77.5 Y35 I0 J2.5
N2240 G1 Y75
N2250 G3 X75 Y77.5 I-2.5 J0
N2260 G1 X53.498
N2270 G0 Z2.5
N2280 G0 X53.5 Y56.5 Z7.75
N2290 G0 Z-2.25
N2300 G1 Z-11
N2310 Y53.5
N2320 X56.5
N2330 Y56.5
N2340 X53.5
N2350 Y57.25
N2360 Y58
N2370 X52
N2380 Y52
N2390 X58
N2400 Y58
N2410 X53.5
N2420 Y58.75
N2430 Y59.5
N2440 X50.5
N2450 Y50.5
N2460 X59.5
N2470 Y59.5
N2480 X53.5
N2490 Y60.25
N2500 Y61
N2510 X49
N2520 Y49
N2530 X61
N2540 Y61
N2550 X53.5
N2560 Y61.75
N2570 X53.499 Y62.5
N2580 X47.5
N2590 Y47.5
N2600 X62.5
N2610 Y62.5
N2620 X53.499
N2630 Y63.25
N2640 Y64
N2650 X46
N2660 Y46
N2670 X64
N2680 Y64
N2690 X53.499
N2700 Y64.75
N2710 Y65.5
N2720 X44.5
N2730 Y44.5
N2740 X65.5
N2750 Y65.5
N2760 X53.499
N2770 Y66.25
N2780 Y67
N2790 X43
N2800 Y43
N2810 X67
N2820 Y67
N2830 X53.499
N2840 Y67.75
N2850 Y68.5
N2860 X41.5
N2870 Y41.5
N2880 X68.5
N2890 Y68.5
N2900 X53.499
N2910 Y69.25
N2920 Y70
N2930 X40
N2940 Y40
N2950 X70
N2960 Y70
N2970 X53.499
N2980 Y70.75
N2990 Y71.5
N3000 X38.5
N3010 Y38.5
N3020 X71.5
N3030 Y71.5
N3040 X53.499
N3050 Y72.25
N3060 Y73
N3070 X37
N3080 Y37
N3090 X73
N3100 Y73
N3110 X53.499
N3120 Y73.75
N3130 X53.498 Y74.5
N3140 X35.5
N3150 Y35.5
N3160 X74.5
N3170 Y74.5
N3180 X53.498
N3190 Y75.25
N3200 Y76
N3210 X35
N3220 G3 X34 Y75 I0 J-1
N3230 G1 Y35
N3240 G3 X35 Y34 I1 J0
N3250 G1 X75
N3260 G3 X76 Y35 I0 J1
N3270 G1 Y75
N3280 G3 X75 Y76 I-1 J0
N3290 G1 X53.498
N3300 Y76.75
N3310 Y77.5
N3320 X35
N3330 G3 X32.5 Y75 I0 J-2.5
N3340 G1 Y35
N3350 G3 X35 Y32.5 I2.5 J0
N3360 G1 X75
N3370 G3 X77.5 Y35 I0 J2.5
N3380 G1 Y75
N3390 G3 X75 Y77.5 I-2.5 J0
N3400 G1 X53.498
N3410 Z-1
N3420 G0 Z9
N3430 G0 X18.511 Y54.104 Z17.5
N3440 G0 Z7.5
N3450 G1 Z-2.5
N3460 G3 X55 Y18.5 I36.489 J0.896
N3470 G3 X91.5 Y55 I0 J36.5
N3480 G3 X55 Y91.5 I-36.5 J0
N3490 G3 X18.5 Y55 I0 J-36.5
N3500 G3 X18.511 Y54.104 I36.5 J0
N3510 G1 Z-6
N3520 G2 X18.5 Y55 I36.489 J0.896
N3530 G2 X55 Y91.5 I36.5 J0
N3540 G2 X91.5 Y55 I0 J-36.5
N3550 G2 X55 Y18.5 I-36.5 J0
N3560 G2 X18.511 Y54.104 I0 J36.5
N3570 G1 Z4
N3580 G0 Z14
N3590 ;=============== TOOL CHANGE =================
N3600 ; DESC : T3 Drill D 10
N3610 ;=============================================
N3620 T3 M06
N3630 D1
N3640 G0 G90 G40 G17
N3650 G94 F0.15 S955 M3
N3660 G64 SOFT
N3670 G0 X14 Y96 Z-1
N3680 G0 Z-11
N3690 G1 Z-21 F0.15
N3700 MCALL CYCLE81(-21,-22,0,,14.887)
N3710 X14 Y96
N3720 MCALL
N3730 G1 X14 Y96 Z-11 F1000
N3740 G0 Z-1
N3750 G0 X96
N3760 G0 Z-11
N3770 G1 Z-21 F0.15
N3780 MCALL CYCLE81(-21,-22,0,,14.887)
N3790 X96 Y96
N3800 MCALL
N3810 G1 X96 Y96 Z-11 F1000
N3820 G0 Z-1
N3830 G0 Y14
N3840 G0 Z-11
N3850 G1 Z-21 F0.15
N3860 MCALL CYCLE81(-21,-22,0,,14.887)
N3870 X96 Y14
N3880 MCALL
N3890 G1 X96 Y14 Z-11 F1000
N3900 G0 Z-1
N3910 G0 X14
N3920 G0 Z-11
N3930 G1 Z-21 F0.15
N3940 MCALL CYCLE81(-21,-22,0,,14.887)
N3950 X14 Y14
N3960 MCALL
N3970 G1 X14 Y14 Z-11 F1000
N3980 G0 Z-1
N3990 M5 M9
N4000 M30
