G54
TRANS X0 Y-120 Z45
;======================================================
;===   cPost Standard PP for SINUMERIK 840 D        ===
;======================================================
N10 G0 G90 G40 
N20 G17
N30 ;=============== TOOL CHANGE =================
N40 ; DESC : T1 Face Mill D 40
N50 ;=============================================
N60 T1 M06
N70 D1
N80 G0 G90 G40 G17
N90 G94 F1000 S70 M3
N100 G64 SOFT
N110 G1 X82.424 Y0 Z5 F300 G94
N120 Z-5
N130 X0 F1000
N140 Y120
N150 X160
N160 Y0
N170 X82.424
N180 Y10
N190 Y20
N200 X20
N210 Y100
N220 X140
N230 Y20
N240 X82.424
N250 Y30
N260 Y40
N270 X40
N280 Y80
N290 X120
N300 Y40
N310 X82.424
N320 Z5 F1
N330 ;=============== TOOL CHANGE =================
N340 ; DESC : T2 End Mill D 12
N350 ;=============================================
N360 T2 M06
N370 D1
N380 G0 G90 G40 G17
N390 G94 F1000 S70 M3
N400 G64 SOFT
N410 G1 X86 Y121 Z-1.25 F300
N420 Z-11.25
N430 X80 F1000
N440 X10
N450 G3 X-1 Y110 I0 J-11
N460 G1 Y10
N470 G3 X10 Y-1 I11 J0
N480 G1 X150
N490 G3 X161 Y10 I0 J11
N500 G1 Y110
N510 G3 X150 Y121 I-11 J0
N520 G1 X80
N530 X74
N540 Y116
N550 X80
N560 X150
N570 G2 X156 Y110 I0 J-6
N580 G1 Y10
N590 G2 X150 Y4 I-6 J0
N600 G1 X10
N610 G2 X4 Y10 I0 J6
N620 G1 Y110
N630 G2 X10 Y116 I6 J0
N640 G1 X80
N650 X86
N660 G0 Z-1.875
N670 G0 Y121
N680 G1 Z-17.5 F300
N690 X80 F1000
N700 X10
N710 G3 X-1 Y110 I0 J-11
N720 G1 Y10
N730 G3 X10 Y-1 I11 J0
N740 G1 X150
N750 G3 X161 Y10 I0 J11
N760 G1 Y110
N770 G3 X150 Y121 I-11 J0
N780 G1 X80
N790 X74
N800 Y116
N810 X80
N820 X150
N830 G2 X156 Y110 I0 J-6
N840 G1 Y10
N850 G2 X150 Y4 I-6 J0
N860 G1 X10
N870 G2 X4 Y10 I0 J6
N880 G1 Y110
N890 G2 X10 Y116 I6 J0
N900 G1 X80
N910 X86
N920 G0 Z-8.125
N930 G0 Y121
N940 G1 Z-23.75 F300
N950 X80 F1000
N960 X10
N970 G3 X-1 Y110 I0 J-11
N980 G1 Y10
N990 G3 X10 Y-1 I11 J0
N1000 G1 X150
N1010 G3 X161 Y10 I0 J11
N1020 G1 Y110
N1030 G3 X150 Y121 I-11 J0
N1040 G1 X80
N1050 X74
N1060 Y116
N1070 X80
N1080 X150
N1090 G2 X156 Y110 I0 J-6
N1100 G1 Y10
N1110 G2 X150 Y4 I-6 J0
N1120 G1 X10
N1130 G2 X4 Y10 I0 J6
N1140 G1 Y110
N1150 G2 X10 Y116 I6 J0
N1160 G1 X80
N1170 X86
N1180 G0 Z-14.375
N1190 G0 Y121
N1200 G1 Z-30 F300
N1210 X80 F1000
N1220 X10
N1230 G3 X-1 Y110 I0 J-11
N1240 G1 Y10
N1250 G3 X10 Y-1 I11 J0
N1260 G1 X150
N1270 G3 X161 Y10 I0 J11
N1280 G1 Y110
N1290 G3 X150 Y121 I-11 J0
N1300 G1 X80
N1310 X74
N1320 Y116
N1330 X80
N1340 X150
N1350 G2 X156 Y110 I0 J-6
N1360 G1 Y10
N1370 G2 X150 Y4 I-6 J0
N1380 G1 X10
N1390 G2 X4 Y10 I0 J6
N1400 G1 Y110
N1410 G2 X10 Y116 I6 J0
N1420 G1 X80
N1430 X86
N1440 Z-20 F1
N1450 M5 M9
N1460 M30
