N10 ;======================================================
N20 ;===   cPost Standard PP for SINUMERIK 840 D        ===
N30 ;======================================================
N40 G54
N50 TRANS Y-180 Z37
N60 G0 G90 G40 
N70 G17
N80 ;=============== TOOL CHANGE =================
N90 ; DESC : T1 Face Mill D 40
N100 ;=============================================
N110 T1 M06
N120 D1
N130 G0 G90 G40 G17
N140 G94 F1000 S70 M3
N150 G64 SOFT
N160 G0 X119.378 Y180 Z17
N170 G0 Z7
N180 G1 Z-3 F300 G94
N190 X240 F1000
N200 Y0
N210 X0
N220 Y180
N230 X119.378
N240 Y177.5
N250 Y175
N260 X220
N270 G2 X235 Y160 I0 J-15
N280 G1 Y20
N290 G2 X220 Y5 I-15 J0
N300 G1 X20
N310 G2 X5 Y20 I0 J15
N320 G1 Y160
N330 G2 X20 Y175 I15 J0
N340 G1 X119.378
N350 Y172.5
N360 Y170
N370 X215
N380 G2 X230 Y155 I0 J-15
N390 G1 Y25
N400 G2 X215 Y10 I-15 J0
N410 G1 X25
N420 G2 X10 Y25 I0 J15
N430 G1 Y155
N440 G2 X25 Y170 I15 J0
N450 G1 X119.378
N460 Y167.5
N470 Y165
N480 X210
N490 G2 X225 Y150 I0 J-15
N500 G1 Y30
N510 G2 X210 Y15 I-15 J0
N520 G1 X30
N530 G2 X15 Y30 I0 J15
N540 G1 Y150
N550 G2 X30 Y165 I15 J0
N560 G1 X119.378
N570 Y162.5
N580 Y160
N590 X205
N600 G2 X220 Y145 I0 J-15
N610 G1 Y35
N620 G2 X205 Y20 I-15 J0
N630 G1 X35
N640 G2 X20 Y35 I0 J15
N650 G1 Y145
N660 G2 X35 Y160 I15 J0
N670 G1 X119.378
N680 Y157.5
N690 Y155
N700 X200
N710 G2 X215 Y140 I0 J-15
N720 G1 Y40
N730 G2 X200 Y25 I-15 J0
N740 G1 X40
N750 G2 X25 Y40 I0 J15
N760 G1 Y140
N770 G2 X40 Y155 I15 J0
N780 G1 X119.378
N790 Y152.5
N800 Y150
N810 X195
N820 G2 X210 Y135 I0 J-15
N830 G1 Y45
N840 G2 X195 Y30 I-15 J0
N850 G1 X45
N860 G2 X30 Y45 I0 J15
N870 G1 Y135
N880 G2 X45 Y150 I15 J0
N890 G1 X119.378
N900 Y147.5
N910 Y145
N920 X190
N930 G2 X205 Y130 I0 J-15
N940 G1 Y50
N950 G2 X190 Y35 I-15 J0
N960 G1 X50
N970 G2 X35 Y50 I0 J15
N980 G1 Y130
N990 G2 X50 Y145 I15 J0
N1000 G1 X119.378
N1010 Y142.5
N1020 Y140
N1030 X185
N1040 G2 X200 Y125 I0 J-15
N1050 G1 Y55
N1060 G2 X185 Y40 I-15 J0
N1070 G1 X55
N1080 G2 X40 Y55 I0 J15
N1090 G1 Y125
N1100 G2 X55 Y140 I15 J0
N1110 G1 X119.378
N1120 Y137.5
N1130 Y135
N1140 X180
N1150 G2 X195 Y120 I0 J-15
N1160 G1 Y60
N1170 G2 X180 Y45 I-15 J0
N1180 G1 X60
N1190 G2 X45 Y60 I0 J15
N1200 G1 Y120
N1210 G2 X60 Y135 I15 J0
N1220 G1 X119.378
N1230 Y132.5
N1240 Y130
N1250 X175
N1260 G2 X190 Y115 I0 J-15
N1270 G1 Y65
N1280 G2 X175 Y50 I-15 J0
N1290 G1 X65
N1300 G2 X50 Y65 I0 J15
N1310 G1 Y115
N1320 G2 X65 Y130 I15 J0
N1330 G1 X119.378
N1340 Y127.5
N1350 Y125
N1360 X170
N1370 G2 X185 Y110 I0 J-15
N1380 G1 Y70
N1390 G2 X170 Y55 I-15 J0
N1400 G1 X70
N1410 G2 X55 Y70 I0 J15
N1420 G1 Y110
N1430 G2 X70 Y125 I15 J0
N1440 G1 X119.378
N1450 Y122.5
N1460 Y120
N1470 X165
N1480 G2 X180 Y105 I0 J-15
N1490 G1 Y75
N1500 G2 X165 Y60 I-15 J0
N1510 G1 X75
N1520 G2 X60 Y75 I0 J15
N1530 G1 Y105
N1540 G2 X75 Y120 I15 J0
N1550 G1 X119.378
N1560 Y117.5
N1570 Y115
N1580 X160
N1590 G2 X175 Y100 I0 J-15
N1600 G1 Y80
N1610 G2 X160 Y65 I-15 J0
N1620 G1 X80
N1630 G2 X65 Y80 I0 J15
N1640 G1 Y100
N1650 G2 X80 Y115 I15 J0
N1660 G1 X119.378
N1670 Y112.5
N1680 Y110
N1690 X155
N1700 G2 X170 Y95 I0 J-15
N1710 G1 Y85
N1720 G2 X155 Y70 I-15 J0
N1730 G1 X85
N1740 G2 X70 Y85 I0 J15
N1750 G1 Y95
N1760 G2 X85 Y110 I15 J0
N1770 G1 X119.378
N1780 Y107.5
N1790 Y105
N1800 X155
N1810 G2 X165 Y95 I0 J-10
N1820 G1 Y85
N1830 G2 X155 Y75 I-10 J0
N1840 G1 X85
N1850 G2 X75 Y85 I0 J10
N1860 G1 Y95
N1870 G2 X85 Y105 I10 J0
N1880 G1 X119.378
N1890 Y102.5
N1900 Y100
N1910 X152.5
N1920 G2 X160 Y92.5 I0 J-7.5
N1930 G1 Y87.5
N1940 G2 X152.5 Y80 I-7.5 J0
N1950 G1 X87.5
N1960 G2 X80 Y87.5 I0 J7.5
N1970 G1 Y92.5
N1980 G2 X87.5 Y100 I7.5 J0
N1990 G1 X119.378
N2000 Y97.5
N2010 Y95
N2020 X151.25
N2030 G2 X155 Y91.25 I0 J-3.75
N2040 G1 Y88.75
N2050 G2 X151.25 Y85 I-3.75 J0
N2060 G1 X88.75
N2070 G2 X85 Y88.75 I0 J3.75
N2080 G1 Y91.25
N2090 G2 X88.75 Y95 I3.75 J0
N2100 G1 X119.378
N2110 Z7 F1
N2120 G0 Z17
N2130 ;=============== TOOL CHANGE =================
N2140 ; DESC : T2 Face Mill D 50
N2150 ;=============================================
N2160 T1 M06
N2170 D1
N2180 G0 G90 G40 G17
N2190 G94 F1000 S70 M3
N2200 G64 SOFT
N2210 G1 X105 Y193 Z2 F300
N2220 Z-8
N2230 X120 F1000
N2240 X200
N2250 G2 X233 Y160 I0 J-33
N2260 G1 Y20
N2270 G2 X200 Y-13 I-33 J0
N2280 G1 X40
N2290 G2 X7 Y20 I0 J33
N2300 G1 Y160
N2310 G2 X40 Y193 I33 J0
N2320 G1 X120
N2330 X135
N2340 G1 Z-2
N2350 G0 X105 Y187
N2360 G1 Z-8
N2370 G1 X120
N2380 X200
N2390 G2 X227 Y160 I0 J-27
N2400 G1 Y20
N2410 G2 X200 Y-7 I-27 J0
N2420 G1 X40
N2430 G2 X13 Y20 I0 J27
N2440 G1 Y160
N2450 G2 X40 Y187 I27 J0
N2460 G1 X120
N2470 X135
N2480 G1 Z-2
N2490 G0 X105 Y181
N2500 G1 Z-8
N2510 G1 X120
N2520 X200
N2530 G2 X221 Y160 I0 J-21
N2540 G1 Y20
N2550 G2 X200 Y-1 I-21 J0
N2560 G1 X40
N2570 G2 X19 Y20 I0 J21
N2580 G1 Y160
N2590 G2 X40 Y181 I21 J0
N2600 G1 X120
N2610 X135
N2620 G0 Z-2
N2630 G0 X105 Y175
N2640 G1 Z-8
N2650 G1 X120
N2660 X200
N2670 G2 X215 Y160 I0 J-15
N2680 G1 Y20
N2690 G2 X200 Y5 I-15 J0
N2700 G1 X40
N2710 G2 X25 Y20 I0 J15
N2720 G1 Y160
N2730 G2 X40 Y175 I15 J0
N2740 G1 X120
N2750 X135
N2760 G1 Z-0.5
N2770 G0 X105 Y193
N2780 G1 Z-13 F300
N2790 X120 F1000
N2800 X200
N2810 G2 X233 Y160 I0 J-33
N2820 G1 Y20
N2830 G2 X200 Y-13 I-33 J0
N2840 G1 X40
N2850 G2 X7 Y20 I0 J33
N2860 G1 Y160
N2870 G2 X40 Y193 I33 J0
N2880 G1 X120
N2890 X135
N2900 G1 Z-2
N2910 G0 X105 Y187
N2920 G1 Z-13
N2930 G1 X120
N2940 X200
N2950 G2 X227 Y160 I0 J-27
N2960 G1 Y20
N2970 G2 X200 Y-7 I-27 J0
N2980 G1 X40
N2990 G2 X13 Y20 I0 J27
N3000 G1 Y160
N3010 G2 X40 Y187 I27 J0
N3020 G1 X120
N3030 X135
N3040 G1 Z-2
N3050 G0 X105 Y181
N3060 G1 Z-13
N3070 G1 X120
N3080 X200
N3090 G2 X221 Y160 I0 J-21
N3100 G1 Y20
N3110 G2 X200 Y-1 I-21 J0
N3120 G1 X40
N3130 G2 X19 Y20 I0 J21
N3140 G1 Y160
N3150 G2 X40 Y181 I21 J0
N3160 G1 X120
N3170 X135
N3180 G1 Z-2
N3190 G0 X105 Y175
N3200 G1 Z-13
N3210 G1 X120
N3220 X200
N3230 G2 X215 Y160 I0 J-15
N3240 G1 Y20
N3250 G2 X200 Y5 I-15 J0
N3260 G1 X40
N3270 G2 X25 Y20 I0 J15
N3280 G1 Y160
N3290 G2 X40 Y175 I15 J0
N3300 G1 X120
N3310 X135
N3320 G1 Z-5.5
N3330 G0 X105 Y193
N3340 G1 Z-18 F300
N3350 X120 F1000
N3360 X200
N3370 G2 X233 Y160 I0 J-33
N3380 G1 Y20
N3390 G2 X200 Y-13 I-33 J0
N3400 G1 X40
N3410 G2 X7 Y20 I0 J33
N3420 G1 Y160
N3430 G2 X40 Y193 I33 J0
N3440 G1 X120
N3450 X135
N3460 G1 Z-2
N3470 G0 X105 Y187
N3480 G1 Z-18
N3490 G1 X120
N3500 X200
N3510 G2 X227 Y160 I0 J-27
N3520 G1 Y20
N3530 G2 X200 Y-7 I-27 J0
N3540 G1 X40
N3550 G2 X13 Y20 I0 J27
N3560 G1 Y160
N3570 G2 X40 Y187 I27 J0
N3580 G1 X120
N3590 X135
N3600 G1 Z-2
N3610 G0 X105 Y181
N3620 G1 Z-18
N3630 G1 X120
N3640 X200
N3650 G2 X221 Y160 I0 J-21
N3660 G1 Y20
N3670 G2 X200 Y-1 I-21 J0
N3680 G1 X40
N3690 G2 X19 Y20 I0 J21
N3700 G1 Y160
N3710 G2 X40 Y181 I21 J0
N3720 G1 X120
N3730 X135
N3740 G1 Z-2
N3750 G0 X105 Y175
N3760 G1 Z-18
N3770 G1 X120
N3780 X200
N3790 G2 X215 Y160 I0 J-15
N3800 G1 Y20
N3810 G2 X200 Y5 I-15 J0
N3820 G1 X40
N3830 G2 X25 Y20 I0 J15
N3840 G1 Y160
N3850 G2 X40 Y175 I15 J0
N3860 G1 X120
N3870 X135
N3880 G1 Z-10.5
N3890 G0 X105 Y193
N3900 G1 Z-23 F300
N3910 X120 F1000
N3920 X200
N3930 G2 X233 Y160 I0 J-33
N3940 G1 Y20
N3950 G2 X200 Y-13 I-33 J0
N3960 G1 X40
N3970 G2 X7 Y20 I0 J33
N3980 G1 Y160
N3990 G2 X40 Y193 I33 J0
N4000 G1 X120
N4010 X135
N4020 G1 Z-2
N4030 G0 X105 Y187
N4040 G1 Z-23
N4050 G1 X120
N4060 X200
N4070 G2 X227 Y160 I0 J-27
N4080 G1 Y20
N4090 G2 X200 Y-7 I-27 J0
N4100 G1 X40
N4110 G2 X13 Y20 I0 J27
N4120 G1 Y160
N4130 G2 X40 Y187 I27 J0
N4140 G1 X120
N4150 X135
N4160 G1 Z-2
N4170 G0 X105 Y181
N4180 G1 Z-23
N4190 G1 X120
N4200 X200
N4210 G2 X221 Y160 I0 J-21
N4220 G1 Y20
N4230 G2 X200 Y-1 I-21 J0
N4240 G1 X40
N4250 G2 X19 Y20 I0 J21
N4260 G1 Y160
N4270 G2 X40 Y181 I21 J0
N4280 G1 X120
N4290 X135
N4300 G1 Z-2
N4310 G0 X105 Y175
N4320 G1 Z-23
N4330 G1 X120
N4340 X200
N4350 G2 X215 Y160 I0 J-15
N4360 G1 Y20
N4370 G2 X200 Y5 I-15 J0
N4380 G1 X40
N4390 G2 X25 Y20 I0 J15
N4400 G1 Y160
N4410 G2 X40 Y175 I15 J0
N4420 G1 X120
N4430 X135
N4440 G1 Z-15.5
N4450 G0 X105 Y193
N4460 G1 Z-28 F300
N4470 X120 F1000
N4480 X200
N4490 G2 X233 Y160 I0 J-33
N4500 G1 Y20
N4510 G2 X200 Y-13 I-33 J0
N4520 G1 X40
N4530 G2 X7 Y20 I0 J33
N4540 G1 Y160
N4550 G2 X40 Y193 I33 J0
N4560 G1 X120
N4570 X135
N4580 G1 Z-2
N4590 G0 X105 Y187
N4600 G1 Z-28
N4610 G1 X120
N4620 X200
N4630 G2 X227 Y160 I0 J-27
N4640 G1 Y20
N4650 G2 X200 Y-7 I-27 J0
N4660 G1 X40
N4670 G2 X13 Y20 I0 J27
N4680 G1 Y160
N4690 G2 X40 Y187 I27 J0
N4700 G1 X120
N4710 X135
N4720 G1 Z-2
N4730 G0 X105 Y181
N4740 G1 Z-28
N4750 G1 X120
N4760 X200
N4770 G2 X221 Y160 I0 J-21
N4780 G1 Y20
N4790 G2 X200 Y-1 I-21 J0
N4800 G1 X40
N4810 G2 X19 Y20 I0 J21
N4820 G1 Y160
N4830 G2 X40 Y181 I21 J0
N4840 G1 X120
N4850 X135
N4860 G1 Z-2
N4870 G0 X105 Y175
N4880 G1 Z-28
N4890 G1 X120
N4900 X200
N4910 G2 X215 Y160 I0 J-15
N4920 G1 Y20
N4930 G2 X200 Y5 I-15 J0
N4940 G1 X40
N4950 G2 X25 Y20 I0 J15
N4960 G1 Y160
N4970 G2 X40 Y175 I15 J0
N4980 G1 X120
N4990 X135
N5000 Z-18 F1
N5010 ;=============== TOOL CHANGE =================
N5020 ; DESC : T2 End Mill D 12
N5030 ;=============================================
N5040 T2 M06
N5050 D1
N5060 G0 G90 G40 G17
N5070 G94 F1000 S70 M3
N5080 G64 SOFT
N5090 G1 X119.899 Y91.997 Z3.5 F300
N5100 Z-6.5
N5110 G3 X118 Y90 I0.101 J-1.997 F1000
N5120 G3 X120 Y88 I2 J0
N5130 G3 X122 Y90 I0 J2
N5140 G3 X120 Y92 I-2 J0
N5150 G3 X119.899 Y91.997 I0 J-2
N5160 G1 X119.747 Y94.994
N5170 X119.595 Y97.99
N5180 G3 X112 Y90 I0.405 J-7.99
N5190 G3 X120 Y82 I8 J0
N5200 G3 X128 Y90 I0 J8
N5210 G3 X120 Y98 I-8 J0
N5220 G3 X119.595 Y97.99 I0 J-8
N5230 G1 X119.443 Y100.986
N5240 X119.291 Y103.982
N5250 G3 X106 Y90 I0.709 J-13.982
N5260 G3 X120 Y76 I14 J0
N5270 G3 X134 Y90 I0 J14
N5280 G3 X120 Y104 I-14 J0
N5290 G3 X119.291 Y103.982 I0 J-14
N5300 G1 X119.139 Y106.978
N5310 X118.987 Y109.974
N5320 G3 X100 Y90 I1.013 J-19.974
N5330 G3 X120 Y70 I20 J0
N5340 G3 X140 Y90 I0 J20
N5350 G3 X120 Y110 I-20 J0
N5360 G3 X118.987 Y109.974 I0 J-20
N5370 G1 X118.835 Y112.97
N5380 X118.683 Y115.967
N5390 G3 X94 Y90 I1.317 J-25.967
N5400 G3 X120 Y64 I26 J0
N5410 G3 X146 Y90 I0 J26
N5420 G3 X120 Y116 I-26 J0
N5430 G3 X118.683 Y115.967 I0 J-26
N5440 G1 X118.531 Y118.963
N5450 X118.379 Y121.959
N5460 G3 X88 Y90 I1.621 J-31.959
N5470 G3 X120 Y58 I32 J0
N5480 G3 X152 Y90 I0 J32
N5490 G3 X120 Y122 I-32 J0
N5500 G3 X118.379 Y121.959 I0 J-32
N5510 G1 X118.227 Y124.955
N5520 X118.075 Y127.951
N5530 G3 X82 Y90 I1.925 J-37.951
N5540 G3 X120 Y52 I38 J0
N5550 G3 X158 Y90 I0 J38
N5560 G3 X120 Y128 I-38 J0
N5570 G3 X118.075 Y127.951 I0 J-38
N5580 G1 X117.923 Y130.947
N5590 X117.771 Y133.944
N5600 G3 X76 Y90 I2.229 J-43.944
N5610 G3 X120 Y46 I44 J0
N5620 G3 X164 Y90 I0 J44
N5630 G3 X120 Y134 I-44 J0
N5640 G3 X117.771 Y133.944 I0 J-44
N5650 G0 Z-1.25
N5660 G0 X119.899 Y91.997
N5670 G1 Z-10 F300
N5680 G3 X118 Y90 I0.101 J-1.997 F1000
N5690 G3 X120 Y88 I2 J0
N5700 G3 X122 Y90 I0 J2
N5710 G3 X120 Y92 I-2 J0
N5720 G3 X119.899 Y91.997 I0 J-2
N5730 G1 X119.747 Y94.994
N5740 X119.595 Y97.99
N5750 G3 X112 Y90 I0.405 J-7.99
N5760 G3 X120 Y82 I8 J0
N5770 G3 X128 Y90 I0 J8
N5780 G3 X120 Y98 I-8 J0
N5790 G3 X119.595 Y97.99 I0 J-8
N5800 G1 X119.443 Y100.986
N5810 X119.291 Y103.982
N5820 G3 X106 Y90 I0.709 J-13.982
N5830 G3 X120 Y76 I14 J0
N5840 G3 X134 Y90 I0 J14
N5850 G3 X120 Y104 I-14 J0
N5860 G3 X119.291 Y103.982 I0 J-14
N5870 G1 X119.139 Y106.978
N5880 X118.987 Y109.974
N5890 G3 X100 Y90 I1.013 J-19.974
N5900 G3 X120 Y70 I20 J0
N5910 G3 X140 Y90 I0 J20
N5920 G3 X120 Y110 I-20 J0
N5930 G3 X118.987 Y109.974 I0 J-20
N5940 G1 X118.835 Y112.97
N5950 X118.683 Y115.967
N5960 G3 X94 Y90 I1.317 J-25.967
N5970 G3 X120 Y64 I26 J0
N5980 G3 X146 Y90 I0 J26
N5990 G3 X120 Y116 I-26 J0
N6000 G3 X118.683 Y115.967 I0 J-26
N6010 G1 X118.531 Y118.963
N6020 X118.379 Y121.959
N6030 G3 X88 Y90 I1.621 J-31.959
N6040 G3 X120 Y58 I32 J0
N6050 G3 X152 Y90 I0 J32
N6060 G3 X120 Y122 I-32 J0
N6070 G3 X118.379 Y121.959 I0 J-32
N6080 G1 X118.227 Y124.955
N6090 X118.075 Y127.951
N6100 G3 X82 Y90 I1.925 J-37.951
N6110 G3 X120 Y52 I38 J0
N6120 G3 X158 Y90 I0 J38
N6130 G3 X120 Y128 I-38 J0
N6140 G3 X118.075 Y127.951 I0 J-38
N6150 G1 X117.923 Y130.947
N6160 X117.771 Y133.944
N6170 G3 X76 Y90 I2.229 J-43.944
N6180 G3 X120 Y46 I44 J0
N6190 G3 X164 Y90 I0 J44
N6200 G3 X120 Y134 I-44 J0
N6210 G3 X117.771 Y133.944 I0 J-44
N6220 G1 Z0 F1
N6230 M5 M9
N6240 M30
