;======================================================
;===   cPost Standard PP for SINUMERIK 840 D        ===
;======================================================
G54
TRANS Y-180 Z37.4
N10 G0 G90 G40 
N20 G17
N30 ;=============== TOOL CHANGE =================
N40 ; DESC : T2 End Mill D 12
N50 ;=============================================
N60 T1 M06
N70 D1
N80 G0 G90 G40 G17
N90 G94 F1000 S70 M3
N100 G64 SOFT
N110 G1 X126 Y90 Z3.5 F300 G94
N120 Z-6.5
N130 G3 X120 Y96 I-6 J0 F700
N140 G3 X114 Y90 I0 J-6
N150 G3 X120 Y84 I6 J0
N160 G3 X126 Y90 I0 J6
N170 G1 X125.603 Y92.36
N180 X124.455 Y94.46
N190 X122.683 Y96.069
N200 X120.482 Y97.009
N210 X118.094 Y97.176
N220 X115.784 Y96.553
N230 X113.804 Y95.208
N240 X112.539 Y93.593
N250 X111.544 Y91.203
N260 X111.317 Y88.584
N270 X111.891 Y85.98
N280 X113.226 Y83.628
N290 X115.213 Y81.741
N300 X117.69 Y80.487
N310 X120.454 Y79.981
N320 X123.283 Y80.272
N330 X125.952 Y81.348
N340 X128.25 Y83.133
N350 X129.997 Y85.498
N360 X131.057 Y88.275
N370 X131.346 Y91.263
N380 X130.834 Y94.251
N390 X129.551 Y97.03
N400 X127.577 Y99.406 F730
N410 X125.038 Y101.215
N420 X122.099 Y102.332
N430 X118.946 Y102.679
N440 X115.78 Y102.226
N450 X112.799 Y100.995
N460 X110.19 Y99.057
N470 X108.114 Y96.523
N480 X106.701 Y93.54
N490 X106.037 Y90.282
N500 X106.168 Y86.935
N510 X107.092 Y83.69
N520 X108.762 Y80.732
N530 X111.09 Y78.227
N540 X113.954 Y76.315
N550 X117.201 Y75.105
N560 X120.661 Y74.665
N570 X124.153 Y75.023
N580 X127.495 Y76.166
N590 X130.514 Y78.04
N600 X133.055 Y80.555
N610 X134.987 Y83.587
N620 X136.211 Y86.99
N630 X136.663 Y90.599
N640 X136.317 Y94.24 F760
N650 X135.185 Y97.739
N660 X133.315 Y100.929
N670 X130.793 Y103.658
N680 X127.73 Y105.799
N690 X124.266 Y107.249
N700 X120.555 Y107.939
N710 X116.763 Y107.835
N720 X113.058 Y106.936
N730 X109.604 Y105.279
N740 X106.553 Y102.932
N750 X104.04 Y99.993
N760 X102.173 Y96.586
N770 X101.035 Y92.852
N780 X100.678 Y88.948
N790 X101.12 Y85.035
N800 X102.345 Y81.274
N810 X104.309 Y77.82
N820 X106.933 Y74.815
N830 X110.116 Y72.381
N840 X113.732 Y70.618
N850 X117.642 Y69.598
N860 X121.692 Y69.365
N870 X125.725 Y69.93
N880 X129.587 Y71.276
N890 X133.128 Y73.353 F790
N900 X136.212 Y76.086
N910 X138.723 Y79.374
N920 X140.563 Y83.097
N930 X141.663 Y87.117
N940 X141.977 Y91.289
N950 X141.493 Y95.461
N960 X140.225 Y99.48
N970 X138.216 Y103.202
N980 X135.534 Y106.492
N990 X132.273 Y109.233
N1000 X128.545 Y111.325
N1010 X124.48 Y112.693
N1020 X120.217 Y113.287
N1030 X115.903 Y113.084
N1040 X111.686 Y112.088
N1050 X107.71 Y110.33
N1060 X104.11 Y107.868
N1070 X101.008 Y104.782
N1080 X98.51 Y101.172
N1090 X96.7 Y97.157
N1100 X95.641 Y92.868
N1110 X95.369 Y88.445
N1120 X95.896 Y84.031
N1130 X97.207 Y79.769 F820
N1140 X99.262 Y75.797
N1150 X101.999 Y72.242
N1160 X105.331 Y69.219
N1170 X109.156 Y66.825
N1180 X113.356 Y65.137
N1190 X117.799 Y64.209
N1200 X122.349 Y64.073
N1210 X126.866 Y64.735
N1220 X131.211 Y66.177
N1230 X135.251 Y68.357
N1240 X138.863 Y71.211
N1250 X141.937 Y74.656
N1260 X144.378 Y78.589
N1270 X146.113 Y82.894
N1280 X147.088 Y87.445
N1290 X147.271 Y92.109
N1300 X146.657 Y96.747
N1310 X145.26 Y101.226
N1320 X143.118 Y105.414
N1330 X140.293 Y109.189
N1340 X136.863 Y112.443
N1350 X132.924 Y115.081
N1360 X128.588 Y117.025
N1370 X123.977 Y118.22
N1380 X119.218 Y118.63 F850
N1390 X114.446 Y118.241
N1400 X109.794 Y117.063
N1410 X105.39 Y115.125
N1420 X101.357 Y112.48
N1430 X97.807 Y109.198
N1440 X94.838 Y105.368
N1450 X92.532 Y101.093
N1460 X90.953 Y96.487
N1470 X90.146 Y91.674
N1480 X90.134 Y86.782
N1490 X90.918 Y81.943
N1500 X92.481 Y77.284
N1510 X94.782 Y72.929
N1520 X97.763 Y68.994
N1530 X101.347 Y65.583
N1540 X105.442 Y62.787
N1550 X109.942 Y60.678
N1560 X114.732 Y59.314
N1570 X119.689 Y58.731
N1580 X124.687 Y58.946
N1590 X129.597 Y59.955
N1600 X134.295 Y61.734
N1610 X138.662 Y64.24
N1620 X142.586 Y67.41 F880
N1630 X145.968 Y71.168
N1640 X148.723 Y75.42
N1650 X150.78 Y80.061
N1660 X152.087 Y84.978
N1670 X152.61 Y90.048
N1680 X152.336 Y95.149
N1690 X151.268 Y100.155
N1700 X149.431 Y104.943
N1710 X146.868 Y109.398
N1720 X143.641 Y113.41
N1730 X139.825 Y116.882
N1740 X135.51 Y119.73
N1750 X130.8 Y121.884
N1760 X125.805 Y123.291
N1770 X120.643 Y123.918
N1780 X115.436 Y123.746
N1790 X110.306 Y122.78
N1800 X105.375 Y121.04
N1810 X100.757 Y118.565
N1820 X96.561 Y115.411
N1830 X92.884 Y111.651
N1840 X89.813 Y107.37
N1850 X87.419 Y102.665
N1860 X85.759 Y97.644
N1870 X84.871 Y92.421 F910
N1880 X84.779 Y87.114
N1890 X85.484 Y81.844
N1900 X86.972 Y76.73
N1910 X89.213 Y71.887
N1920 X92.155 Y67.424
N1930 X95.736 Y63.442
N1940 X99.876 Y60.03
N1950 X104.484 Y57.265
N1960 X109.459 Y55.21
N1970 X114.693 Y53.911
N1980 X120.071 Y53.398
N1990 X125.474 Y53.683
N2000 X130.786 Y54.762
N2010 X135.891 Y56.612
N2020 X140.677 Y59.195
N2030 X145.041 Y62.456
N2040 X148.888 Y66.326
N2050 X152.135 Y70.723
N2060 X154.711 Y75.554
N2070 X156.56 Y80.717
N2080 X157.643 Y86.103
N2090 X157.933 Y91.597
N2100 X157.425 Y97.085
N2110 X156.127 Y102.45 F940
N2120 X154.066 Y107.58
N2130 X151.283 Y112.367
N2140 X147.835 Y116.712
N2150 X143.793 Y120.523
N2160 X139.24 Y123.72
N2170 X134.267 Y126.236
N2180 X128.979 Y128.019
N2190 X123.481 Y129.031
N2200 X117.887 Y129.25
N2210 X112.309 Y128.671
N2220 X106.863 Y127.303
N2230 X101.657 Y125.173
N2240 X96.798 Y122.324
N2250 X92.384 Y118.811
N2260 X88.504 Y114.704
N2270 X85.236 Y110.084
N2280 X82.648 Y105.043
N2290 X80.79 Y99.68
N2300 X79.702 Y94.101
N2310 X79.406 Y88.417
N2320 X79.908 Y82.739
N2330 X81.201 Y77.179
N2340 X83.26 Y71.845
N2350 X86.046 Y66.843
N2360 X89.505 Y62.271 F970
N2370 X93.572 Y58.218
N2380 X98.165 Y54.758
N2390 X103.197 Y51.955
N2400 X108.575 Y49.865
N2410 X114.198 Y48.529
N2420 X119.962 Y47.976
N2430 X125.758 Y48.218
N2440 X131.476 Y49.254
N2450 X137.009 Y51.067
N2460 X142.251 Y53.625
N2470 X147.102 Y56.883
N2480 X151.468 Y60.782
N2490 X155.266 Y65.248
N2500 X158.421 Y70.201
N2510 X160.872 Y75.547
N2520 X162.571 Y81.185
N2530 X163.483 Y87.011
N2540 X163.589 Y92.913
N2550 X162.885 Y98.78
N2560 X161.383 Y104.5
N2570 X159.11 Y109.963
N2580 X156.107 Y115.065
N2590 X152.431 Y119.709
N2600 X148.356 Y123.632
N2610 X149.07 Y123.03 F1000
N2620 G0 Z-1.25
N2630 G0 X126 Y90
N2640 G1 Z-10 F300
N2650 G3 X120 Y96 I-6 J0 F700
N2660 G3 X114 Y90 I0 J-6
N2670 G3 X120 Y84 I6 J0
N2680 G3 X126 Y90 I0 J6
N2690 G1 X125.603 Y92.36
N2700 X124.455 Y94.46
N2710 X122.683 Y96.069
N2720 X120.482 Y97.009
N2730 X118.094 Y97.176
N2740 X115.784 Y96.553
N2750 X113.804 Y95.208
N2760 X112.539 Y93.593
N2770 X111.544 Y91.203
N2780 X111.317 Y88.584
N2790 X111.891 Y85.98
N2800 X113.226 Y83.628
N2810 X115.213 Y81.741
N2820 X117.69 Y80.487
N2830 X120.454 Y79.981
N2840 X123.283 Y80.272
N2850 X125.952 Y81.348
N2860 X128.25 Y83.133
N2870 X129.997 Y85.498
N2880 X131.057 Y88.275
N2890 X131.346 Y91.263
N2900 X130.834 Y94.251
N2910 X129.551 Y97.03
N2920 X127.577 Y99.406 F730
N2930 X125.038 Y101.215
N2940 X122.099 Y102.332
N2950 X118.946 Y102.679
N2960 X115.78 Y102.226
N2970 X112.799 Y100.995
N2980 X110.19 Y99.057
N2990 X108.114 Y96.523
N3000 X106.701 Y93.54
N3010 X106.037 Y90.282
N3020 X106.168 Y86.935
N3030 X107.092 Y83.69
N3040 X108.762 Y80.732
N3050 X111.09 Y78.227
N3060 X113.954 Y76.315
N3070 X117.201 Y75.105
N3080 X120.661 Y74.665
N3090 X124.153 Y75.023
N3100 X127.495 Y76.166
N3110 X130.514 Y78.04
N3120 X133.055 Y80.555
N3130 X134.987 Y83.587
N3140 X136.211 Y86.99
N3150 X136.663 Y90.599
N3160 X136.317 Y94.24 F760
N3170 X135.185 Y97.739
N3180 X133.315 Y100.929
N3190 X130.793 Y103.658
N3200 X127.73 Y105.799
N3210 X124.266 Y107.249
N3220 X120.555 Y107.939
N3230 X116.763 Y107.835
N3240 X113.058 Y106.936
N3250 X109.604 Y105.279
N3260 X106.553 Y102.932
N3270 X104.04 Y99.993
N3280 X102.173 Y96.586
N3290 X101.035 Y92.852
N3300 X100.678 Y88.948
N3310 X101.12 Y85.035
N3320 X102.345 Y81.274
N3330 X104.309 Y77.82
N3340 X106.933 Y74.815
N3350 X110.116 Y72.381
N3360 X113.732 Y70.618
N3370 X117.642 Y69.598
N3380 X121.692 Y69.365
N3390 X125.725 Y69.93
N3400 X129.587 Y71.276
N3410 X133.128 Y73.353 F790
N3420 X136.212 Y76.086
N3430 X138.723 Y79.374
N3440 X140.563 Y83.097
N3450 X141.663 Y87.117
N3460 X141.977 Y91.289
N3470 X141.493 Y95.461
N3480 X140.225 Y99.48
N3490 X138.216 Y103.202
N3500 X135.534 Y106.492
N3510 X132.273 Y109.233
N3520 X128.545 Y111.325
N3530 X124.48 Y112.693
N3540 X120.217 Y113.287
N3550 X115.903 Y113.084
N3560 X111.686 Y112.088
N3570 X107.71 Y110.33
N3580 X104.11 Y107.868
N3590 X101.008 Y104.782
N3600 X98.51 Y101.172
N3610 X96.7 Y97.157
N3620 X95.641 Y92.868
N3630 X95.369 Y88.445
N3640 X95.896 Y84.031
N3650 X97.207 Y79.769 F820
N3660 X99.262 Y75.797
N3670 X101.999 Y72.242
N3680 X105.331 Y69.219
N3690 X109.156 Y66.825
N3700 X113.356 Y65.137
N3710 X117.799 Y64.209
N3720 X122.349 Y64.073
N3730 X126.866 Y64.735
N3740 X131.211 Y66.177
N3750 X135.251 Y68.357
N3760 X138.863 Y71.211
N3770 X141.937 Y74.656
N3780 X144.378 Y78.589
N3790 X146.113 Y82.894
N3800 X147.088 Y87.445
N3810 X147.271 Y92.109
N3820 X146.657 Y96.747
N3830 X145.26 Y101.226
N3840 X143.118 Y105.414
N3850 X140.293 Y109.189
N3860 X136.863 Y112.443
N3870 X132.924 Y115.081
N3880 X128.588 Y117.025
N3890 X123.977 Y118.22
N3900 X119.218 Y118.63 F850
N3910 X114.446 Y118.241
N3920 X109.794 Y117.063
N3930 X105.39 Y115.125
N3940 X101.357 Y112.48
N3950 X97.807 Y109.198
N3960 X94.838 Y105.368
N3970 X92.532 Y101.093
N3980 X90.953 Y96.487
N3990 X90.146 Y91.674
N4000 X90.134 Y86.782
N4010 X90.918 Y81.943
N4020 X92.481 Y77.284
N4030 X94.782 Y72.929
N4040 X97.763 Y68.994
N4050 X101.347 Y65.583
N4060 X105.442 Y62.787
N4070 X109.942 Y60.678
N4080 X114.732 Y59.314
N4090 X119.689 Y58.731
N4100 X124.687 Y58.946
N4110 X129.597 Y59.955
N4120 X134.295 Y61.734
N4130 X138.662 Y64.24
N4140 X142.586 Y67.41 F880
N4150 X145.968 Y71.168
N4160 X148.723 Y75.42
N4170 X150.78 Y80.061
N4180 X152.087 Y84.978
N4190 X152.61 Y90.048
N4200 X152.336 Y95.149
N4210 X151.268 Y100.155
N4220 X149.431 Y104.943
N4230 X146.868 Y109.398
N4240 X143.641 Y113.41
N4250 X139.825 Y116.882
N4260 X135.51 Y119.73
N4270 X130.8 Y121.884
N4280 X125.805 Y123.291
N4290 X120.643 Y123.918
N4300 X115.436 Y123.746
N4310 X110.306 Y122.78
N4320 X105.375 Y121.04
N4330 X100.757 Y118.565
N4340 X96.561 Y115.411
N4350 X92.884 Y111.651
N4360 X89.813 Y107.37
N4370 X87.419 Y102.665
N4380 X85.759 Y97.644
N4390 X84.871 Y92.421 F910
N4400 X84.779 Y87.114
N4410 X85.484 Y81.844
N4420 X86.972 Y76.73
N4430 X89.213 Y71.887
N4440 X92.155 Y67.424
N4450 X95.736 Y63.442
N4460 X99.876 Y60.03
N4470 X104.484 Y57.265
N4480 X109.459 Y55.21
N4490 X114.693 Y53.911
N4500 X120.071 Y53.398
N4510 X125.474 Y53.683
N4520 X130.786 Y54.762
N4530 X135.891 Y56.612
N4540 X140.677 Y59.195
N4550 X145.041 Y62.456
N4560 X148.888 Y66.326
N4570 X152.135 Y70.723
N4580 X154.711 Y75.554
N4590 X156.56 Y80.717
N4600 X157.643 Y86.103
N4610 X157.933 Y91.597
N4620 X157.425 Y97.085
N4630 X156.127 Y102.45 F940
N4640 X154.066 Y107.58
N4650 X151.283 Y112.367
N4660 X147.835 Y116.712
N4670 X143.793 Y120.523
N4680 X139.24 Y123.72
N4690 X134.267 Y126.236
N4700 X128.979 Y128.019
N4710 X123.481 Y129.031
N4720 X117.887 Y129.25
N4730 X112.309 Y128.671
N4740 X106.863 Y127.303
N4750 X101.657 Y125.173
N4760 X96.798 Y122.324
N4770 X92.384 Y118.811
N4780 X88.504 Y114.704
N4790 X85.236 Y110.084
N4800 X82.648 Y105.043
N4810 X80.79 Y99.68
N4820 X79.702 Y94.101
N4830 X79.406 Y88.417
N4840 X79.908 Y82.739
N4850 X81.201 Y77.179
N4860 X83.26 Y71.845
N4870 X86.046 Y66.843
N4880 X89.505 Y62.271 F970
N4890 X93.572 Y58.218
N4900 X98.165 Y54.758
N4910 X103.197 Y51.955
N4920 X108.575 Y49.865
N4930 X114.198 Y48.529
N4940 X119.962 Y47.976
N4950 X125.758 Y48.218
N4960 X131.476 Y49.254
N4970 X137.009 Y51.067
N4980 X142.251 Y53.625
N4990 X147.102 Y56.883
N5000 X151.468 Y60.782
N5010 X155.266 Y65.248
N5020 X158.421 Y70.201
N5030 X160.872 Y75.547
N5040 X162.571 Y81.185
N5050 X163.483 Y87.011
N5060 X163.589 Y92.913
N5070 X162.885 Y98.78
N5080 X161.383 Y104.5
N5090 X159.11 Y109.963
N5100 X156.107 Y115.065
N5110 X152.431 Y119.709
N5120 X148.356 Y123.632
N5130 X149.07 Y123.03 F1000
N5140 Z0 F1
N5150 ;=============== TOOL CHANGE =================
N5160 ; DESC : T2 Face Mill D 50
N5170 ;=============================================
N5180 T2 M06
N5190 D2
N5200 G0 G90 G40 G17
N5210 G94 F1000 S70 M3
N5220 G64 SOFT
N5230 G1 X105 Y193 Z2 F300
N5240 Z-8
N5250 X120 F1000
N5260 X200
N5270 G2 X233 Y160 I0 J-33
N5280 G1 Y20
N5290 G2 X200 Y-13 I-33 J0
N5300 G1 X40
N5310 G2 X7 Y20 I0 J33
N5320 G1 Y160
N5330 G2 X40 Y193 I33 J0
N5340 G1 X120
N5350 X135
N5360 G0 Z-2
N5370 G0 X105 Y187
N5380 G0 Z-8
N5390 G1 X120
N5400 X200
N5410 G2 X227 Y160 I0 J-27
N5420 G1 Y20
N5430 G2 X200 Y-7 I-27 J0
N5440 G1 X40
N5450 G2 X13 Y20 I0 J27
N5460 G1 Y160
N5470 G2 X40 Y187 I27 J0
N5480 G1 X120
N5490 X135
N5500 G0 Z-2
N5510 G0 X105 Y181
N5520 G0 Z-8
N5530 G1 X120
N5540 X200
N5550 G2 X221 Y160 I0 J-21
N5560 G1 Y20
N5570 G2 X200 Y-1 I-21 J0
N5580 G1 X40
N5590 G2 X19 Y20 I0 J21
N5600 G1 Y160
N5610 G2 X40 Y181 I21 J0
N5620 G1 X120
N5630 X135
N5640 G0 Z-2
N5650 G0 X105 Y175
N5660 G0 Z-8
N5670 G1 X120
N5680 X200
N5690 G2 X215 Y160 I0 J-15
N5700 G1 Y20
N5710 G2 X200 Y5 I-15 J0
N5720 G1 X40
N5730 G2 X25 Y20 I0 J15
N5740 G1 Y160
N5750 G2 X40 Y175 I15 J0
N5760 G1 X120
N5770 X135
N5780 G0 Z-0.5
N5790 G0 X105 Y193
N5800 G1 Z-13 F300
N5810 X120 F1000
N5820 X200
N5830 G2 X233 Y160 I0 J-33
N5840 G1 Y20
N5850 G2 X200 Y-13 I-33 J0
N5860 G1 X40
N5870 G2 X7 Y20 I0 J33
N5880 G1 Y160
N5890 G2 X40 Y193 I33 J0
N5900 G1 X120
N5910 X135
N5920 G0 Z-2
N5930 G0 X105 Y187
N5940 G0 Z-13
N5950 G1 X120
N5960 X200
N5970 G2 X227 Y160 I0 J-27
N5980 G1 Y20
N5990 G2 X200 Y-7 I-27 J0
N6000 G1 X40
N6010 G2 X13 Y20 I0 J27
N6020 G1 Y160
N6030 G2 X40 Y187 I27 J0
N6040 G1 X120
N6050 X135
N6060 G0 Z-2
N6070 G0 X105 Y181
N6080 G0 Z-13
N6090 G1 X120
N6100 X200
N6110 G2 X221 Y160 I0 J-21
N6120 G1 Y20
N6130 G2 X200 Y-1 I-21 J0
N6140 G1 X40
N6150 G2 X19 Y20 I0 J21
N6160 G1 Y160
N6170 G2 X40 Y181 I21 J0
N6180 G1 X120
N6190 X135
N6200 G0 Z-2
N6210 G0 X105 Y175
N6220 G0 Z-13
N6230 G1 X120
N6240 X200
N6250 G2 X215 Y160 I0 J-15
N6260 G1 Y20
N6270 G2 X200 Y5 I-15 J0
N6280 G1 X40
N6290 G2 X25 Y20 I0 J15
N6300 G1 Y160
N6310 G2 X40 Y175 I15 J0
N6320 G1 X120
N6330 X135
N6340 G0 Z-5.5
N6350 G0 X105 Y193
N6360 G1 Z-18 F300
N6370 X120 F1000
N6380 X200
N6390 G2 X233 Y160 I0 J-33
N6400 G1 Y20
N6410 G2 X200 Y-13 I-33 J0
N6420 G1 X40
N6430 G2 X7 Y20 I0 J33
N6440 G1 Y160
N6450 G2 X40 Y193 I33 J0
N6460 G1 X120
N6470 X135
N6480 G0 Z-2
N6490 G0 X105 Y187
N6500 G0 Z-18
N6510 G1 X120
N6520 X200
N6530 G2 X227 Y160 I0 J-27
N6540 G1 Y20
N6550 G2 X200 Y-7 I-27 J0
N6560 G1 X40
N6570 G2 X13 Y20 I0 J27
N6580 G1 Y160
N6590 G2 X40 Y187 I27 J0
N6600 G1 X120
N6610 X135
N6620 G0 Z-2
N6630 G0 X105 Y181
N6640 G0 Z-18
N6650 G1 X120
N6660 X200
N6670 G2 X221 Y160 I0 J-21
N6680 G1 Y20
N6690 G2 X200 Y-1 I-21 J0
N6700 G1 X40
N6710 G2 X19 Y20 I0 J21
N6720 G1 Y160
N6730 G2 X40 Y181 I21 J0
N6740 G1 X120
N6750 X135
N6760 G0 Z-2
N6770 G0 X105 Y175
N6780 G0 Z-18
N6790 G1 X120
N6800 X200
N6810 G2 X215 Y160 I0 J-15
N6820 G1 Y20
N6830 G2 X200 Y5 I-15 J0
N6840 G1 X40
N6850 G2 X25 Y20 I0 J15
N6860 G1 Y160
N6870 G2 X40 Y175 I15 J0
N6880 G1 X120
N6890 X135
N6900 G0 Z-10.5
N6910 G0 X105 Y193
N6920 G1 Z-23 F300
N6930 X120 F1000
N6940 X200
N6950 G2 X233 Y160 I0 J-33
N6960 G1 Y20
N6970 G2 X200 Y-13 I-33 J0
N6980 G1 X40
N6990 G2 X7 Y20 I0 J33
N7000 G1 Y160
N7010 G2 X40 Y193 I33 J0
N7020 G1 X120
N7030 X135
N7040 G0 Z-2
N7050 G0 X105 Y187
N7060 G0 Z-23
N7070 G1 X120
N7080 X200
N7090 G2 X227 Y160 I0 J-27
N7100 G1 Y20
N7110 G2 X200 Y-7 I-27 J0
N7120 G1 X40
N7130 G2 X13 Y20 I0 J27
N7140 G1 Y160
N7150 G2 X40 Y187 I27 J0
N7160 G1 X120
N7170 X135
N7180 G0 Z-2
N7190 G0 X105 Y181
N7200 G0 Z-23
N7210 G1 X120
N7220 X200
N7230 G2 X221 Y160 I0 J-21
N7240 G1 Y20
N7250 G2 X200 Y-1 I-21 J0
N7260 G1 X40
N7270 G2 X19 Y20 I0 J21
N7280 G1 Y160
N7290 G2 X40 Y181 I21 J0
N7300 G1 X120
N7310 X135
N7320 G0 Z-2
N7330 G0 X105 Y175
N7340 G0 Z-23
N7350 G1 X120
N7360 X200
N7370 G2 X215 Y160 I0 J-15
N7380 G1 Y20
N7390 G2 X200 Y5 I-15 J0
N7400 G1 X40
N7410 G2 X25 Y20 I0 J15
N7420 G1 Y160
N7430 G2 X40 Y175 I15 J0
N7440 G1 X120
N7450 X135
N7460 G0 Z-15.5
N7470 G0 X105 Y193
N7480 G1 Z-28 F300
N7490 X120 F1000
N7500 X200
N7510 G2 X233 Y160 I0 J-33
N7520 G1 Y20
N7530 G2 X200 Y-13 I-33 J0
N7540 G1 X40
N7550 G2 X7 Y20 I0 J33
N7560 G1 Y160
N7570 G2 X40 Y193 I33 J0
N7580 G1 X120
N7590 X135
N7600 G0 Z-2
N7610 G0 X105 Y187
N7620 G0 Z-28
N7630 G1 X120
N7640 X200
N7650 G2 X227 Y160 I0 J-27
N7660 G1 Y20
N7670 G2 X200 Y-7 I-27 J0
N7680 G1 X40
N7690 G2 X13 Y20 I0 J27
N7700 G1 Y160
N7710 G2 X40 Y187 I27 J0
N7720 G1 X120
N7730 X135
N7740 G0 Z-2
N7750 G0 X105 Y181
N7760 G0 Z-28
N7770 G1 X120
N7780 X200
N7790 G2 X221 Y160 I0 J-21
N7800 G1 Y20
N7810 G2 X200 Y-1 I-21 J0
N7820 G1 X40
N7830 G2 X19 Y20 I0 J21
N7840 G1 Y160
N7850 G2 X40 Y181 I21 J0
N7860 G1 X120
N7870 X135
N7880 G0 Z-2
N7890 G0 X105 Y175
N7900 G0 Z-28
N7910 G1 X120
N7920 X200
N7930 G2 X215 Y160 I0 J-15
N7940 G1 Y20
N7950 G2 X200 Y5 I-15 J0
N7960 G1 X40
N7970 G2 X25 Y20 I0 J15
N7980 G1 Y160
N7990 G2 X40 Y175 I15 J0
N8000 G1 X120
N8010 X135
N8020 Z-18 F1
N8030 ;=============== TOOL CHANGE =================
N8040 ; DESC : T1 Face Mill D 40
N8050 ;=============================================
N8060 T1 M06
N8070 D1
N8080 G0 G90 G40 G17
N8090 G94 F1000 S70 M3
N8100 G64 SOFT
N8110 G0 X119.378 Y180 Z-8
N8120 G0 Z-18
N8130 G1 Z-28 F300
N8140 X240 F1000
N8150 Y0
N8160 X0
N8170 Y180
N8180 X119.378
N8190 Y177.5
N8200 Y175
N8210 X220
N8220 G2 X235 Y160 I0 J-15
N8230 G1 Y20
N8240 G2 X220 Y5 I-15 J0
N8250 G1 X20
N8260 G2 X5 Y20 I0 J15
N8270 G1 Y160
N8280 G2 X20 Y175 I15 J0
N8290 G1 X119.378
N8300 Y172.5
N8310 Y170
N8320 X215
N8330 G2 X230 Y155 I0 J-15
N8340 G1 Y25
N8350 G2 X215 Y10 I-15 J0
N8360 G1 X25
N8370 G2 X10 Y25 I0 J15
N8380 G1 Y155
N8390 G2 X25 Y170 I15 J0
N8400 G1 X119.378
N8410 Y167.5
N8420 Y165
N8430 X210
N8440 G2 X225 Y150 I0 J-15
N8450 G1 Y30
N8460 G2 X210 Y15 I-15 J0
N8470 G1 X30
N8480 G2 X15 Y30 I0 J15
N8490 G1 Y150
N8500 G2 X30 Y165 I15 J0
N8510 G1 X119.378
N8520 Y162.5
N8530 Y160
N8540 X205
N8550 G2 X220 Y145 I0 J-15
N8560 G1 Y35
N8570 G2 X205 Y20 I-15 J0
N8580 G1 X35
N8590 G2 X20 Y35 I0 J15
N8600 G1 Y145
N8610 G2 X35 Y160 I15 J0
N8620 G1 X119.378
N8630 Y157.5
N8640 Y155
N8650 X200
N8660 G2 X215 Y140 I0 J-15
N8670 G1 Y40
N8680 G2 X200 Y25 I-15 J0
N8690 G1 X40
N8700 G2 X25 Y40 I0 J15
N8710 G1 Y140
N8720 G2 X40 Y155 I15 J0
N8730 G1 X119.378
N8740 Y152.5
N8750 Y150
N8760 X195
N8770 G2 X210 Y135 I0 J-15
N8780 G1 Y45
N8790 G2 X195 Y30 I-15 J0
N8800 G1 X45
N8810 G2 X30 Y45 I0 J15
N8820 G1 Y135
N8830 G2 X45 Y150 I15 J0
N8840 G1 X119.378
N8850 Y147.5
N8860 Y145
N8870 X190
N8880 G2 X205 Y130 I0 J-15
N8890 G1 Y50
N8900 G2 X190 Y35 I-15 J0
N8910 G1 X50
N8920 G2 X35 Y50 I0 J15
N8930 G1 Y130
N8940 G2 X50 Y145 I15 J0
N8950 G1 X119.378
N8960 Y142.5
N8970 Y140
N8980 X185
N8990 G2 X200 Y125 I0 J-15
N9000 G1 Y55
N9010 G2 X185 Y40 I-15 J0
N9020 G1 X55
N9030 G2 X40 Y55 I0 J15
N9040 G1 Y125
N9050 G2 X55 Y140 I15 J0
N9060 G1 X119.378
N9070 Y137.5
N9080 Y135
N9090 X180
N9100 G2 X195 Y120 I0 J-15
N9110 G1 Y60
N9120 G2 X180 Y45 I-15 J0
N9130 G1 X60
N9140 G2 X45 Y60 I0 J15
N9150 G1 Y120
N9160 G2 X60 Y135 I15 J0
N9170 G1 X119.378
N9180 Y132.5
N9190 Y130
N9200 X175
N9210 G2 X190 Y115 I0 J-15
N9220 G1 Y65
N9230 G2 X175 Y50 I-15 J0
N9240 G1 X65
N9250 G2 X50 Y65 I0 J15
N9260 G1 Y115
N9270 G2 X65 Y130 I15 J0
N9280 G1 X119.378
N9290 Y127.5
N9300 Y125
N9310 X170
N9320 G2 X185 Y110 I0 J-15
N9330 G1 Y70
N9340 G2 X170 Y55 I-15 J0
N9350 G1 X70
N9360 G2 X55 Y70 I0 J15
N9370 G1 Y110
N9380 G2 X70 Y125 I15 J0
N9390 G1 X119.378
N9400 Y122.5
N9410 Y120
N9420 X165
N9430 G2 X180 Y105 I0 J-15
N9440 G1 Y75
N9450 G2 X165 Y60 I-15 J0
N9460 G1 X75
N9470 G2 X60 Y75 I0 J15
N9480 G1 Y105
N9490 G2 X75 Y120 I15 J0
N9500 G1 X119.378
N9510 Y117.5
N9520 Y115
N9530 X160
N9540 G2 X175 Y100 I0 J-15
N9550 G1 Y80
N9560 G2 X160 Y65 I-15 J0
N9570 G1 X80
N9580 G2 X65 Y80 I0 J15
N9590 G1 Y100
N9600 G2 X80 Y115 I15 J0
N9610 G1 X119.378
N9620 Y112.5
N9630 Y110
N9640 X155
N9650 G2 X170 Y95 I0 J-15
N9660 G1 Y85
N9670 G2 X155 Y70 I-15 J0
N9680 G1 X85
N9690 G2 X70 Y85 I0 J15
N9700 G1 Y95
N9710 G2 X85 Y110 I15 J0
N9720 G1 X119.378
N9730 Y107.5
N9740 Y105
N9750 X155
N9760 G2 X165 Y95 I0 J-10
N9770 G1 Y85
N9780 G2 X155 Y75 I-10 J0
N9790 G1 X85
N9800 G2 X75 Y85 I0 J10
N9810 G1 Y95
N9820 G2 X85 Y105 I10 J0
N9830 G1 X119.378
N9840 Y102.5
N9850 Y100
N9860 X152.5
N9870 G2 X160 Y92.5 I0 J-7.5
N9880 G1 Y87.5
N9890 G2 X152.5 Y80 I-7.5 J0
N9900 G1 X87.5
N9910 G2 X80 Y87.5 I0 J7.5
N9920 G1 Y92.5
N9930 G2 X87.5 Y100 I7.5 J0
N9940 G1 X119.378
N9950 Y97.5
N9960 Y95
N9970 X151.25
N9980 G2 X155 Y91.25 I0 J-3.75
N9990 G1 Y88.75
N10000 G2 X151.25 Y85 I-3.75 J0
N10010 G1 X88.75
N10020 G2 X85 Y88.75 I0 J3.75
N10030 G1 Y91.25
N10040 G2 X88.75 Y95 I3.75 J0
N10050 G1 X119.378
N10060 Z-18 F1
N10070 G0 Z-8
N10080 M5 M9
N10090 M30
