;======================================================
;===   cPost Standard PP for SINUMERIK 840 D        ===
;======================================================
G54
TRANS Y-79.8 Z38
N10 G90 G40 
N20 G17
N30 ;=============== TOOL CHANGE =================
N40 ; DESC : T1 Face Mill D 40
N50 ;=============================================
N60 T1 M06
N70 D1
N80 G90 G40 G17
N90 G94 F200 S1000 M3
N100 G64 SOFT
N110 G1 X-20 Y78.9 Z9 F200 G94
N120 Z-1
N130 X105.5
N140 Y74.259
N150 X-20
N160 Y69.618
N170 X105.5
N180 Y64.976
N190 X-20
N200 Y60.335
N210 X105.5
N220 Y55.694
N230 X-20
N240 Y51.053
N250 X105.5
N260 Y46.412
N270 X-20
N280 Y41.771
N290 X105.5
N300 Y37.129
N310 X-20
N320 Y32.488
N330 X105.5
N340 Y27.847
N350 X-20
N360 Y23.206
N370 X105.5
N380 Y18.565
N390 X-20
N400 Y13.924
N410 X105.5
N420 Y9.282
N430 X-20
N440 Y4.641
N450 X105.5
N460 Y0
N470 X-20 Z30
M0
N480 ;=============== TOOL CHANGE =================
N490 ; DESC : T4 End Mill D 3
N500 ;=============================================
N510 T4 M06
N520 D1
N530 G90 G40 G17
N540 G94 F200 S1000 M3
N550 G64 SOFT
N560 G1 X93.5 Y41 Z1
N570 Z-2
N580 Y39.5
N590 Y14.5
N600 G2 X68 Y-11 I-25.5 J0
N610 G1 X18
N620 G2 X-7.5 Y14.5 I0 J25.5
N630 G1 Y64.5
N640 G2 X18 Y90 I25.5 J0
N650 G1 X68
N660 G2 X93.5 Y64.5 I0 J-25.5
N670 G1 Y39.5
N680 Y38
N690 X91.5
N700 Y39.5
N710 Y64.5
N720 G3 X68 Y88 I-23.5 J0
N730 G1 X18
N740 G3 X-5.5 Y64.5 I0 J-23.5
N750 G1 Y14.5
N760 G3 X18 Y-9 I23.5 J0
N770 G1 X68
N780 G3 X91.5 Y14.5 I0 J23.5
N790 G1 Y39.5
N800 Y41
N810 X89.5
N820 Y39.5
N830 Y14.5
N840 G2 X68 Y-7 I-21.5 J0
N850 G1 X18
N860 G2 X-3.5 Y14.5 I0 J21.5
N870 G1 Y64.5
N880 G2 X18 Y86 I21.5 J0
N890 G1 X68
N900 G2 X89.5 Y64.5 I0 J-21.5
N910 G1 Y39.5
N920 Y38
N930 X87.5
N940 Y39.5
N950 Y64.5
N960 G3 X68 Y84 I-19.5 J0
N970 G1 X18
N980 G3 X-1.5 Y64.5 I0 J-19.5
N990 G1 Y14.5
N1000 G3 X18 Y-5 I19.5 J0
N1010 G1 X68
N1020 G3 X87.5 Y14.5 I0 J19.5
N1030 G1 Y39.5
N1040 Y41
N1050 X85.5
N1060 Y39.5
N1070 Y14.5
N1080 G2 X68 Y-3 I-17.5 J0
N1090 G1 X18
N1100 G2 X0.5 Y14.5 I0 J17.5
N1110 G1 Y64.5
N1120 G2 X18 Y82 I17.5 J0
N1130 G1 X68
N1140 G2 X85.5 Y64.5 I0 J-17.5
N1150 G1 Y39.5
N1160 Y38
N1170 X83.5
N1180 Y39.5
N1190 Y64.5
N1200 G3 X68 Y80 I-15.5 J0
N1210 G1 X18
N1220 G3 X2.5 Y64.5 I0 J-15.5
N1230 G1 Y14.5
N1240 G3 X18 Y-1 I15.5 J0
N1250 G1 X68
N1260 G3 X83.5 Y14.5 I0 J15.5
N1270 G1 Y39.5
N1280 Y41
N1290 X81.5
N1300 Y39.5
N1310 Y14.5
N1320 G2 X68 Y1 I-13.5 J0
N1330 G1 X18
N1340 G2 X4.5 Y14.5 I0 J13.5
N1350 G1 Y64.5
N1360 G2 X18 Y78 I13.5 J0
N1370 G1 X68
N1380 G2 X81.5 Y64.5 I0 J-13.5
N1390 G1 Y39.5
N1400 Y38
N1410 X79.5
N1420 Y39.5
N1430 Y64.5
N1440 G3 X68 Y76 I-11.5 J0
N1450 G1 X18
N1460 G3 X6.5 Y64.5 I0 J-11.5
N1470 G1 Y14.5
N1480 G3 X18 Y3 I11.5 J0
N1490 G1 X68
N1500 G3 X79.5 Y14.5 I0 J11.5
N1510 G1 Y39.5
N1520 Y41
N1530 X77.5
N1540 Y39.5
N1550 Y14.5
N1560 G2 X68 Y5 I-9.5 J0
N1570 G1 X18
N1580 G2 X8.5 Y14.5 I0 J9.5
N1590 G1 Y64.5
N1600 G2 X18 Y74 I9.5 J0
N1610 G1 X68
N1620 G2 X77.5 Y64.5 I0 J-9.5
N1630 G1 Y39.5
N1640 Y38
N1650 X75.5
N1660 Y39.5
N1670 Y64.5
N1680 G3 X68 Y72 I-7.5 J0
N1690 G1 X18
N1700 G3 X10.5 Y64.5 I0 J-7.5
N1710 G1 Y14.5
N1720 G3 X18 Y7 I7.5 J0
N1730 G1 X68
N1740 G3 X75.5 Y14.5 I0 J7.5
N1750 G1 Y39.5
N1760 Y41
N1770 X73.5
N1780 Y39.5
N1790 Y14.5
N1800 G2 X68 Y9 I-5.5 J0
N1810 G1 X18
N1820 G2 X12.5 Y14.5 I0 J5.5
N1830 G1 Y64.5
N1840 G2 X18 Y70 I5.5 J0
N1850 G1 X68
N1860 G2 X73.5 Y64.5 I0 J-5.5
N1870 G1 Y39.5
N1880 Y38
N1890 X71.5
N1900 Y39.5
N1910 Y64.5
N1920 G3 X68 Y68 I-3.5 J0
N1930 G1 X18
N1940 G3 X14.5 Y64.5 I0 J-3.5
N1950 G1 Y14.5
N1960 G3 X18 Y11 I3.5 J0
N1970 G1 X68
N1980 G3 X71.5 Y14.5 I0 J3.5
N1990 G1 Y39.5
N2000 Y41
N2010 X69.5
N2020 Y39.5
N2030 Y14.5
N2040 G2 X68 Y13 I-1.5 J0
N2050 G1 X18
N2060 G2 X16.5 Y14.5 I0 J1.5
N2070 G1 Y64.5
N2080 G2 X18 Y66 I1.5 J0
N2090 G1 X68
N2100 G2 X69.5 Y64.5 I0 J-1.5
N2110 G1 Y39.5
N2120 Y38
N2130 Z1
N2140 X42.561 Y40.882 Z8
N2150 Z-2
N2160 G3 X41.75 Y39.9 I0.189 J-0.982
N2170 G3 X42.75 Y38.9 I1 J0
N2180 G3 X43.75 Y39.9 I0 J1
N2190 G3 X42.75 Y40.9 I-1 J0
N2200 G3 X42.561 Y40.882 I0 J-1
N2210 G1 X42.372 Y41.864
N2220 X42.182 Y42.846
N2230 G3 X39.75 Y39.9 I0.568 J-2.946
N2240 G3 X42.75 Y36.9 I3 J0
N2250 G3 X45.75 Y39.9 I0 J3
N2260 G3 X42.75 Y42.9 I-3 J0
N2270 G3 X42.182 Y42.846 I0 J-3
N2280 G1 X41.993 Y43.828
N2290 X41.804 Y44.81
N2300 G3 X37.75 Y39.9 I0.946 J-4.91
N2310 G3 X42.75 Y34.9 I5 J0
N2320 G3 X47.75 Y39.9 I0 J5
N2330 G3 X42.75 Y44.9 I-5 J0
N2340 G3 X41.804 Y44.81 I0 J-5
N2350 G1 X41.614 Y45.792
N2360 X41.425 Y46.774
N2370 G3 X35.75 Y39.9 I1.325 J-6.874
N2380 G3 X42.75 Y32.9 I7 J0
N2390 G3 X49.75 Y39.9 I0 J7
N2400 G3 X42.75 Y46.9 I-7 J0
N2410 G3 X41.425 Y46.774 I0 J-7
N2420 G1 X41.236 Y47.755
N2430 X41.047 Y48.737
N2440 G3 X33.75 Y39.9 I1.703 J-8.837
N2450 G3 X42.75 Y30.9 I9 J0
N2460 G3 X51.75 Y39.9 I0 J9
N2470 G3 X42.75 Y48.9 I-9 J0
N2480 G3 X41.047 Y48.737 I0 J-9
N2490 G1 X40.857 Y49.719
N2500 X40.668 Y50.701
N2510 G3 X31.75 Y39.9 I2.082 J-10.801
N2520 G3 X42.75 Y28.9 I11 J0
N2530 G3 X53.75 Y39.9 I0 J11
N2540 G3 X42.75 Y50.9 I-11 J0
N2550 G3 X40.668 Y50.701 I0 J-11
N2560 G1 X40.479 Y51.683
N2570 X40.29 Y52.665
N2580 G3 X29.75 Y39.9 I2.46 J-12.765
N2590 G3 X42.75 Y26.9 I13 J0
N2600 G3 X55.75 Y39.9 I0 J13
N2610 G3 X42.75 Y52.9 I-13 J0
N2620 G3 X40.29 Y52.665 I0 J-13
N2630 G1 X40.1 Y53.647
N2640 X39.911 Y54.629
N2650 G3 X27.75 Y39.9 I2.839 J-14.729
N2660 G3 X42.75 Y24.9 I15 J0
N2670 G3 X57.75 Y39.9 I0 J15
N2680 G3 X42.75 Y54.9 I-15 J0
N2690 G3 X39.911 Y54.629 I0 J-15
N2700 G1 X39.722 Y55.611
N2710 X39.533 Y56.593
N2720 G3 X25.75 Y39.9 I3.217 J-16.693
N2730 G3 X42.75 Y22.9 I17 J0
N2740 G3 X59.75 Y39.9 I0 J17
N2750 G3 X42.75 Y56.9 I-17 J0
N2760 G3 X39.533 Y56.593 I0 J-17
N2770 G1 X39.343 Y57.575
N2780 X39.154 Y58.557
N2790 G3 X23.75 Y39.9 I3.596 J-18.657
N2800 G3 X42.75 Y20.9 I19 J0
N2810 G3 X61.75 Y39.9 I0 J19
N2820 G3 X42.75 Y58.9 I-19 J0
N2830 G3 X39.154 Y58.557 I0 J-19
N2840 G1 X38.965 Y59.539
N2850 X38.776 Y60.521
N2860 G3 X21.75 Y39.9 I3.974 J-20.621
N2870 G3 X42.75 Y18.9 I21 J0
N2880 G3 X63.75 Y39.9 I0 J21
N2890 G3 X42.75 Y60.9 I-21 J0
N2900 G3 X38.776 Y60.521 I0 J-21
N2910 G1 Z8
N2920 X42.424 Y42.892 Z7
N2930 Z-3
N2940 X42.398 Y42.318
N2950 X42.303 Y41.524
N2960 X41.941 Y39.654
N2970 X41.648 Y38.657
N2980 X41.333 Y37.872
N2990 X43.145 Y38.736
N3000 X43.574 Y38.918
N3010 X46.12 Y39.877
N3020 X45.895 Y40.077
N3030 X45.232 Y40.517
N3040 X43.472 Y41.876
N3050 X42.825 Y42.464
N3060 X42.424 Y42.892
N3070 X43.153 Y43.576
N3080 X43.882 Y44.261
N3090 X42.863 Y45.346
N3100 X42.472 Y45.847
N3110 X41.343 Y47.601
N3120 X41.04 Y48.187
N3130 X40.249 Y50.152
N3140 X39.952 Y52.372
N3150 X40.186 Y50.144
N3160 X40.502 Y45.014
N3170 X40.503 Y44.67
N3180 X40.4 Y42.41
N3190 X40.34 Y41.904
N3200 X39.977 Y40.034
N3210 X39.791 Y39.4
N3220 X39.154 Y37.808
N3230 X38.788 Y37.124
N3240 X37.835 Y35.74
N3250 X37.293 Y35.122
N3260 X35.951 Y33.914
N3270 X35.332 Y33.468
N3280 X33.956 Y32.691
N3290 X32.692 Y32.342
N3300 X33.972 Y32.63
N3310 X35.437 Y33.044
N3320 X38.082 Y34.105
N3330 X44.006 Y36.93
N3340 X44.279 Y37.047
N3350 X46.825 Y38.005
N3360 X47.23 Y38.131
N3370 X49.561 Y38.698
N3380 X50.084 Y38.784
N3390 X51.918 Y38.945
N3400 X52.535 Y38.8
N3410 X51.935 Y39.011
N3420 X46.877 Y41.82
N3430 X46.455 Y42.1
N3440 X44.695 Y43.459
N3450 X44.284 Y43.833
N3460 X43.882 Y44.261
N3470 X44.611 Y44.945
N3480 X45.34 Y45.629
N3490 X44.321 Y46.715
N3500 X44.154 Y46.93
N3510 X43.025 Y48.683
N3520 X42.895 Y48.934
N3530 X42.054 Y51.023
N3540 X41.976 Y51.28
N3550 X41.456 Y53.805
N3560 X41.427 Y54.035
N3570 X41.286 Y56.909
N3580 X41.339 Y57.803
N3590 X40.804 Y57.557
N3600 X39.785 Y56.781
N3610 X39.073 Y55.874
N3620 X38.568 Y54.712
N3630 X38.26 Y53.102
N3640 X38.205 Y50.615
N3650 X38.505 Y44.909
N3660 X38.402 Y42.501
N3670 X38.376 Y42.285
N3680 X38.014 Y40.415
N3690 X37.934 Y40.143
N3700 X37.297 Y38.551
N3710 X37.14 Y38.258
N3720 X36.188 Y36.873
N3730 X35.955 Y36.609
N3740 X34.613 Y35.401
N3750 X34.348 Y35.21
N3760 X32.616 Y34.231
N3770 X32.364 Y34.118
N3780 X30.104 Y33.343
N3790 X29.886 Y33.286
N3800 X26.959 Y32.753
N3810 X26.596 Y32.72
N3820 X27.165 Y32.257
N3830 X28.842 Y31.293
N3840 X30.506 Y30.715
N3850 X32.16 Y30.496
N3860 X33.956 Y30.616
N3870 X36.053 Y31.136
N3880 X38.886 Y32.273
N3890 X44.867 Y35.125
N3900 X47.53 Y36.134
N3910 X50.035 Y36.755
N3920 X50.258 Y36.792
N3930 X52.501 Y36.989
N3940 X52.756
N3950 X54.993 Y36.803
N3960 X55.254 Y36.758
N3970 X57.554 Y36.147
N3980 X57.795 Y36.061
N3990 X59.043 Y35.487
N4000 X58.295 Y36.662
N4010 X56.958 Y38.089
N4020 X55.191 Y39.431
N4030 X47.858 Y43.562
N4040 X47.678 Y43.682
N4050 X45.918 Y45.042
N4060 X45.742 Y45.202
N4070 X45.34 Y45.629
N4080 Z30
M0
N4090 ;=============== TOOL CHANGE =================
N4100 ; DESC : T5 Drill D 8
N4110 ;=============================================
N4120 T5 M06
N4130 D1
N4140 G90 G40 G17
N4150 G94 F200 S1000 M3
N4160 G64 SOFT
N4170 G0 X42.75 Y39.9 Z17
N4180 G1 Z7
N4190 MCALL CYCLE81(7,-3,0,,3)
N4200 X42.75 Y39.9
N4210 MCALL
N4220 G1 X42.75 Y39.9 Z17
N4230 M5 M9
G0 X-10
N4240 M30
