;======================================================
;===   cPost Standard PP for SINUMERIK 840 D        ===
;======================================================
G54
TRANS X-13.4 Y-70 Z14.2
N10 G0 G90 G40 
N20 G17
N30 ;=============== TOOL CHANGE =================
N40 ; DESC : T1 Face Mill D 50
N50 ;=============================================
N60 T1 M06
N70 D1
N80 G0 G90 G40 G17
N90 G94 F64 S77 M3
N100 G64 SOFT
N110 G1 X62.941 Y-10 Z10 F300 G94
N120 Z0
N130 Y0
N140 X52.941
N150 X0 F64
N160 Y70
N170 X100
N180 Y0
N190 X52.941
N200 Y12.5
N210 Y25
N220 X25
N230 Y45
N240 X75
N250 Y25
N260 X52.941
N270 X42.941 F300
N280 Y15
N290 Z10
N300 ;=============== TOOL CHANGE =================
N310 ; DESC : T2 End Mill D 12
N320 ;=============================================
N330 T2 M06
N340 D1
N350 G0 G90 G40 G17
N360 G94 F107 S266 M3
N370 G64 SOFT
N380 G1 X66 Y86 Z8
N390 Z-2
N400 Y76
N410 X56
N420 X50 F107
N430 X20
N440 G3 X-1 Y55 I0 J-21
N450 G1 Y38
N460 Y32
N470 Y15
N480 G3 X20 Y-6 I21 J0
N490 G1 X80
N500 G3 X101 Y15 I0 J21
N510 G1 Y32
N520 Y38
N530 Y55
N540 G3 X80 Y76 I-21 J0
N550 G1 X50
N560 X44
N570 Y71
N580 X50
N590 X80
N600 G2 X96 Y55 I0 J-16
N610 G1 Y38
N620 Y32
N630 Y15
N640 G2 X80 Y-1 I-16 J0
N650 G1 X20
N660 G2 X4 Y15 I0 J16
N670 G1 Y32
N680 Y38
N690 Y55
N700 G2 X20 Y71 I16 J0
N710 G1 X50
N720 X56
N730 Y66
N740 X50
N750 X20
N760 G3 X9 Y55 I0 J-11
N770 G1 Y38
N780 Y32
N790 Y15
N800 G3 X20 Y4 I11 J0
N810 G1 X80
N820 G3 X91 Y15 I0 J11
N830 G1 Y32
N840 Y38
N850 Y55
N860 G3 X80 Y66 I-11 J0
N870 G1 X50
N880 X44
N890 Y61
N900 X50
N910 X80
N920 G2 X86 Y55 I0 J-6
N930 G1 Y38
N940 Y32
N950 Y15
N960 G2 X80 Y9 I-6 J0
N970 G1 X20
N980 G2 X14 Y15 I0 J6
N990 G1 Y32
N1000 Y38
N1010 Y55
N1020 G2 X20 Y61 I6 J0
N1030 G1 X50
N1040 X56
N1050 G0 Z1
N1060 G0 Y76
N1070 G1 Z-4 F300
N1080 X50 F107
N1090 X20
N1100 G3 X-1 Y55 I0 J-21
N1110 G1 Y38
N1120 Y32
N1130 Y15
N1140 G3 X20 Y-6 I21 J0
N1150 G1 X80
N1160 G3 X101 Y15 I0 J21
N1170 G1 Y32
N1180 Y38
N1190 Y55
N1200 G3 X80 Y76 I-21 J0
N1210 G1 X50
N1220 X44
N1230 Y71
N1240 X50
N1250 X80
N1260 G2 X96 Y55 I0 J-16
N1270 G1 Y38
N1280 Y32
N1290 Y15
N1300 G2 X80 Y-1 I-16 J0
N1310 G1 X20
N1320 G2 X4 Y15 I0 J16
N1330 G1 Y32
N1340 Y38
N1350 Y55
N1360 G2 X20 Y71 I16 J0
N1370 G1 X50
N1380 X56
N1390 Y66
N1400 X50
N1410 X20
N1420 G3 X9 Y55 I0 J-11
N1430 G1 Y38
N1440 Y32
N1450 Y15
N1460 G3 X20 Y4 I11 J0
N1470 G1 X80
N1480 G3 X91 Y15 I0 J11
N1490 G1 Y32
N1500 Y38
N1510 Y55
N1520 G3 X80 Y66 I-11 J0
N1530 G1 X50
N1540 X44
N1550 Y61
N1560 X50
N1570 X80
N1580 G2 X86 Y55 I0 J-6
N1590 G1 Y38
N1600 Y32
N1610 Y15
N1620 G2 X80 Y9 I-6 J0
N1630 G1 X20
N1640 G2 X14 Y15 I0 J6
N1650 G1 Y32
N1660 Y38
N1670 Y55
N1680 G2 X20 Y61 I6 J0
N1690 G1 X50
N1700 X56
N1710 G0 Z-1
N1720 G0 Y76
N1730 G1 Z-6 F300
N1740 X50 F107
N1750 X20
N1760 G3 X-1 Y55 I0 J-21
N1770 G1 Y38
N1780 Y32
N1790 Y15
N1800 G3 X20 Y-6 I21 J0
N1810 G1 X80
N1820 G3 X101 Y15 I0 J21
N1830 G1 Y32
N1840 Y38
N1850 Y55
N1860 G3 X80 Y76 I-21 J0
N1870 G1 X50
N1880 X44
N1890 Y71
N1900 X50
N1910 X80
N1920 G2 X96 Y55 I0 J-16
N1930 G1 Y38
N1940 Y32
N1950 Y15
N1960 G2 X80 Y-1 I-16 J0
N1970 G1 X20
N1980 G2 X4 Y15 I0 J16
N1990 G1 Y32
N2000 Y38
N2010 Y55
N2020 G2 X20 Y71 I16 J0
N2030 G1 X50
N2040 X56
N2050 Y66
N2060 X50
N2070 X20
N2080 G3 X9 Y55 I0 J-11
N2090 G1 Y38
N2100 Y32
N2110 Y15
N2120 G3 X20 Y4 I11 J0
N2130 G1 X80
N2140 G3 X91 Y15 I0 J11
N2150 G1 Y32
N2160 Y38
N2170 Y55
N2180 G3 X80 Y66 I-11 J0
N2190 G1 X50
N2200 X44
N2210 Y61
N2220 X50
N2230 X80
N2240 G2 X86 Y55 I0 J-6
N2250 G1 Y38
N2260 Y32
N2270 Y15
N2280 G2 X80 Y9 I-6 J0
N2290 G1 X20
N2300 G2 X14 Y15 I0 J6
N2310 G1 Y32
N2320 Y38
N2330 Y55
N2340 G2 X20 Y61 I6 J0
N2350 G1 X50
N2360 X56
N2370 G0 Z-3
N2380 G0 Y76
N2390 G1 Z-8 F300
N2400 X50 F107
N2410 X20
N2420 G3 X-1 Y55 I0 J-21
N2430 G1 Y38
N2440 Y32
N2450 Y15
N2460 G3 X20 Y-6 I21 J0
N2470 G1 X80
N2480 G3 X101 Y15 I0 J21
N2490 G1 Y32
N2500 Y38
N2510 Y55
N2520 G3 X80 Y76 I-21 J0
N2530 G1 X50
N2540 X44
N2550 Y71
N2560 X50
N2570 X80
N2580 G2 X96 Y55 I0 J-16
N2590 G1 Y38
N2600 Y32
N2610 Y15
N2620 G2 X80 Y-1 I-16 J0
N2630 G1 X20
N2640 G2 X4 Y15 I0 J16
N2650 G1 Y32
N2660 Y38
N2670 Y55
N2680 G2 X20 Y71 I16 J0
N2690 G1 X50
N2700 X56
N2710 Y66
N2720 X50
N2730 X20
N2740 G3 X9 Y55 I0 J-11
N2750 G1 Y38
N2760 Y32
N2770 Y15
N2780 G3 X20 Y4 I11 J0
N2790 G1 X80
N2800 G3 X91 Y15 I0 J11
N2810 G1 Y32
N2820 Y38
N2830 Y55
N2840 G3 X80 Y66 I-11 J0
N2850 G1 X50
N2860 X44
N2870 Y61
N2880 X50
N2890 X80
N2900 G2 X86 Y55 I0 J-6
N2910 G1 Y38
N2920 Y32
N2930 Y15
N2940 G2 X80 Y9 I-6 J0
N2950 G1 X20
N2960 G2 X14 Y15 I0 J6
N2970 G1 Y32
N2980 Y38
N2990 Y55
N3000 G2 X20 Y61 I6 J0
N3010 G1 X50
N3020 X56
N3030 G0 Z-5
N3040 G0 Y76
N3050 G1 Z-10 F300
N3060 X50 F107
N3070 X20
N3080 G3 X-1 Y55 I0 J-21
N3090 G1 Y38
N3100 Y32
N3110 Y15
N3120 G3 X20 Y-6 I21 J0
N3130 G1 X80
N3140 G3 X101 Y15 I0 J21
N3150 G1 Y32
N3160 Y38
N3170 Y55
N3180 G3 X80 Y76 I-21 J0
N3190 G1 X50
N3200 X44
N3210 Y71
N3220 X50
N3230 X80
N3240 G2 X96 Y55 I0 J-16
N3250 G1 Y38
N3260 Y32
N3270 Y15
N3280 G2 X80 Y-1 I-16 J0
N3290 G1 X20
N3300 G2 X4 Y15 I0 J16
N3310 G1 Y32
N3320 Y38
N3330 Y55
N3340 G2 X20 Y71 I16 J0
N3350 G1 X50
N3360 X56
N3370 Y66
N3380 X50
N3390 X20
N3400 G3 X9 Y55 I0 J-11
N3410 G1 Y38
N3420 Y32
N3430 Y15
N3440 G3 X20 Y4 I11 J0
N3450 G1 X80
N3460 G3 X91 Y15 I0 J11
N3470 G1 Y32
N3480 Y38
N3490 Y55
N3500 G3 X80 Y66 I-11 J0
N3510 G1 X50
N3520 X44
N3530 Y61
N3540 X50
N3550 X80
N3560 G2 X86 Y55 I0 J-6
N3570 G1 Y38
N3580 Y32
N3590 Y15
N3600 G2 X80 Y9 I-6 J0
N3610 G1 X20
N3620 G2 X14 Y15 I0 J6
N3630 G1 Y32
N3640 Y38
N3650 Y55
N3660 G2 X20 Y61 I6 J0
N3670 G1 X50
N3680 X56
N3690 X66 F300
N3700 Y71
N3710 Z0
N3720 X49.759 Y37.99 Z18
N3730 Z-2
N3740 G3 X47 Y35 I0.241 J-2.99 F107
N3750 G3 X50 Y32 I3 J0
N3760 G3 X53 Y35 I0 J3
N3770 G3 X50 Y38 I-3 J0
N3780 G3 X49.759 Y37.99 I0 J-3
N3790 G1 X49.517 Y40.981
N3800 X49.276 Y43.971
N3810 G3 X41 Y35 I0.724 J-8.971
N3820 G3 X50 Y26 I9 J0
N3830 G3 X59 Y35 I0 J9
N3840 G3 X50 Y44 I-9 J0
N3850 G3 X49.276 Y43.971 I0 J-9
N3860 G0 Z1
N3870 G0 X49.759 Y37.99
N3880 G1 Z-4 F300
N3890 G3 X47 Y35 I0.241 J-2.99 F107
N3900 G3 X50 Y32 I3 J0
N3910 G3 X53 Y35 I0 J3
N3920 G3 X50 Y38 I-3 J0
N3930 G3 X49.759 Y37.99 I0 J-3
N3940 G1 X49.517 Y40.981
N3950 X49.276 Y43.971
N3960 G3 X41 Y35 I0.724 J-8.971
N3970 G3 X50 Y26 I9 J0
N3980 G3 X59 Y35 I0 J9
N3990 G3 X50 Y44 I-9 J0
N4000 G3 X49.276 Y43.971 I0 J-9
N4010 G0 Z-1
N4020 G0 X49.759 Y37.99
N4030 G1 Z-6 F300
N4040 G3 X47 Y35 I0.241 J-2.99 F107
N4050 G3 X50 Y32 I3 J0
N4060 G3 X53 Y35 I0 J3
N4070 G3 X50 Y38 I-3 J0
N4080 G3 X49.759 Y37.99 I0 J-3
N4090 G1 X49.517 Y40.981
N4100 X49.276 Y43.971
N4110 G3 X41 Y35 I0.724 J-8.971
N4120 G3 X50 Y26 I9 J0
N4130 G3 X59 Y35 I0 J9
N4140 G3 X50 Y44 I-9 J0
N4150 G3 X49.276 Y43.971 I0 J-9
N4160 G1 Z4 F300
N4170 ;=============== TOOL CHANGE =================
N4180 ; DESC : T3 End Mill D 6
N4190 ;=============================================
N4200 T3 M06
N4210 D1
N4220 G0 G90 G40 G17
N4230 G94 F212 S530 M3
N4240 G64 SOFT
N4250 G1 X83 Y35 Z22
N4260 Z2
N4270 X19 F212
N4280 Z0
N4290 X83
N4300 Z-2
N4310 X19
N4320 Z18 F300
N4330 ;=============== TOOL CHANGE =================
N4340 ; DESC : T5 Drill D 8
N4350 ;=============================================
N4360 T5 M06
N4370 D1
N4380 G0 G90 G40 G17
N4390 G94 F300 S400 M3
N4400 G64 SOFT
N4410 G0 X10 Y60 Z30
N4420 G1 Z10
N4430 MCALL CYCLE81(10,-10,0,,10)
N4440 X10 Y60
N4450 Y10
N4460 X90
N4470 Y60
N4480 MCALL
N4490 G1 X90 Y60 Z30 F1000
N4500 M5 M9
N4510 M30
