;======================================================
;===   cPost Standard PP for SINUMERIK 840 D        ===
;======================================================
G54
TRANS X-16.8 Y-80 Z19.8
N10 G0 G90 G40 
N20 G17
N30 ;=============== TOOL CHANGE =================
N40 ; DESC : T1 Face Mill D 50
N50 ;=============================================
N60 T1 M06
N70 D1
N80 G0 G90 G40 G17
N90 G94 F360 S1200 M3
N100 G64 SOFT
N110 G1 X87.561 Y80 Z-5 F360 G94
N120 X97.561
N130 X200
N140 Y0
N150 X0
N160 Y80
N170 X97.561
N180 Y70
N190 Y60
N200 X180
N210 Y20
N220 X20
N230 Y60
N240 X97.561
N250 X107.561
N260 ;=============== TOOL CHANGE =================
N270 ; DESC : T2 End Mill D 10
N280 ;=============================================
N290 T2 M06
N300 D1
N310 G0 G90 G40 G17
N320 G94 F120 S4000 M3
N330 G64 SOFT
N340 G1 X30 Y24 Z-10 F120
N350 Z-20
N360 Y56
N370 X24
N380 Y24
N390 X30
N400 Y21
N410 Y18
N420 X36
N430 Y62
N440 X18
N450 Y18
N460 X30
N470 Y15
N480 Y12
N490 X42
N500 Y68
N510 X12
N520 Y12
N530 X30
N540 Y9
N550 Y6
N560 X48.686
N570 G2 X48 Y10 I11.314 J4
N580 G1 Y70
N590 G2 X48.686 Y74 I12 J0
N600 G1 X6
N610 Y6
N620 X30
N630 G0 Z-4
N640 G1 X170 Y56
N650 Z-20
N660 Y24
N670 X176
N680 Y56
N690 X170
N700 Y59
N710 Y62
N720 X164
N730 Y18
N740 X182
N750 Y62
N760 X170
N770 Y65
N780 Y68
N790 X158
N800 Y12
N810 X188
N820 Y68
N830 X170
N840 Y71
N850 Y74
N860 X151.314
N870 G2 X152 Y70 I-11.314 J-4
N880 G1 Y10
N890 G2 X151.314 Y6 I-12 J0
N900 G1 X194
N910 Y74
N920 X170
N930 Y77
N940 Y80
N950 X0
N960 Y0
N970 X200
N980 Y80
N990 X170
N1000 X146 Y40
N1010 Y10
N1020 G2 X140 Y4 I-6 J0
N1030 G1 X60
N1040 G2 X54 Y10 I0 J6
N1050 G1 Y70
N1060 G2 X60 Y76 I6 J0
N1070 G1 X140
N1080 G2 X146 Y70 I0 J-6
N1090 G1 Y40
N1100 Z-10
N1110 ;=============== TOOL CHANGE =================
N1120 ; DESC : T3 End Mill D 10
N1130 ;=============================================
N1140 T2 M06
N1150 D1
N1160 G0 G90 G40 G17
N1170 G94 F120 S4000 M3
N1180 G64 SOFT
N1190 G1 X99.922 Y40.997 Z-2
N1200 Z-12
N1210 G3 X99 Y40 I0.078 J-0.997
N1220 G3 X100 Y39 I1 J0
N1230 G3 X101 Y40 I0 J1
N1240 G3 X100 Y41 I-1 J0
N1250 G3 X99.922 Y40.997 I0 J-1
N1260 G1 X99.686 Y43.988
N1270 X99.451 Y46.978
N1280 G3 X93 Y40 I0.549 J-6.978
N1290 G3 X100 Y33 I7 J0
N1300 G3 X107 Y40 I0 J7
N1310 G3 X100 Y47 I-7 J0
N1320 G3 X99.451 Y46.978 I0 J-7
N1330 G1 X99.215 Y49.969
N1340 X98.98 Y52.96
N1350 G3 X87 Y40 I1.02 J-12.96
N1360 G3 X100 Y27 I13 J0
N1370 G3 X113 Y40 I0 J13
N1380 G3 X100 Y53 I-13 J0
N1390 G3 X98.98 Y52.96 I0 J-13
N1400 G1 X98.745 Y55.951
N1410 X98.509 Y58.941
N1420 G3 X81 Y40 I1.491 J-18.941
N1430 G3 X100 Y21 I19 J0
N1440 G3 X119 Y40 I0 J19
N1450 G3 X100 Y59 I-19 J0
N1460 G3 X98.509 Y58.941 I0 J-19
N1470 G1 Z-2
N1480 ;=============== TOOL CHANGE =================
N1490 ; DESC : T8 End Mill D 10
N1500 ;=============================================
N1510 T2 M06
N1520 D1
N1530 G0 G90 G40 G17
N1540 G94 F160 S8000 M3
N1550 G64 SOFT
N1560 G1 X124.812 Y40 Z2 F160
N1570 Z-8
N1580 X125 Y40
N1590 X140
N1600 Y40
N1610 X124.812
N1620 X125 Y40
N1630 Z2
N1640 ;=============== TOOL CHANGE =================
N1650 ; DESC : T9 End Mill D 10
N1660 ;=============================================
N1670 T2 M06
N1680 D1
N1690 G0 G90 G40 G17
N1700 G94 F160 S8000 M3
N1710 G64 SOFT
N1720 G1 X75 Y40 Z2
N1730 Z-8
N1740 X75.188 Y43
N1750 X60
N1760 Y37
N1770 X75.188
N1780 X75 Y40
N1790 Z2
N1800 ;=============== TOOL CHANGE =================
N1810 ; DESC : T10 Drill D 10
N1820 ;=============================================
N1830 T5 M06
N1840 D1
N1850 G0 G90 G40 G17
N1860 G94 F1800 S3600 M3
N1870 G64 SOFT
N1880 G0 X50 Y5 Z-9
N1890 G1 Z-19 F1800
N1900 MCALL CYCLE81(-19,-20,0,,12)
N1910 X50 Y5
N1920 Y75
N1930 X150
N1940 Y5
N1950 MCALL
N1960 G1 X150 Y5 Z-9 F1000
N1970 M5 M9
N1980 M30
