G54
TRANS X-31 Y-60 Z12.3
;======================================================
;===   cPost Standard PP for SINUMERIK 840 D        ===
;======================================================
N10 G0 G90 G40 
N20 G17
N30 ;=============== TOOL CHANGE =================
N40 ; DESC : T1 Face Mill D 40
N50 ;=============================================
N60 T1 M06
N70 D1
N80 G0 G90 G40 G17
N90 G94 F1000 S70 M3
N100 G64 SOFT
N110 G1 X18.256 Y-17.45 Z23 F300 G94
N120 Z13
N130 G3 X15.834 Y-21.187 I7.892 J-7.767 F1000
N140 G2 X0 Y-32 I-15.834 J6.187
N150 G2 X-15.834 Y-21.187 I0 J17
N160 G3 X-26.148 Y-14.144 I-10.314 J-4.03
N170 G3 X-30.177 Y-14.903 I0 J-11.073
N180 G2 X-36 Y-16 I-5.823 J14.903
N190 G2 X-52 Y0 I0 J16
N200 G2 X-36 Y16 I16 J0
N210 G2 X-30.177 Y14.903 I0 J-16
N220 G3 X-26.148 Y14.144 I4.029 J10.314
N230 G3 X-15.834 Y21.187 I0 J11.073
N240 G2 X0 Y32 I15.834 J-6.187
N250 G2 X15.834 Y21.187 I0 J-17
N260 G3 X26.148 Y14.144 I10.314 J4.03
N270 G3 X30.177 Y14.903 I0 J11.073
N280 G2 X36 Y16 I5.823 J-14.903
N290 G2 X52 Y0 I0 J-16
N300 G2 X36 Y-16 I-16 J0
N310 G2 X30.177 Y-14.903 I0 J16
N320 G3 X26.148 Y-14.144 I-4.029 J-10.314
N330 G3 X18.256 Y-17.45 I0 J-11.073
N340 G1 X14.692 Y-13.942
N350 X11.129 Y-10.435
N360 G3 X8.415 Y-13.832 I15.019 J-14.782
N370 G2 X0 Y-18.429 I-8.415 J5.403
N380 G2 X-8.415 Y-13.832 I0 J10
N390 G3 X-13.835 Y-8.115 I-17.733 J-11.385
N400 G2 X-17.992 Y0 I5.843 J8.115
N410 G2 X-13.835 Y8.115 I10 J0
N420 G3 X-8.415 Y13.832 I-12.313 J17.102
N430 G2 X0 Y18.429 I8.415 J-5.403
N440 G2 X8.415 Y13.832 I0 J-10
N450 G3 X13.835 Y8.115 I17.733 J11.385
N460 G2 X17.992 Y0 I-5.843 J-8.115
N470 G2 X13.835 Y-8.115 I-10 J0
N480 G1 X11.129 Y-10.435
N490 X7.565 Y-6.927
N500 X4.001 Y-3.42
N510 X3.624 Y-3.811
N520 G2 X0 Y-5.366 I-3.624 J3.445
N530 G2 X-3.624 Y-3.811 I0 J5
N540 G1 X-3.928 Y-3.495
N550 G2 X-5.353 Y0 I3.575 J3.495
N560 G2 X-3.928 Y3.495 I5 J0
N570 G1 X-3.624 Y3.811
N580 G2 X0 Y5.366 I3.624 J-3.445
N590 G2 X3.624 Y3.811 I0 J-5
N600 G1 X3.928 Y3.495
N610 G2 X5.353 Y0 I-3.575 J-3.495
N620 G2 X4.001 Y-3.42 I-5 J0
N630 G1 Z23 F1
N640 ;=============== TOOL CHANGE =================
N650 ; DESC : T2 Face Mill D 40
N660 ;=============================================
N670 T2 M06
N680 D1
N690 G0 G90 G40 G17
N700 G94 F1000 S70 M3
N710 G64 SOFT
N720 G1 X21.01 Y35.967 Z19 F300
N730 Z9
N740 G2 X39.734 Y2.242 I-21.01 J-33.725 F1000
N750 G1 Y-2.314
N760 G2 X0 Y-42.048 I-39.734 J0
N770 G2 X-39.734 Y-2.314 I0 J39.734
N780 G1 Y2.242
N790 G2 X0 Y41.976 I39.734 J0
N800 G2 X39.734 Y2.242 I0 J-39.734
N810 G1 Y-2.314
N820 G2 X28.171 Y-30.335 I-39.734 J0
N830 G1 Z19 F1
N840 X18.078 Y40.404 Z15 F300
N850 Z5
N860 G2 X24.103 Y35.049 I-18.078 J-26.404 F1000
N870 G1 X29.859 Y28.458
N880 X35.265 Y22.267
N890 X40.602 Y16.156
N900 G2 X45.538 Y3 I-15.064 J-13.156
N910 G1 Y-3
N920 G2 X40.244 Y-16.555 I-20 J0
N930 G1 X31.82 Y-25.694
N940 X25.889 Y-32.128
N950 X23.529 Y-34.688
N960 G2 X0 Y-45 I-23.529 J21.688
N970 G2 X-23.529 Y-34.688 I0 J32
N980 G1 X-25.889 Y-32.128
N990 X-31.82 Y-25.694
N1000 X-40.244 Y-16.555
N1010 G2 X-45.538 Y-3 I14.706 J13.555
N1020 G1 Y3
N1030 G2 X-40.602 Y16.156 I20 J0
N1040 G1 X-29.928 Y28.378
N1050 X-24.103 Y35.049
N1060 G2 X0 Y46 I24.103 J-21.049
N1070 G2 X24.103 Y35.049 I0 J-32
N1080 G1 X29.859 Y28.458
N1090 X35.265 Y22.267
N1100 X40.602 Y16.156
N1110 G2 X45.538 Y3 I-15.064 J-13.156
N1120 G1 Y-3
N1130 G2 X40.244 Y-16.555 I-20 J0
N1140 G1 X36.254 Y-20.883
N1150 Z15 F1
N1160 M5 M9
N1170 M30
