G54
TRANS X0 Y-79 Z29
;======================================================
;===   cPost Standard PP for SINUMERIK 840 D        ===
;======================================================
N10 G0 G90 G40 
N20 G17
N30 ;=============== TOOL CHANGE =================
N40 ; DESC : T1 Face Mill D 40
N50 ;=============================================
N60 T1 M06
N70 D1
N80 G0 G90 G40 G17
N90 G94 F1000 S1000 M3
N100 G64 SOFT
N110 G0 X49.5 Y79 Z33
N120 G0 Z23
N130 G1 Z-2 F400 G94
N140 X99 F1000
N150 Y0
N160 X0
N170 Y79
N180 X49.5
N190 Y69
N200 Y59
N210 X79
N220 Y20
N230 X20
N240 Y59
N250 X49.5
N260 Z23 F1
N270 G0 Z33
N280 G0 X7.481 Y74.989 Z20
N290 G0 Z10
N300 G1 Z-10 F400
N310 G2 X14.316 Y81.774 I42.019 J-35.489 F1000
N320 G2 X28.911 Y90.501 I35.184 J-42.274
N330 G2 X49.5 Y94.5 I20.589 J-51.001
N340 G2 X63.781 Y92.614 I0 J-55
N350 G2 X93.361 Y72.685 I-14.281 J-53.114
N360 G2 X104.5 Y39.5 I-43.861 J-33.185
N370 G2 X104.285 Y34.638 I-55 J0
N380 G2 X93.702 Y6.771 I-54.785 J4.862
N390 G2 X49.5 Y-15.5 I-44.202 J32.729
N400 G2 X4.982 Y7.202 I0 J55
N410 G2 X-5.5 Y39.5 I44.518 J32.298
N420 G2 X-5.102 Y46.107 I55 J0
N430 G2 X14.316 Y81.774 I54.602 J-6.607
N440 G2 X28.911 Y90.501 I35.184 J-42.274
N450 G2 X49.5 Y94.5 I20.589 J-51.001
N460 G2 X55.104 Y94.214 I0 J-55
N470 G1 Z10 F1
N480 G0 Z20
N490 ;=============== TOOL CHANGE =================
N500 ; DESC : T2 End Mill D 6
N510 ;=============================================
N520 T2 M06
N530 D1
N540 G0 G90 G40 G17
N550 G94 F1000 S1000 M3
N560 G64 SOFT
N570 G0 X31.547 Y13.013 Z30
N580 G0 Z20
N590 G1 Z10 F400
N600 G2 X27.105 Y18.063 I24.436 J25.971 F1000
N610 G1 X26.821 Y16.93
N620 G3 X31.547 Y13.013 I22.674 J22.544
N630 G0 Z20
N640 G0 X28.254 Y49.961
N650 G0 Z10
N660 G2 X29.156 Y46.033 I-8.098 J-3.928
N670 G2 X28.789 Y43.489 I-9 J0
N680 G3 X27.481 Y36.01 I32.211 J-9.489
N690 G2 X28.805 Y36.108 I1.324 J-8.902
N700 G2 X31.014 Y35.833 I0 J-9
N710 G1 X34.733 Y35.013
N720 G2 X32.405 Y41.053 I6.672 J6.04
N730 G2 X34.379 Y46.677 I9 J0
N740 G1 X36.505 Y49.441
N750 G2 X32.882 Y48.68 I-3.623 J8.239
N760 G2 X28.254 Y49.961 I0 J9
N770 G1 X24.503 Y54.202
N780 X24.375 Y53.982
N790 X24.753 Y53.77
N800 X24.503 Y54.202
N810 G0 Z20
N820 G0 X45.658 Y68.244
N830 G0 Z10
N840 G1 X44.935 Y68.138
N850 G2 X42.981 Y59.555 I-71.935 J11.862
N860 G3 X47.24 Y68.412 I-78.904 J43.393
N870 G1 X45.658 Y68.244
N880 G0 Z20
N890 G0 X77.103 Y48.391
N900 G0 X77.093 Y48.424 Z10
N910 G2 X50.042 Y34.098 I-53.063 J67.496
N920 G3 X78.265 Y43.189 I-4.042 J60.902
N930 G3 X77.103 Y48.391 I-28.713 J-3.682
N940 G1 X78.531 Y48.851
N950 X79.958 Y49.312
N960 X78.346 Y53.349
N970 G2 X42.762 Y35.208 I-54.316 J62.571
N980 G2 X41.405 Y35.053 I-1.357 J5.845
N990 G2 X35.405 Y41.053 I0 J6
N1000 G2 X36.721 Y44.802 I6 J0
N1010 G3 X51.625 Y71.428 I-72.644 J58.146
N1020 G3 X49.49 Y71.5 I-2.135 J-31.762
N1030 G3 X42.281 Y70.673 I0 J-31.834
N1040 G2 X38.504 Y55.584 I-69.281 J9.327
N1050 G2 X32.882 Y51.68 I-5.622 J2.096
N1060 G2 X27.647 Y54.747 I0 J6
N1070 G1 X24.622 Y59.624
N1080 G3 X20.058 Y52.032 I24.735 J-20.039
N1090 G2 X20.156 Y52.033 I0.098 J-5.999
N1100 G2 X26.156 Y46.033 I0 J-6
N1110 G2 X25.912 Y44.337 I-6 J0
N1120 G3 X24.421 Y34 I35.088 J-10.337
N1130 G3 X24.52 Y31.308 I36.579 J0
N1140 G2 X28.805 Y33.108 I4.285 J-4.2
N1150 G2 X30.278 Y32.924 I0 J-6
N1160 G3 X46 Y30.964 I15.722 J62.076
N1170 G3 X81.076 Y41.425 I0 J64.036
N1180 G1 X81.429 Y41.639
N1190 G3 X79.958 Y49.312 I-31.877 J-2.132
N1200 G1 X81.386 Y49.772
N1210 X82.814 Y50.232
N1220 G3 X79.132 Y58.119 I-33.262 J-10.725
N1230 G2 X42.084 Y38.131 I-55.102 J57.801
N1240 G2 X41.405 Y38.053 I-0.679 J2.922
N1250 G2 X38.405 Y41.053 I0 J3
N1260 G2 X39.063 Y42.927 I3 J0
N1270 G3 X55.644 Y73.952 I-74.986 J60.021
N1280 G3 X49.49 Y74.5 I-6.154 J-34.286
N1290 G3 X39.226 Y72.953 I0 J-34.834
N1300 G1 X39.374 Y71.577
N1310 G2 X35.693 Y56.632 I-66.374 J8.423
N1320 G2 X32.882 Y54.68 I-2.811 J1.048
N1330 G2 X30.265 Y56.213 I0 J3
N1340 G3 X24.883 Y64.372 I-58.826 J-32.95
N1350 G3 X15.454 Y47.581 I24.474 J-24.787
N1360 G2 X19.56 Y48.973 I7.378 J-15.016
N1370 G2 X20.156 Y49.033 I0.596 J-2.94
N1380 G2 X23.156 Y46.033 I0 J-3
N1390 G2 X23.034 Y45.185 I-3 J0
N1400 G3 X21.421 Y34 I37.966 J-11.185
N1410 G3 X23.977 Y20.008 I39.579 J0
N1420 G2 X24.17 Y18.947 I-2.805 J-1.061
N1430 G2 X23.038 Y16.6 I-2.998 J0
N1440 G3 X49.495 Y4.5 I26.457 J22.874
N1450 G3 X62.362 Y6.954 I0 J34.974
N1460 G2 X55.983 Y6.324 I-6.379 J32.03
N1470 G2 X26.056 Y25.906 I0 J32.66
N1480 G2 X25.805 Y27.108 I2.749 J1.202
N1490 G2 X28.805 Y30.108 I3 J0
N1500 G2 X29.541 Y30.016 I0 J-3
N1510 G3 X46 Y27.964 I16.459 J64.984
N1520 G3 X82.72 Y38.916 I0 J67.036
N1530 G2 X84.359 Y39.405 I1.639 J-2.501
N1540 G2 X84.496 Y39.402 I0 J-2.99
N1550 G1 X84.5 Y39.5
N1560 G3 X84.5 Y39.507 I-34.948 J0.007
N1570 G3 X82.814 Y50.232 I-34.948 J0
N1580 G1 Z20 F1
N1590 G0 Z30
N1600 M5 M9
N1610 M30
