;======================================================
;===   cPost Standard PP for SINUMERIK 840 D        ===
;======================================================
G54
TRANS Y-100 Z50
N10 G0 G90 G40 
N20 G17
N30 ;=============== TOOL CHANGE =================
N40 ; DESC : T2 End Mill D 12
N50 ;=============================================
N60 T3 M06
N70 D1
N80 G0 G90 G40 G17
N90 G94 F160 S1600 M3
N100 G64 SOFT
N110 G1 X223.09 Y80.718 Z-20 F100 G94
N120 Z-30
N130 X213.203 Y79.224
N140 X214.697 Y69.336
N150 G2 X216 Y52 I-114.697 J-17.336 F160
N160 G2 X100 Y-64 I-116 J0
N170 G2 X-16 Y52 I0 J116
N180 G2 X100 Y168 I116 J0
N190 G2 X216 Y52 I0 J-116
N200 G2 X214.697 Y34.664 I-116 J0
N210 G0 Z1
N220 G0 X204.81 Y67.842
N230 G1 Z-30
N240 G2 X206 Y52 I-104.81 J-15.842
N250 G2 X100 Y-54 I-106 J0
N260 G2 X-6 Y52 I0 J106
N270 G2 X100 Y158 I106 J0
N280 G2 X206 Y52 I0 J-106
N290 G2 X204.81 Y36.158 I-106 J0
N300 G0 Z1
N310 G0 X194.922 Y66.347
N320 G1 Z-30
N330 G2 X196 Y52 I-94.922 J-14.347
N340 G2 X100 Y-44 I-96 J0
N350 G2 X4 Y52 I0 J96
N360 G2 X100 Y148 I96 J0
N370 G2 X196 Y52 I0 J-96
N380 G2 X194.922 Y37.653 I-96 J0
N390 G0 Z1
N400 G0 X185.034 Y64.853
N410 G1 Z-30
N420 G2 X186 Y52 I-85.034 J-12.853
N430 G2 X100 Y-34 I-86 J0
N440 G2 X14 Y52 I0 J86
N450 G2 X100 Y138 I86 J0
N460 G2 X186 Y52 I0 J-86
N470 G2 X185.034 Y39.147 I-86 J0
N480 G0 Z1
N490 G0 X175.146 Y63.358
N500 G1 Z-30
N510 G2 X176 Y52 I-75.146 J-11.358
N520 G2 X100 Y-24 I-76 J0
N530 G2 X24 Y52 I0 J76
N540 G2 X100 Y128 I76 J0
N550 G2 X176 Y52 I0 J-76
N560 G2 X175.146 Y40.642 I-76 J0
N570 G0 Z1
N580 G0 X165.259 Y61.864
N590 G1 Z-30
N600 G2 X166 Y52 I-65.259 J-9.864
N610 G2 X100 Y-14 I-66 J0
N620 G2 X34 Y52 I0 J66
N630 G2 X100 Y118 I66 J0
N640 G2 X166 Y52 I0 J-66
N650 G2 X165.259 Y42.136 I-66 J0
N660 G0 Z1
N670 G0 X155.371 Y60.369
N680 G1 Z-30
N690 G2 X156 Y52 I-55.371 J-8.369
N700 G2 X100 Y-4 I-56 J0
N710 G2 X44 Y52 I0 J56
N720 G2 X100 Y108 I56 J0
N730 G2 X156 Y52 I0 J-56
N740 G2 X155.371 Y43.631 I-56 J0
N750 G1 X145.483 Y58.875
N760 G2 X146 Y52 I-45.483 J-6.875
N770 G2 X100 Y6 I-46 J0
N780 G2 X54 Y52 I0 J46
N790 G2 X100 Y98 I46 J0
N800 G2 X146 Y52 I0 J-46
N810 G2 X145.483 Y45.125 I-46 J0
N820 G1 Z5 F300
N830 ;=============== TOOL CHANGE =================
N840 ; DESC : T3 End Mill D 6
N850 ;=============================================
N860 T4 M06
N870 D1
N880 G0 G90 G40 G17
N890 G94 F160 S1600 M3
N900 G64 SOFT
N910 G1 X116.248 Y68.278 Z17 F100
N920 Z-3
N930 G2 X123 Y52 I-16.248 J-16.278 F160
N940 G2 X100 Y29 I-23 J0
N950 G2 X77 Y52 I0 J23
N960 G2 X100 Y75 I23 J0
N970 G2 X116.248 Y68.278 I0 J-23
N980 G1 Z32 F300
N990 ;=============== TOOL CHANGE =================
N1000 ; DESC : T6 Drill D 10
N1010 ;=============================================
N1020 T6 M06
N1030 D1
N1040 G0 G90 G40 G17
N1050 G94 F160 S1600 M3
N1060 G64 SOFT
N1070 G0 X180 Y82 Z5
N1080 MCALL CYCLE81(5,-30,0,,42.887)
N1090 X180 Y82
N1100 Y22
N1110 X20
N1120 Y82
N1130 MCALL
N1140 M5 M9
N1150 M30
