;======================================================
;===   cPost Standard PP for SINUMERIK 840 D        ===
;======================================================
N10 G0 G90 G40 
N20 G17
N30 ;=============== TOOL CHANGE =================
N40 ; DESC : T2 Face Mill D 40
N50 ;=============================================
N60 T2 M06
N70 D2
N80 G0 G90 G40 G17
N90 G94 F1000 S70 M3
N100 G64 SOFT
N110 G1 X30 Y0 Z-25 F300 G94
N120 Z-15
N130 X50 F1000
N140 X72.879
N150 X73.927
N160 X75
N170 G2 X95 Y20 I0 J20
N180 G1 Y21.073
N190 Y22.121
N200 Y37.879
N210 Y38.927
N220 Y40
N230 G2 X75 Y60 I-20 J0
N240 G1 X73.927
N250 X72.879
N260 X27.121
N270 X26.073
N280 X25
N290 G2 X5 Y40 I0 J-20
N300 G1 Y38.927
N310 Y37.879
N320 Y22.121
N330 Y21.073
N340 Y20
N350 G2 X25 Y0 I20 J0
N360 G1 X26.073
N370 X27.121
N380 X50
N390 X70
N400 Z-25
N410 M5 M9
N420 M30
