G54
TRANS X-31.3 Y-160 Z29.6
;======================================================
;===   cPost Standard PP for SINUMERIK 840 D        ===
;======================================================
N10 G0 G90 G40 
N20 G17
N30 ;=============== TOOL CHANGE =================
N40 ; DESC : T2 End Mill D 12
N50 ;=============================================
N60 T2 M06
N70 D1
N80 G0 G90 G40 G17
N90 G94 F1000 S70 M3
N100 G64 SOFT
N110 G1 X49.291 Y29.489 Z7 F300 G94
N120 Z-3
N130 G3 X47.5 Y27.5 I0.209 J-1.989 F1000
N140 G3 X49.5 Y25.5 I2 J0
N150 G3 X51.5 Y27.5 I0 J2
N160 G3 X49.5 Y29.5 I-2 J0
N170 G3 X49.291 Y29.489 I0 J-2
N180 G1 X48.977 Y32.473
N190 X48.664 Y35.456
N200 G3 X41.5 Y27.5 I0.836 J-7.956
N210 G3 X49.5 Y19.5 I8 J0
N220 G3 X57.5 Y27.5 I0 J8
N230 G3 X49.5 Y35.5 I-8 J0
N240 G3 X48.664 Y35.456 I0 J-8
N250 G1 X48.35 Y38.44
N260 X48.037 Y41.423
N270 G3 X35.5 Y27.5 I1.463 J-13.923
N280 G3 X49.5 Y13.5 I14 J0
N290 G3 X63.5 Y27.5 I0 J14
N300 G3 X49.5 Y41.5 I-14 J0
N310 G3 X48.037 Y41.423 I0 J-14
N320 G1 Z7 F1
N330 M5 M9
N340 M30
