G54
TRANS Y-100 Z35
;======================================================
;===   cPost Standard PP for SINUMERIK 840 D        ===
;======================================================
N10 G0 G90 G40 
N20 G17
N30 ;=============== TOOL CHANGE =================
N40 ; DESC : 
N50 ;=============================================
N60 T1 M06
N70 D1
N80 G0 G90 G40 G17
N90  F0 S0 
N100 G64 SOFT
N110 S70 M3
N120 G1 X0 Y100 Z5 F300 G94
N130 Z-5
N140 X140 F1000
N150 Y95.238
N160 X0
N170 Y90.476
N180 X140
N190 Y85.714
N200 X0
N210 Y80.952
N220 X140
N230 Y76.19
N240 X0
N250 Y71.429
N260 X140
N270 Y66.667
N280 X0
N290 Y61.905
N300 X140
N310 Y57.143
N320 X0
N330 Y52.381
N340 X140
N350 Y47.619
N360 X0
N370 Y42.857
N380 X140
N390 Y38.095
N400 X0
N410 Y33.333
N420 X140
N430 Y28.571
N440 X0
N450 Y23.81
N460 X140
N470 Y19.048
N480 X0
N490 Y14.286
N500 X140
N510 Y9.524
N520 X0
N530 Y4.762
N540 X140
N550 Y0
N560 X0
N570 Z5 F1
N580 M5 M9
N590 M30
